;FLAVOR:Marlin
;TIME:9823
;Filament used: 5.70994m
;Layer height: 0.2
;MINX:66.76
;MINY:58.568
;MINZ:0.3
;MAXX:153.24
;MAXY:142.124
;MAXZ:14.5
;Generated with Cura_SteamEngine 4.13.1
M140 S50
M105
M190 S50
M104 S195
M105
M109 S195
M82 ;absolute extrusion mode
G28 ;Home
G1 Z15.0 F2000 ;Move the platform
G92 E0
G92 E0
G1 F2700 E-6.5
;LAYER_COUNT:72
;LAYER:0
M107
M204 S1000
G0 F7500 X68.615 Y78.985 Z0.3
;TYPE:SKIRT
G1 F2700 E0
G1 F1500 X68.794 Y78.854 E0.01107
G1 X69.341 Y78.531 E0.04276
G1 X69.516 Y78.452 E0.05234
G1 X69.887 Y78.293 E0.07248
G1 X72.393 Y77.177 E0.20934
G1 X74.894 Y75.976 E0.34775
G1 X77.298 Y74.739 E0.48264
G1 X79.702 Y73.413 E0.61961
G1 X82.073 Y72.015 E0.75693
G1 X84.387 Y70.564 E0.89319
G1 X86.661 Y69.045 E1.02963
G1 X88.891 Y67.464 E1.16601
G1 X91.078 Y65.817 E1.3026
G1 X93.232 Y64.097 E1.44012
G1 X94.91 Y62.686 E1.5495
G1 X95.494 Y62.183 E1.58795
G1 X95.649 Y62.058 E1.59788
G1 X96.232 Y61.616 E1.63438
G1 X96.817 Y61.264 E1.66844
G1 X97.351 Y61.016 E1.69782
G1 X97.968 Y60.803 E1.73038
G1 X98.552 Y60.666 E1.76031
G1 X98.666 Y60.641 E1.76613
G1 X99.114 Y60.553 E1.78891
G1 X101.123 Y60.185 E1.89081
G1 X103.816 Y59.615 E2.02814
G1 X105.752 Y59.133 E2.12768
G1 X107.754 Y58.665 E2.23025
G1 X108.074 Y58.607 E2.24647
G1 X108.432 Y58.58 E2.26438
G1 X109.026 Y58.568 E2.29403
G1 X109.692 Y58.624 E2.32737
G1 X110.936 Y58.862 E2.39056
G1 X113.648 Y59.342 E2.52796
G1 X116.401 Y59.749 E2.6668
G1 X119.066 Y60.067 E2.8007
G1 X121.827 Y60.318 E2.93902
G1 X125.08 Y60.511 E3.1016
G1 X126.421 Y60.569 E3.16856
G1 X126.883 Y60.623 E3.19177
G1 X127.486 Y60.738 E3.2224
G1 X128.134 Y60.934 E3.25617
G1 X128.694 Y61.171 E3.28651
G1 X129.277 Y61.493 E3.31974
G1 X129.835 Y61.883 E3.3537
G1 X129.89 Y61.924 E3.35712
G1 X130.24 Y62.227 E3.38022
G1 X130.508 Y62.496 E3.39916
G1 X131.585 Y63.61 E3.47647
G1 X133.534 Y65.516 E3.61247
G1 X135.546 Y67.376 E3.74917
G1 X137.603 Y69.171 E3.88538
G1 X139.718 Y70.915 E4.02214
G1 X141.893 Y72.606 E4.15959
G1 X144.083 Y74.214 E4.29514
G1 X146.349 Y75.78 E4.43256
G1 X148.647 Y77.273 E4.56928
G1 X150.514 Y78.419 E4.67857
G1 X150.966 Y78.69 E4.70486
G1 X151.195 Y78.841 E4.71855
G1 X151.35 Y78.953 E4.72809
G1 X151.735 Y79.281 E4.75332
G1 X151.962 Y79.532 E4.77021
G1 X152.133 Y79.743 E4.78376
G1 X152.419 Y80.16 E4.80898
G1 X152.57 Y80.456 E4.82556
G1 X152.676 Y80.694 E4.83856
G1 X152.845 Y81.171 E4.86381
G1 X152.931 Y81.618 E4.88652
G1 X152.97 Y81.946 E4.903
G1 X152.991 Y82.245 E4.91795
G1 X153 Y82.647 E4.93801
G1 X153.001 Y137.088 E7.65408
G1 X152.991 Y137.784 E7.68881
G1 X152.974 Y138.071 E7.70315
G1 X152.952 Y138.281 E7.71369
G1 X152.816 Y138.927 E7.74662
G1 X152.763 Y139.092 E7.75527
G1 X152.571 Y139.559 E7.78046
G1 X152.425 Y139.816 E7.79521
G1 X152.271 Y140.061 E7.80964
G1 X151.964 Y140.472 E7.83524
G1 X151.898 Y140.547 E7.84022
G1 X151.386 Y141.015 E7.87483
G1 X151.207 Y141.146 E7.8859
G1 X150.631 Y141.482 E7.91916
G1 X150.48 Y141.55 E7.92743
G1 X149.906 Y141.745 E7.95767
G1 X149.683 Y141.798 E7.96911
G1 X149.043 Y141.883 E8.00132
G1 X148.66 Y141.894 E8.02043
G1 X147.792 Y141.895 E8.06374
G1 X147.087 Y141.885 E8.09891
G1 X146.758 Y141.872 E8.11534
G1 X144.43 Y141.74 E8.23167
G1 X141.674 Y141.661 E8.36922
G1 X138.957 Y141.659 E8.50478
G1 X136.193 Y141.736 E8.64273
G1 X134.692 Y141.812 E8.71771
G1 X133.411 Y141.885 E8.78172
G1 X133.002 Y141.895 E8.80213
G1 X129.846 Y141.894 E8.95958
G1 X129.18 Y141.885 E8.99281
G1 X128.997 Y141.877 E9.00195
G1 X127.916 Y141.801 E9.05602
G1 X125.15 Y141.643 E9.19424
G1 X122.397 Y141.564 E9.33164
G1 X119.679 Y141.562 E9.46724
G1 X116.929 Y141.639 E9.6045
G1 X114.178 Y141.794 E9.74196
G1 X113.199 Y141.87 E9.79095
G1 X112.93 Y141.885 E9.80439
G1 X112.52 Y141.895 E9.82485
G1 X71.713 Y141.894 E11.86072
G1 X71.058 Y141.885 E11.8934
G1 X70.497 Y141.827 E11.92154
G1 X70.253 Y141.78 E11.93394
G1 X69.765 Y141.646 E11.95919
G1 X69.308 Y141.437 E11.98426
G1 X68.974 Y141.252 E12.00331
G1 X68.552 Y140.973 E12.02855
G1 X68.039 Y140.469 E12.06442
G1 X67.867 Y140.257 E12.07804
G1 X67.58 Y139.841 E12.10326
G1 X67.443 Y139.573 E12.11827
G1 X67.345 Y139.359 E12.13002
G1 X67.193 Y138.959 E12.15137
G1 X67.186 Y138.936 E12.15257
G1 X67.071 Y138.392 E12.18031
G1 X67.032 Y138.073 E12.19634
G1 X67.009 Y137.772 E12.2114
G1 X67.001 Y137.427 E12.22862
G1 X66.999 Y82.912 E14.94838
G1 X67.009 Y82.216 E14.98311
G1 X67.026 Y81.932 E14.9973
G1 X67.048 Y81.72 E15.00794
G1 X67.208 Y81.002 E15.04464
G1 X67.277 Y80.803 E15.05514
G1 X67.479 Y80.34 E15.08035
G1 X67.615 Y80.11 E15.09368
G1 X67.746 Y79.908 E15.10569
G1 X68.055 Y79.505 E15.13102
G1 X68.129 Y79.423 E15.13653
G1 X68.615 Y78.985 E15.16917
G1 F2700 E8.66917
;MESH:arduino_uno_lcd_Buttons.stl
G0 F7500 X90.384 Y75.828
G0 X91.463 Y75.828
G0 X113.944 Y75.637
;TYPE:WALL-INNER
G1 F2700 E15.16917
G1 F1500 X113.944 Y64.647 E15.71747
G1 X111.254 Y64.647 E15.85167
G1 X110.95 Y65.581 E15.90068
G1 X110.712 Y65.995 E15.9245
G1 X110.391 Y66.35 E15.94838
G1 X109.998 Y66.636 E15.97263
G1 X109.56 Y66.831 E15.99655
G1 X109.089 Y66.931 E16.02057
G1 X108.609 Y66.931 E16.04452
G1 X108.138 Y66.831 E16.06854
G1 X107.698 Y66.635 E16.09257
G1 X107.311 Y66.354 E16.11643
G1 X106.986 Y65.993 E16.14066
G1 X106.746 Y65.579 E16.16454
G1 X106.598 Y65.121 E16.18855
G1 X106.547 Y64.642 E16.21258
G1 X106.598 Y64.163 E16.23662
G1 X106.747 Y63.704 E16.26069
G1 X106.984 Y63.292 E16.2844
G1 X107.31 Y62.931 E16.30867
G1 X107.697 Y62.65 E16.33253
G1 X108.14 Y62.453 E16.35672
G1 X108.609 Y62.353 E16.38064
G1 X109.089 Y62.353 E16.40459
G1 X109.558 Y62.453 E16.42852
G1 X109.998 Y62.649 E16.45255
G1 X110.392 Y62.935 E16.47684
G1 X110.712 Y63.289 E16.50064
G1 X110.95 Y63.703 E16.52447
G1 X111.254 Y64.637 E16.57347
G1 X113.954 Y64.637 E16.57777
G1 X113.954 Y75.637 E16.59451
G1 X118.044 Y75.637 E16.79856
G1 X118.044 Y68.982 E17.13058
G1 X117.337 Y68.831 E17.16665
G1 X116.898 Y68.635 E17.19064
G1 X116.511 Y68.354 E17.2145
G1 X116.186 Y67.993 E17.23873
G1 X115.946 Y67.579 E17.2626
G1 X115.798 Y67.121 E17.28662
G1 X115.747 Y66.642 E17.31065
G1 X115.798 Y66.163 E17.33468
G1 X115.947 Y65.704 E17.35876
G1 X116.184 Y65.292 E17.38247
G1 X116.51 Y64.931 E17.40674
G1 X116.897 Y64.65 E17.4306
G1 X117.34 Y64.453 E17.45479
G1 X117.809 Y64.353 E17.47871
G1 X118.289 Y64.353 E17.50266
G1 X118.758 Y64.453 E17.52658
G1 X119.198 Y64.649 E17.55061
G1 X119.592 Y64.935 E17.5749
G1 X119.912 Y65.289 E17.59871
G1 X120.15 Y65.703 E17.62254
G1 X120.299 Y66.163 E17.64666
G1 X120.351 Y66.642 E17.6707
G1 X120.299 Y67.121 E17.69474
G1 X120.15 Y67.582 E17.71891
G1 X119.912 Y67.995 E17.74269
G1 X119.591 Y68.35 E17.76656
G1 X119.198 Y68.636 E17.79081
G1 X118.761 Y68.831 E17.81469
G1 X118.054 Y68.982 E17.85076
G1 X118.054 Y75.637 E17.85908
G1 X126.044 Y75.637 E18.2577
G1 X126.044 Y68.982 E18.58972
G1 X125.337 Y68.831 E18.62579
G1 X124.898 Y68.635 E18.64977
G1 X124.511 Y68.354 E18.67363
G1 X124.186 Y67.993 E18.69787
G1 X123.946 Y67.579 E18.72174
G1 X123.798 Y67.121 E18.74575
G1 X123.747 Y66.642 E18.76979
G1 X123.798 Y66.163 E18.79382
G1 X123.947 Y65.704 E18.8179
G1 X124.184 Y65.292 E18.84161
G1 X124.51 Y64.931 E18.86588
G1 X124.897 Y64.65 E18.88974
G1 X125.34 Y64.453 E18.91392
G1 X125.809 Y64.353 E18.93785
G1 X126.289 Y64.353 E18.9618
G1 X126.758 Y64.453 E18.98572
G1 X127.198 Y64.649 E19.00975
G1 X127.592 Y64.935 E19.03404
G1 X127.912 Y65.289 E19.05785
G1 X128.15 Y65.703 E19.08167
G1 X128.299 Y66.163 E19.1058
G1 X128.351 Y66.642 E19.12983
G1 X128.299 Y67.121 E19.15387
G1 X128.15 Y67.582 E19.17804
G1 X127.912 Y67.995 E19.20182
G1 X127.591 Y68.35 E19.2257
G1 X127.198 Y68.636 E19.24995
G1 X126.761 Y68.831 E19.27382
G1 X126.054 Y68.982 E19.30989
G1 X126.054 Y75.637 E19.31821
G1 X128.054 Y75.637 E19.41799
G1 X128.054 Y75.647 E19.41849
G1 X126.044 Y75.647 E19.42125
G1 X118.044 Y75.647 E19.4315
G1 X113.954 Y75.647 E19.43661
G1 X103.744 Y75.647 E19.94599
G1 X99.644 Y75.647 E20.15054
G1 X91.644 Y75.647 E20.54966
G1 X91.644 Y75.637 E20.55016
G1 X99.644 Y75.637 E20.56016
G1 X99.644 Y68.982 E20.89218
G1 X98.937 Y68.831 E20.92825
G1 X98.498 Y68.635 E20.95224
G1 X98.111 Y68.354 E20.9761
G1 X97.786 Y67.993 E21.00033
G1 X97.546 Y67.579 E21.0242
G1 X97.398 Y67.121 E21.04822
G1 X97.347 Y66.642 E21.07225
G1 X97.398 Y66.163 E21.09628
G1 X97.547 Y65.704 E21.12036
G1 X97.784 Y65.292 E21.14407
G1 X98.11 Y64.931 E21.16834
G1 X98.497 Y64.65 E21.1922
G1 X98.94 Y64.453 E21.21639
G1 X99.409 Y64.353 E21.24031
G1 X99.889 Y64.353 E21.26426
G1 X100.358 Y64.453 E21.28818
G1 X100.798 Y64.649 E21.31221
G1 X101.192 Y64.935 E21.3365
G1 X101.512 Y65.289 E21.36031
G1 X101.75 Y65.703 E21.38413
G1 X101.899 Y66.163 E21.40826
G1 X101.951 Y66.642 E21.4323
G1 X101.899 Y67.121 E21.45633
G1 X101.75 Y67.582 E21.4805
G1 X101.512 Y67.995 E21.50429
G1 X101.191 Y68.35 E21.52816
G1 X100.798 Y68.636 E21.55241
G1 X100.361 Y68.831 E21.57629
G1 X99.654 Y68.982 E21.61235
G1 X99.654 Y75.637 E21.62068
G1 X103.744 Y75.637 E21.62657
G1 X103.744 Y71.337 E21.8411
G1 X106.446 Y71.337 E21.9759
G1 X106.746 Y70.406 E22.0247
G1 X106.984 Y69.992 E22.04853
G1 X107.31 Y69.631 E22.07279
G1 X107.697 Y69.35 E22.09665
G1 X108.14 Y69.153 E22.12084
G1 X108.609 Y69.053 E22.14477
G1 X109.089 Y69.053 E22.16871
G1 X109.558 Y69.153 E22.19264
G1 X109.998 Y69.349 E22.21667
G1 X110.392 Y69.635 E22.24096
G1 X110.712 Y69.989 E22.26477
G1 X110.95 Y70.403 E22.28859
G1 X111.099 Y70.863 E22.31271
G1 X111.151 Y71.342 E22.33675
G1 X111.099 Y71.821 E22.36079
G1 X110.95 Y72.282 E22.38496
G1 X110.712 Y72.695 E22.40874
G1 X110.391 Y73.05 E22.43262
G1 X109.998 Y73.336 E22.45687
G1 X109.56 Y73.531 E22.48079
G1 X109.089 Y73.631 E22.50481
G1 X108.609 Y73.631 E22.52876
G1 X108.138 Y73.531 E22.55278
G1 X107.698 Y73.335 E22.57681
G1 X107.311 Y73.054 E22.60067
G1 X106.985 Y72.692 E22.62498
G1 X106.745 Y72.277 E22.64889
G1 X106.446 Y71.347 E22.69763
G1 X103.754 Y71.347 E22.70143
G1 X103.754 Y75.637 E22.70762
G1 X113.944 Y75.637 E22.72243
G0 F7500 X113.549 Y75.242
;TYPE:WALL-OUTER
G1 F1500 X113.549 Y65.042 E23.23131
G1 X111.541 Y65.042 E23.33149
G1 X111.314 Y65.74 E23.36811
G1 X111.032 Y66.23 E23.39631
G1 X110.657 Y66.645 E23.42422
G1 X110.197 Y66.98 E23.45261
G1 X109.684 Y67.208 E23.48061
G1 X109.129 Y67.326 E23.50892
G1 X108.569 Y67.326 E23.53686
G1 X108.014 Y67.208 E23.56517
G1 X107.501 Y66.98 E23.59318
G1 X107.043 Y66.647 E23.62143
G1 X106.664 Y66.226 E23.64969
G1 X106.383 Y65.74 E23.6777
G1 X106.209 Y65.204 E23.70581
G1 X106.15 Y64.642 E23.734
G1 X106.209 Y64.08 E23.7622
G1 X106.383 Y63.545 E23.79026
G1 X106.664 Y63.057 E23.81836
G1 X107.045 Y62.635 E23.84672
G1 X107.498 Y62.306 E23.87465
G1 X108.014 Y62.076 E23.90284
G1 X108.569 Y61.958 E23.93115
G1 X109.129 Y61.958 E23.95909
G1 X109.684 Y62.076 E23.98739
G1 X110.197 Y62.305 E24.01542
G1 X110.657 Y62.639 E24.04378
G1 X111.032 Y63.054 E24.07169
G1 X111.314 Y63.544 E24.09989
G1 X111.541 Y64.242 E24.13651
G1 X114.349 Y64.242 E24.2766
G1 X114.349 Y75.242 E24.8254
G1 X117.649 Y75.242 E24.99003
G1 X117.649 Y69.301 E25.28643
G1 X117.214 Y69.208 E25.30862
G1 X116.701 Y68.98 E25.33663
G1 X116.243 Y68.647 E25.36488
G1 X115.864 Y68.226 E25.39314
G1 X115.583 Y67.74 E25.42115
G1 X115.409 Y67.204 E25.44927
G1 X115.35 Y66.642 E25.47746
G1 X115.409 Y66.08 E25.50565
G1 X115.583 Y65.545 E25.53372
G1 X115.864 Y65.057 E25.56181
G1 X116.245 Y64.635 E25.59018
G1 X116.698 Y64.306 E25.61811
G1 X117.214 Y64.076 E25.64629
G1 X117.769 Y63.958 E25.6746
G1 X118.329 Y63.958 E25.70254
G1 X118.884 Y64.076 E25.73085
G1 X119.397 Y64.305 E25.75888
G1 X119.857 Y64.639 E25.78724
G1 X120.232 Y65.054 E25.81514
G1 X120.514 Y65.544 E25.84335
G1 X120.688 Y66.08 E25.87146
G1 X120.748 Y66.642 E25.89966
G1 X120.688 Y67.204 E25.92786
G1 X120.514 Y67.741 E25.95602
G1 X120.232 Y68.23 E25.98418
G1 X119.857 Y68.645 E26.01209
G1 X119.397 Y68.98 E26.04048
G1 X118.884 Y69.208 E26.06849
G1 X118.449 Y69.301 E26.09068
G1 X118.449 Y75.242 E26.38708
G1 X125.649 Y75.242 E26.74629
G1 X125.649 Y69.301 E27.04268
G1 X125.214 Y69.208 E27.06488
G1 X124.701 Y68.98 E27.09288
G1 X124.243 Y68.647 E27.12113
G1 X123.864 Y68.226 E27.1494
G1 X123.583 Y67.74 E27.1774
G1 X123.409 Y67.204 E27.20552
G1 X123.35 Y66.642 E27.23371
G1 X123.409 Y66.08 E27.2619
G1 X123.583 Y65.545 E27.28997
G1 X123.864 Y65.057 E27.31806
G1 X124.245 Y64.635 E27.34643
G1 X124.698 Y64.306 E27.37436
G1 X125.214 Y64.076 E27.40255
G1 X125.769 Y63.958 E27.43085
G1 X126.329 Y63.958 E27.45879
G1 X126.884 Y64.076 E27.4871
G1 X127.397 Y64.305 E27.51513
G1 X127.857 Y64.639 E27.54349
G1 X128.232 Y65.054 E27.5714
G1 X128.514 Y65.544 E27.5996
G1 X128.688 Y66.08 E27.62772
G1 X128.748 Y66.642 E27.65591
G1 X128.688 Y67.204 E27.68411
G1 X128.514 Y67.741 E27.71227
G1 X128.232 Y68.23 E27.74044
G1 X127.857 Y68.645 E27.76834
G1 X127.397 Y68.98 E27.79673
G1 X126.884 Y69.208 E27.82474
G1 X126.449 Y69.301 E27.84693
G1 X126.449 Y75.242 E28.14333
G1 X128.449 Y75.242 E28.24311
G1 X128.449 Y76.042 E28.28302
G1 X91.249 Y76.042 E30.13894
G1 X91.249 Y75.242 E30.17885
G1 X99.249 Y75.242 E30.57797
G1 X99.249 Y69.301 E30.87437
G1 X98.814 Y69.208 E30.89656
G1 X98.301 Y68.98 E30.92457
G1 X97.843 Y68.647 E30.95282
G1 X97.464 Y68.226 E30.98108
G1 X97.183 Y67.74 E31.00909
G1 X97.009 Y67.204 E31.0372
G1 X96.95 Y66.642 E31.0654
G1 X97.009 Y66.08 E31.09359
G1 X97.183 Y65.545 E31.12166
G1 X97.464 Y65.057 E31.14975
G1 X97.845 Y64.635 E31.17811
G1 X98.298 Y64.306 E31.20605
G1 X98.814 Y64.076 E31.23423
G1 X99.369 Y63.958 E31.26254
G1 X99.929 Y63.958 E31.29048
G1 X100.484 Y64.076 E31.31879
G1 X100.997 Y64.305 E31.34681
G1 X101.457 Y64.639 E31.37517
G1 X101.832 Y65.054 E31.40308
G1 X102.114 Y65.544 E31.43129
G1 X102.288 Y66.08 E31.4594
G1 X102.348 Y66.642 E31.4876
G1 X102.288 Y67.204 E31.5158
G1 X102.114 Y67.741 E31.54396
G1 X101.832 Y68.23 E31.57212
G1 X101.457 Y68.645 E31.60003
G1 X100.997 Y68.98 E31.62842
G1 X100.484 Y69.208 E31.65642
G1 X100.049 Y69.301 E31.67862
G1 X100.049 Y75.242 E31.97501
G1 X103.349 Y75.242 E32.13965
G1 X103.349 Y70.942 E32.35418
G1 X106.158 Y70.942 E32.49432
G1 X106.382 Y70.246 E32.5308
G1 X106.664 Y69.757 E32.55896
G1 X107.045 Y69.335 E32.58733
G1 X107.498 Y69.006 E32.61526
G1 X108.014 Y68.776 E32.64344
G1 X108.569 Y68.658 E32.67175
G1 X109.129 Y68.658 E32.69969
G1 X109.684 Y68.776 E32.728
G1 X110.197 Y69.005 E32.75602
G1 X110.657 Y69.339 E32.78439
G1 X111.032 Y69.754 E32.81229
G1 X111.314 Y70.244 E32.8405
G1 X111.488 Y70.78 E32.86861
G1 X111.548 Y71.342 E32.89681
G1 X111.488 Y71.904 E32.92501
G1 X111.314 Y72.441 E32.95317
G1 X111.032 Y72.93 E32.98133
G1 X110.657 Y73.345 E33.00924
G1 X110.197 Y73.68 E33.03763
G1 X109.684 Y73.908 E33.06563
G1 X109.129 Y74.026 E33.09394
G1 X108.569 Y74.026 E33.12188
G1 X108.014 Y73.908 E33.15019
G1 X107.501 Y73.68 E33.1782
G1 X107.043 Y73.347 E33.20645
G1 X106.664 Y72.926 E33.23471
G1 X106.382 Y72.439 E33.26278
G1 X106.158 Y71.742 E33.29931
G1 X104.149 Y71.742 E33.39954
G1 X104.149 Y75.242 E33.57415
G1 X113.549 Y75.242 E34.04312
G0 F7500 X113.549 Y75.042
G0 X113.849 Y75.042
G0 X113.777 Y75.47
G0 X103.921 Y75.47
G0 X103.921 Y71.514
G0 X106.327 Y71.51
G0 X107.622 Y73.472
G0 X109.608 Y73.472
G0 X110.6 Y72.655
G0 X110.393 Y72.467
;TYPE:SKIN
G1 F1500 X110.134 Y72.754 E34.06241
G1 X109.8 Y72.997 E34.08302
G1 X109.439 Y73.157 E34.10272
G1 X109.046 Y73.241 E34.12277
G1 X108.652 Y73.241 E34.14242
G1 X108.259 Y73.158 E34.16246
G1 X107.896 Y72.996 E34.18229
G1 X107.572 Y72.76 E34.20229
G1 X107.3 Y72.458 E34.22257
G1 X107.104 Y72.119 E34.2421
G1 X106.855 Y71.342 E34.28281
G1 X107.103 Y70.567 E34.32341
G1 X107.303 Y70.219 E34.34343
G1 X107.567 Y69.927 E34.36307
G1 X107.895 Y69.689 E34.38329
G1 X108.26 Y69.527 E34.40321
G1 X108.653 Y69.443 E34.42326
G1 X109.045 Y69.443 E34.44282
G1 X109.438 Y69.527 E34.46287
G1 X109.803 Y69.689 E34.48279
G1 X110.13 Y69.927 E34.50297
G1 X110.394 Y70.219 E34.52261
G1 X110.591 Y70.562 E34.54234
G1 X110.715 Y70.944 E34.56238
G1 X110.759 Y71.342 E34.58236
G1 X110.715 Y71.74 E34.60233
G1 X110.591 Y72.123 E34.62242
G1 X110.393 Y72.467 E34.64222
G0 F7500 X110.6 Y72.655
G0 X110.931 Y71.785
G0 X110.98 Y71.342
G0 X110.931 Y70.899
G0 X110.792 Y70.472
G0 X110.573 Y70.091
G0 X110.275 Y69.762
G0 X109.341 Y69.22
G0 X109.249 Y69.651
