;FLAVOR:Marlin
;TIME:9829
;Filament used: 5.70328m
;Layer height: 0.2
;MINX:66.76
;MINY:58.568
;MINZ:0.3
;MAXX:153.24
;MAXY:142.124
;MAXZ:14.5
;Generated with Cura_SteamEngine 4.13.1
M140 S50
M105
M190 S50
M104 S195
M105
M109 S195
M82 ;absolute extrusion mode
G28 ;Home
G1 Z15.0 F2000 ;Move the platform
G92 E0
G92 E0
G1 F2700 E-6.5
;LAYER_COUNT:72
;LAYER:0
M107
M204 S1000
G0 F7500 X68.605 Y78.992 Z0.3
;TYPE:SKIRT
G1 F2700 E0
G1 F1500 X68.788 Y78.857 E0.01135
G1 X69.183 Y78.608 E0.03464
G1 X69.631 Y78.37 E0.05995
G1 X71.253 Y77.534 E0.15099
G1 X73.638 Y76.218 E0.28689
G1 X76.034 Y74.806 E0.42564
G1 X78.327 Y73.367 E0.5607
G1 X80.617 Y71.837 E0.6981
G1 X82.815 Y70.277 E0.83257
G1 X85.047 Y68.595 E0.972
G1 X87.155 Y66.911 E1.10661
G1 X89.275 Y65.119 E1.2451
G1 X91.296 Y63.308 E1.38049
G1 X92.279 Y62.381 E1.4479
G1 X92.47 Y62.207 E1.46079
G1 X92.694 Y62.022 E1.47528
G1 X93.233 Y61.614 E1.50901
G1 X93.814 Y61.264 E1.54285
G1 X94.345 Y61.017 E1.57206
G1 X94.964 Y60.803 E1.60474
G1 X95.548 Y60.666 E1.63467
G1 X95.996 Y60.588 E1.65735
G1 X96.928 Y60.484 E1.70414
G1 X99.655 Y60.143 E1.84125
G1 X102.38 Y59.724 E1.9788
G1 X105.084 Y59.229 E2.11594
G1 X107.271 Y58.758 E2.22756
G1 X107.876 Y58.639 E2.25832
G1 X108.429 Y58.58 E2.28606
G1 X109.02 Y58.568 E2.31555
G1 X109.687 Y58.624 E2.34895
G1 X110.727 Y58.823 E2.40178
G1 X113.425 Y59.301 E2.53848
G1 X116.179 Y59.708 E2.67737
G1 X118.844 Y60.026 E2.81127
G1 X121.592 Y60.276 E2.94893
G1 X124.338 Y60.447 E3.08619
G1 X127.052 Y60.538 E3.22167
G1 X127.979 Y60.548 E3.26792
G1 X129.334 Y60.567 E3.33553
G1 X129.892 Y60.624 E3.36351
G1 X130.486 Y60.738 E3.39369
G1 X131.13 Y60.934 E3.42727
G1 X131.69 Y61.171 E3.45761
G1 X132.274 Y61.494 E3.49091
G1 X132.764 Y61.836 E3.52072
G1 X133.269 Y62.272 E3.554
G1 X133.668 Y62.698 E3.58312
G1 X134.724 Y63.899 E3.66291
G1 X135.075 Y64.301 E3.68954
G1 X136.905 Y66.311 E3.82515
G1 X138.811 Y68.288 E3.96216
G1 X140.802 Y70.239 E4.10123
G1 X142.788 Y72.078 E4.23627
G1 X144.841 Y73.875 E4.37238
G1 X146.955 Y75.622 E4.50921
G1 X149.13 Y77.318 E4.64681
G1 X150.616 Y78.421 E4.73913
G1 X151.355 Y78.957 E4.78468
G1 X151.739 Y79.285 E4.80988
G1 X151.962 Y79.532 E4.82648
G1 X152.133 Y79.743 E4.84003
G1 X152.419 Y80.16 E4.86525
G1 X152.567 Y80.448 E4.88141
G1 X152.672 Y80.682 E4.8942
G1 X152.841 Y81.158 E4.91941
G1 X152.929 Y81.609 E4.94233
G1 X152.969 Y81.941 E4.95901
G1 X152.991 Y82.245 E4.97422
G1 X153 Y82.647 E4.99428
G1 X153.001 Y137.088 E7.71035
G1 X152.991 Y137.784 E7.74508
G1 X152.974 Y138.071 E7.75942
G1 X152.952 Y138.281 E7.76996
G1 X152.816 Y138.927 E7.80289
G1 X152.763 Y139.092 E7.81154
G1 X152.571 Y139.559 E7.83673
G1 X152.425 Y139.816 E7.85148
G1 X152.271 Y140.061 E7.86591
G1 X151.964 Y140.472 E7.89151
G1 X151.898 Y140.547 E7.89649
G1 X151.386 Y141.015 E7.9311
G1 X151.207 Y141.146 E7.94217
G1 X150.631 Y141.482 E7.97543
G1 X150.48 Y141.55 E7.9837
G1 X149.906 Y141.745 E8.01394
G1 X149.683 Y141.798 E8.02538
G1 X149.043 Y141.883 E8.05759
G1 X148.66 Y141.894 E8.0767
G1 X147.792 Y141.895 E8.12001
G1 X147.087 Y141.885 E8.15518
G1 X146.758 Y141.872 E8.17161
G1 X144.43 Y141.74 E8.28794
G1 X141.674 Y141.661 E8.42549
G1 X138.957 Y141.659 E8.56105
G1 X136.193 Y141.736 E8.699
G1 X134.692 Y141.812 E8.77398
G1 X133.411 Y141.885 E8.83799
G1 X133.002 Y141.895 E8.8584
G1 X129.846 Y141.894 E9.01585
G1 X129.18 Y141.885 E9.04908
G1 X128.997 Y141.877 E9.05822
G1 X127.916 Y141.801 E9.11229
G1 X125.15 Y141.643 E9.25051
G1 X122.397 Y141.564 E9.38791
G1 X119.679 Y141.562 E9.52351
G1 X116.929 Y141.639 E9.66077
G1 X114.178 Y141.794 E9.79823
G1 X113.199 Y141.87 E9.84722
G1 X112.93 Y141.885 E9.86066
G1 X112.52 Y141.895 E9.88112
G1 X71.713 Y141.894 E11.91699
G1 X71.058 Y141.885 E11.94967
G1 X70.497 Y141.827 E11.97781
G1 X70.253 Y141.78 E11.99021
G1 X69.765 Y141.646 E12.01546
G1 X69.308 Y141.437 E12.04053
G1 X68.974 Y141.252 E12.05958
G1 X68.552 Y140.973 E12.08482
G1 X68.039 Y140.469 E12.12069
G1 X67.867 Y140.257 E12.13431
G1 X67.58 Y139.841 E12.15953
G1 X67.443 Y139.573 E12.17455
G1 X67.345 Y139.359 E12.18629
G1 X67.193 Y138.959 E12.20764
G1 X67.186 Y138.936 E12.20884
G1 X67.071 Y138.392 E12.23658
G1 X67.032 Y138.073 E12.25261
G1 X67.009 Y137.772 E12.26767
G1 X67.001 Y137.427 E12.28489
G1 X66.999 Y82.912 E15.00465
G1 X67.009 Y82.216 E15.03938
G1 X67.026 Y81.932 E15.05357
G1 X67.048 Y81.72 E15.06421
G1 X67.208 Y81.002 E15.10091
G1 X67.277 Y80.803 E15.11141
G1 X67.479 Y80.34 E15.13662
G1 X67.615 Y80.11 E15.14995
G1 X67.746 Y79.908 E15.16196
G1 X68.055 Y79.505 E15.18729
G1 X68.129 Y79.423 E15.1928
G1 X68.605 Y78.992 E15.22484
G1 F2700 E8.72484
;MESH:arduino_uno_lcd_Buttons.stl
G0 F7500 X87.38 Y75.828
G0 X88.459 Y75.828
G0 X114.94 Y75.637
;TYPE:WALL-INNER
G1 F2700 E15.22484
G1 F1500 X114.94 Y64.647 E15.77313
G1 X111.25 Y64.647 E15.95723
G1 X110.946 Y65.581 E16.00623
G1 X110.708 Y65.995 E16.03006
G1 X110.387 Y66.35 E16.05393
G1 X109.994 Y66.636 E16.07818
G1 X109.556 Y66.831 E16.1021
G1 X109.085 Y66.931 E16.12613
G1 X108.605 Y66.931 E16.15007
G1 X108.134 Y66.831 E16.17409
G1 X107.694 Y66.635 E16.19813
G1 X107.307 Y66.354 E16.22199
G1 X106.98 Y65.992 E16.24632
G1 X106.742 Y65.579 E16.2701
G1 X106.594 Y65.123 E16.29402
G1 X106.543 Y64.642 E16.31815
G1 X106.594 Y64.161 E16.34229
G1 X106.741 Y63.71 E16.36595
G1 X106.983 Y63.289 E16.39018
G1 X107.306 Y62.931 E16.41423
G1 X107.693 Y62.65 E16.43809
G1 X108.136 Y62.453 E16.46228
G1 X108.605 Y62.353 E16.48621
G1 X109.085 Y62.353 E16.51015
G1 X109.554 Y62.453 E16.53408
G1 X109.994 Y62.649 E16.55811
G1 X110.388 Y62.935 E16.5824
G1 X110.708 Y63.289 E16.60621
G1 X110.946 Y63.703 E16.63003
G1 X111.25 Y64.637 E16.67903
G1 X114.95 Y64.637 E16.68483
G1 X114.95 Y75.637 E16.70158
G1 X121.04 Y75.637 E17.00541
G1 X121.04 Y68.982 E17.33743
G1 X120.333 Y68.831 E17.37349
G1 X119.894 Y68.635 E17.39748
G1 X119.507 Y68.354 E17.42134
G1 X119.18 Y67.992 E17.44568
G1 X118.942 Y67.579 E17.46946
G1 X118.794 Y67.123 E17.49338
G1 X118.743 Y66.642 E17.51751
G1 X118.794 Y66.161 E17.54164
G1 X118.941 Y65.71 E17.56531
G1 X119.183 Y65.289 E17.58953
G1 X119.506 Y64.931 E17.61359
G1 X119.893 Y64.65 E17.63745
G1 X120.336 Y64.453 E17.66164
G1 X120.805 Y64.353 E17.68556
G1 X121.285 Y64.353 E17.70951
G1 X121.754 Y64.453 E17.73343
G1 X122.194 Y64.649 E17.75746
G1 X122.588 Y64.935 E17.78175
G1 X122.908 Y65.289 E17.80556
G1 X123.146 Y65.703 E17.82939
G1 X123.295 Y66.163 E17.85351
G1 X123.347 Y66.642 E17.87755
G1 X123.295 Y67.121 E17.90158
G1 X123.146 Y67.582 E17.92576
G1 X122.908 Y67.995 E17.94954
G1 X122.587 Y68.35 E17.97341
G1 X122.194 Y68.636 E17.99766
G1 X121.757 Y68.831 E18.02154
G1 X121.05 Y68.982 E18.05761
G1 X121.05 Y75.637 E18.06593
G1 X129.04 Y75.637 E18.46455
G1 X129.04 Y68.982 E18.79657
G1 X128.333 Y68.831 E18.83264
G1 X127.894 Y68.635 E18.85662
G1 X127.507 Y68.354 E18.88048
G1 X127.18 Y67.992 E18.90482
G1 X126.942 Y67.579 E18.9286
G1 X126.794 Y67.123 E18.95252
G1 X126.743 Y66.642 E18.97665
G1 X126.794 Y66.161 E19.00078
G1 X126.941 Y65.71 E19.02445
G1 X127.183 Y65.289 E19.04867
G1 X127.506 Y64.931 E19.07273
G1 X127.893 Y64.65 E19.09659
G1 X128.336 Y64.453 E19.12078
G1 X128.805 Y64.353 E19.1447
G1 X129.285 Y64.353 E19.16865
G1 X129.754 Y64.453 E19.19258
G1 X130.194 Y64.649 E19.21661
G1 X130.588 Y64.935 E19.2409
G1 X130.905 Y65.286 E19.26449
G1 X131.149 Y65.71 E19.2889
G1 X131.296 Y66.161 E19.31256
G1 X131.347 Y66.642 E19.3367
G1 X131.296 Y67.123 E19.36083
G1 X131.148 Y67.578 E19.3847
G1 X130.908 Y67.995 E19.4087
G1 X130.587 Y68.35 E19.43258
G1 X130.194 Y68.636 E19.45683
G1 X129.757 Y68.831 E19.4807
G1 X129.05 Y68.982 E19.51677
G1 X129.05 Y75.647 E19.52535
G1 X121.04 Y75.647 E19.53585
G1 X114.95 Y75.647 E19.54346
G1 X102.74 Y75.647 E20.15262
G1 X96.64 Y75.647 E20.45695
G1 X88.64 Y75.647 E20.85608
G1 X88.64 Y75.637 E20.85657
G1 X96.64 Y75.637 E20.86658
G1 X96.64 Y68.982 E21.1986
G1 X95.933 Y68.831 E21.23466
G1 X95.494 Y68.635 E21.25865
G1 X95.107 Y68.354 E21.28251
G1 X94.78 Y67.992 E21.30685
G1 X94.542 Y67.579 E21.33063
G1 X94.394 Y67.123 E21.35455
G1 X94.343 Y66.642 E21.37868
G1 X94.394 Y66.161 E21.40281
G1 X94.541 Y65.71 E21.42648
G1 X94.783 Y65.289 E21.4507
G1 X95.106 Y64.931 E21.47476
G1 X95.493 Y64.65 E21.49862
G1 X95.936 Y64.453 E21.52281
G1 X96.405 Y64.353 E21.54673
G1 X96.885 Y64.353 E21.57068
G1 X97.354 Y64.453 E21.5946
G1 X97.794 Y64.649 E21.61863
G1 X98.188 Y64.935 E21.64292
G1 X98.505 Y65.286 E21.66652
G1 X98.749 Y65.71 E21.69093
G1 X98.896 Y66.161 E21.71459
G1 X98.947 Y66.642 E21.73872
G1 X98.896 Y67.123 E21.76286
G1 X98.748 Y67.578 E21.78673
G1 X98.508 Y67.995 E21.81073
G1 X98.187 Y68.35 E21.83461
G1 X97.794 Y68.636 E21.85886
G1 X97.357 Y68.831 E21.88273
G1 X96.65 Y68.982 E21.9188
G1 X96.65 Y75.637 E21.92712
G1 X102.74 Y75.637 E21.93449
G1 X102.74 Y71.337 E22.14902
G1 X106.44 Y71.337 E22.33361
G1 X106.744 Y70.403 E22.38262
G1 X106.98 Y69.992 E22.40626
G1 X107.306 Y69.631 E22.43053
G1 X107.693 Y69.35 E22.45439
G1 X108.136 Y69.153 E22.47858
G1 X108.605 Y69.053 E22.5025
G1 X109.085 Y69.053 E22.52645
G1 X109.554 Y69.153 E22.55037
G1 X109.994 Y69.349 E22.57441
G1 X110.388 Y69.635 E22.59869
G1 X110.705 Y69.986 E22.62229
G1 X110.949 Y70.41 E22.6467
G1 X111.096 Y70.861 E22.67036
G1 X111.147 Y71.342 E22.69449
G1 X111.096 Y71.823 E22.71863
G1 X110.948 Y72.278 E22.7425
G1 X110.708 Y72.695 E22.7665
G1 X110.387 Y73.05 E22.79038
G1 X109.994 Y73.336 E22.81463
G1 X109.556 Y73.531 E22.83855
G1 X109.085 Y73.631 E22.86257
G1 X108.605 Y73.631 E22.88652
G1 X108.134 Y73.531 E22.91054
G1 X107.694 Y73.335 E22.93457
G1 X107.307 Y73.054 E22.95843
G1 X106.98 Y72.692 E22.98277
G1 X106.744 Y72.281 E23.00641
G1 X106.44 Y71.347 E23.05542
G1 X102.75 Y71.347 E23.06071
G1 X102.75 Y75.637 E23.06691
G1 X114.94 Y75.637 E23.08471
G0 F7500 X114.545 Y75.242
;TYPE:WALL-OUTER
G1 F1500 X114.545 Y65.042 E23.59359
G1 X111.537 Y65.042 E23.74366
G1 X111.31 Y65.74 E23.78028
G1 X111.028 Y66.23 E23.80849
G1 X110.653 Y66.645 E23.83639
G1 X110.193 Y66.98 E23.86478
G1 X109.68 Y67.208 E23.89279
G1 X109.125 Y67.326 E23.9211
G1 X108.565 Y67.326 E23.94904
G1 X108.01 Y67.208 E23.97734
G1 X107.497 Y66.98 E24.00535
G1 X107.039 Y66.647 E24.0336
G1 X106.66 Y66.227 E24.06183
G1 X106.38 Y65.74 E24.08985
G1 X106.205 Y65.204 E24.11798
G1 X106.146 Y64.642 E24.14618
G1 X106.205 Y64.08 E24.17437
G1 X106.38 Y63.545 E24.20245
G1 X106.66 Y63.057 E24.23052
G1 X107.041 Y62.635 E24.25888
G1 X107.494 Y62.306 E24.28682
G1 X108.01 Y62.076 E24.315
G1 X108.565 Y61.958 E24.34331
G1 X109.125 Y61.958 E24.37125
G1 X109.68 Y62.076 E24.39956
G1 X110.193 Y62.305 E24.42758
G1 X110.653 Y62.639 E24.45594
G1 X111.028 Y63.054 E24.48385
G1 X111.31 Y63.544 E24.51206
G1 X111.537 Y64.242 E24.54867
G1 X115.345 Y64.242 E24.73866
G1 X115.345 Y75.242 E25.28745
G1 X120.645 Y75.242 E25.55187
G1 X120.645 Y69.301 E25.84826
G1 X120.21 Y69.208 E25.87046
G1 X119.697 Y68.98 E25.89846
G1 X119.239 Y68.647 E25.92672
G1 X118.86 Y68.227 E25.95494
G1 X118.58 Y67.74 E25.98297
G1 X118.405 Y67.204 E26.0111
G1 X118.346 Y66.642 E26.03929
G1 X118.405 Y66.08 E26.06748
G1 X118.58 Y65.545 E26.09556
G1 X118.86 Y65.057 E26.12363
G1 X119.241 Y64.635 E26.152
G1 X119.694 Y64.306 E26.17993
G1 X120.21 Y64.076 E26.20811
G1 X120.765 Y63.958 E26.23642
G1 X121.325 Y63.958 E26.26436
G1 X121.88 Y64.076 E26.29267
G1 X122.393 Y64.305 E26.3207
G1 X122.853 Y64.639 E26.34906
G1 X123.228 Y65.054 E26.37696
G1 X123.51 Y65.544 E26.40517
G1 X123.684 Y66.08 E26.43328
G1 X123.744 Y66.642 E26.46148
G1 X123.684 Y67.204 E26.48968
G1 X123.51 Y67.741 E26.51784
G1 X123.228 Y68.23 E26.546
G1 X122.853 Y68.645 E26.57391
G1 X122.393 Y68.98 E26.6023
G1 X121.88 Y69.208 E26.63031
G1 X121.445 Y69.301 E26.6525
G1 X121.445 Y75.242 E26.9489
G1 X128.645 Y75.242 E27.30811
G1 X128.645 Y69.301 E27.6045
G1 X128.21 Y69.208 E27.6267
G1 X127.697 Y68.98 E27.6547
G1 X127.239 Y68.647 E27.68295
G1 X126.86 Y68.227 E27.71118
G1 X126.58 Y67.74 E27.7392
G1 X126.405 Y67.204 E27.76734
G1 X126.346 Y66.642 E27.79553
G1 X126.405 Y66.08 E27.82372
G1 X126.58 Y65.545 E27.8518
G1 X126.86 Y65.057 E27.87987
G1 X127.241 Y64.635 E27.90824
G1 X127.694 Y64.306 E27.93617
G1 X128.21 Y64.076 E27.96435
G1 X128.765 Y63.958 E27.99266
G1 X129.325 Y63.958 E28.0206
G1 X129.88 Y64.076 E28.04891
G1 X130.393 Y64.305 E28.07694
G1 X130.853 Y64.639 E28.1053
G1 X131.228 Y65.054 E28.1332
G1 X131.51 Y65.545 E28.16145
G1 X131.685 Y66.08 E28.18953
G1 X131.744 Y66.642 E28.21773
G1 X131.685 Y67.204 E28.24592
G1 X131.51 Y67.74 E28.27405
G1 X131.228 Y68.23 E28.30225
G1 X130.853 Y68.645 E28.33016
G1 X130.393 Y68.98 E28.35855
G1 X129.88 Y69.208 E28.38656
G1 X129.445 Y69.301 E28.40875
G1 X129.445 Y76.042 E28.74506
G1 X88.245 Y76.042 E30.80054
G1 X88.245 Y75.242 E30.84045
G1 X96.245 Y75.242 E31.23957
G1 X96.245 Y69.301 E31.53597
G1 X95.81 Y69.208 E31.55816
G1 X95.297 Y68.98 E31.58617
G1 X94.839 Y68.647 E31.61442
G1 X94.46 Y68.227 E31.64264
G1 X94.18 Y67.74 E31.67067
G1 X94.005 Y67.204 E31.6988
G1 X93.946 Y66.642 E31.72699
G1 X94.005 Y66.08 E31.75518
G1 X94.18 Y65.545 E31.78327
G1 X94.46 Y65.057 E31.81134
G1 X94.841 Y64.635 E31.8397
G1 X95.294 Y64.306 E31.86763
G1 X95.81 Y64.076 E31.89582
G1 X96.365 Y63.958 E31.92413
G1 X96.925 Y63.958 E31.95206
G1 X97.48 Y64.076 E31.98037
G1 X97.993 Y64.305 E32.0084
G1 X98.453 Y64.639 E32.03676
G1 X98.828 Y65.054 E32.06467
G1 X99.11 Y65.545 E32.09292
G1 X99.285 Y66.08 E32.121
G1 X99.344 Y66.642 E32.14919
G1 X99.285 Y67.204 E32.17738
G1 X99.11 Y67.74 E32.20551
G1 X98.828 Y68.23 E32.23372
G1 X98.453 Y68.645 E32.26162
G1 X97.993 Y68.98 E32.29001
G1 X97.48 Y69.208 E32.31802
G1 X97.045 Y69.301 E32.34021
G1 X97.045 Y75.242 E32.63661
G1 X102.345 Y75.242 E32.90103
G1 X102.345 Y70.942 E33.11556
G1 X106.153 Y70.942 E33.30554
G1 X106.38 Y70.244 E33.34216
G1 X106.66 Y69.757 E33.37019
G1 X107.041 Y69.335 E33.39855
G1 X107.494 Y69.006 E33.42648
G1 X108.01 Y68.776 E33.45467
G1 X108.565 Y68.658 E33.48297
G1 X109.125 Y68.658 E33.51091
G1 X109.68 Y68.776 E33.53922
G1 X110.193 Y69.005 E33.56725
G1 X110.653 Y69.339 E33.59561
G1 X111.028 Y69.754 E33.62352
G1 X111.31 Y70.245 E33.65176
G1 X111.485 Y70.78 E33.67985
G1 X111.544 Y71.342 E33.70804
G1 X111.485 Y71.904 E33.73623
G1 X111.31 Y72.44 E33.76436
G1 X111.028 Y72.93 E33.79257
G1 X110.653 Y73.345 E33.82047
G1 X110.193 Y73.68 E33.84886
G1 X109.68 Y73.908 E33.87687
G1 X109.125 Y74.026 E33.90518
G1 X108.565 Y74.026 E33.93312
G1 X108.01 Y73.908 E33.96143
G1 X107.497 Y73.68 E33.98943
G1 X107.039 Y73.347 E34.01768
G1 X106.66 Y72.927 E34.04591
G1 X106.38 Y72.44 E34.07393
G1 X106.153 Y71.742 E34.11055
G1 X103.145 Y71.742 E34.26062
G1 X103.145 Y75.242 E34.43524
G1 X114.545 Y75.242 E35.00399
G0 F7500 X114.545 Y75.042
G0 X114.845 Y75.042
G0 X114.773 Y75.47
G0 X102.917 Y75.47
G0 X102.917 Y71.514
G0 X106.321 Y71.51
G0 X107.618 Y73.472
G0 X109.604 Y73.472
G0 X110.631 Y72.606
G0 X110.39 Y72.465
;TYPE:SKIN
G1 F1500 X110.127 Y72.756 E35.02355
G1 X109.796 Y72.997 E35.04398
G1 X109.435 Y73.157 E35.06368
G1 X109.042 Y73.241 E35.08373
G1 X108.648 Y73.241 E35.10339
G1 X108.255 Y73.158 E35.12343
G1 X107.892 Y72.996 E35.14326
G1 X107.567 Y72.76 E35.1633
G1 X107.298 Y72.462 E35.18333
G1 X107.103 Y72.122 E35.20288
G1 X106.848 Y71.342 E35.24382
G1 X107.103 Y70.562 E35.28476
G1 X107.299 Y70.219 E35.30447
G1 X107.563 Y69.927 E35.32411
G1 X107.891 Y69.689 E35.34433
G1 X108.256 Y69.527 E35.36425
G1 X108.649 Y69.443 E35.3843
G1 X109.041 Y69.443 E35.40386
G1 X109.434 Y69.527 E35.42391
G1 X109.799 Y69.689 E35.44383
G1 X110.126 Y69.927 E35.46401
G1 X110.389 Y70.217 E35.48354
G1 X110.589 Y70.567 E35.50365
G1 X110.712 Y70.944 E35.52344
G1 X110.755 Y71.342 E35.54341
G1 X110.712 Y71.741 E35.56343
G1 X110.589 Y72.119 E35.58326
G1 X110.39 Y72.465 E35.60318
G0 F7500 X110.631 Y72.606
G0 X110.928 Y71.786
G0 X110.976 Y71.342
G0 X110.928 Y70.898
G0 X110.792 Y70.479
G0 X110.566 Y70.088
G0 X110.271 Y69.762
G0 X109.342 Y69.221
G0 X109.25 Y69.652
G1 F1500 X110.543 Y70.945 E35.6944
G0 F7500 X110.572 Y71.54
G1 F1500 X108.641 Y69.609 E35.83065
G0 F7500 X108.195 Y69.729
G1 F1500 X110.461 Y71.994 E35.99049
G0 F7500 X110.264 Y72.363
G1 F1500 X107.83 Y69.93 E36.16219
G0 F7500 X107.531 Y70.196
G1 F1500 X109.991 Y72.655 E36.33572
