;FLAVOR:Marlin
;TIME:17324
;Filament used: 17.539m
;Layer height: 0.2
;MINX:36.8
;MINY:66.8
;MINZ:0.3
;MAXX:183.2
;MAXY:153.2
;MAXZ:8.1
;Generated with Cura_SteamEngine 4.13.1
M140 S60
M105
M190 S60
M104 S195
M105
M109 S195
M82 ;absolute extrusion mode
G28 ;Home
G1 Z15.0 F2000 ;Move the platform
G92 E0
G92 E0
G1 F2700 E-6.5
;LAYER_COUNT:40
;LAYER:0
M107
M204 S1000
G0 F7500 X38.617 Y67.128 Z0.3
;TYPE:SKIRT
G1 F2700 E0
G1 F1500 X39.088 Y66.944 E0.02523
G1 X39.582 Y66.838 E0.05043
G1 X39.919 Y66.81 E0.06731
G1 X40.33 Y66.8 E0.08782
G1 X179.339 Y66.8 E7.023
G1 X180.037 Y66.81 E7.05783
G1 X180.54 Y66.857 E7.08303
G1 X181.03 Y66.983 E7.10828
G1 X181.494 Y67.185 E7.13352
G1 X181.92 Y67.457 E7.15874
G1 X182.298 Y67.792 E7.18394
G1 X182.618 Y68.183 E7.20915
G1 X182.873 Y68.62 E7.23439
G1 X183.056 Y69.091 E7.2596
G1 X183.163 Y69.585 E7.28481
G1 X183.19 Y69.92 E7.30158
G1 X183.2 Y70.33 E7.32204
G1 X183.2 Y149.304 E11.26207
G1 X183.191 Y150.031 E11.29835
G1 X183.145 Y150.534 E11.32354
G1 X183.02 Y151.024 E11.34877
G1 X182.819 Y151.488 E11.374
G1 X182.548 Y151.915 E11.39923
G1 X182.213 Y152.294 E11.42447
G1 X181.823 Y152.615 E11.44967
G1 X181.387 Y152.871 E11.47489
G1 X180.916 Y153.054 E11.5001
G1 X180.422 Y153.162 E11.52533
G1 X180.081 Y153.19 E11.5424
G1 X179.67 Y153.2 E11.56291
G1 X40.666 Y153.2 E18.49785
G1 X39.968 Y153.191 E18.53268
G1 X39.464 Y153.144 E18.55793
G1 X38.974 Y153.019 E18.58316
G1 X38.51 Y152.818 E18.60839
G1 X38.084 Y152.547 E18.63358
G1 X37.705 Y152.212 E18.65881
G1 X37.384 Y151.821 E18.68405
G1 X37.129 Y151.385 E18.70925
G1 X36.945 Y150.914 E18.73448
G1 X36.838 Y150.42 E18.75969
G1 X36.81 Y150.077 E18.77686
G1 X36.8 Y149.658 E18.79777
G1 X36.8 Y70.631 E22.74045
G1 X36.809 Y69.966 E22.77363
G1 X36.856 Y69.462 E22.79888
G1 X36.982 Y68.973 E22.82407
G1 X37.183 Y68.509 E22.8493
G1 X37.454 Y68.082 E22.87453
G1 X37.789 Y67.704 E22.89973
G1 X38.18 Y67.383 E22.92497
G1 X38.617 Y67.128 E22.95021
G1 F2700 E16.45021
;MESH:BasisPlatteSteuerung.stl
G0 F7500 X44.474 Y78.731
G0 X43.906 Y77.361
G0 X45.956 Y77.694
G0 X46.766 Y78.234
G0 X47.306 Y79.044
G0 X47.498 Y80
G0 X47.306 Y80.956
G0 X46.869 Y81.612
G0 X46.019 Y82.459
;TYPE:WALL-INNER
G1 F2700 E22.95021
G1 F1500 X46.882 Y81.882 E23.00201
G1 X47.459 Y81.019 E23.0538
G1 X47.662 Y80 E23.10563
G1 X47.459 Y78.981 E23.15747
G1 X46.882 Y78.118 E23.20926
G1 X46.019 Y77.541 E23.26106
G1 X45 Y77.338 E23.31289
G1 X43.981 Y77.541 E23.36473
G1 X43.118 Y78.118 E23.41652
G1 X42.541 Y78.981 E23.46831
G1 X42.338 Y80 E23.52015
G1 X42.541 Y81.019 E23.57199
G1 X43.118 Y81.882 E23.62378
G1 X43.981 Y82.459 E23.67557
G1 X45 Y82.662 E23.72741
G1 X46.019 Y82.459 E23.77925
G0 F7500 X45.863 Y82.082
;TYPE:WALL-OUTER
G1 F1500 X46.594 Y81.594 E23.8231
G1 X47.082 Y80.863 E23.86695
G1 X47.254 Y80 E23.91085
G1 X47.082 Y79.137 E23.95475
G1 X46.594 Y78.406 E23.9986
G1 X45.863 Y77.918 E24.04245
G1 X45 Y77.746 E24.08635
G1 X44.137 Y77.918 E24.13025
G1 X43.406 Y78.406 E24.1741
G1 X42.918 Y79.137 E24.21795
G1 X42.746 Y80 E24.26185
G1 X42.918 Y80.863 E24.30576
G1 X43.406 Y81.594 E24.34961
G1 X44.137 Y82.082 E24.39346
G1 X45 Y82.254 E24.43736
G1 X45.863 Y82.082 E24.48126
G0 F7500 X46.029 Y81.971
G0 X46.273 Y82.338
G1 F2700 E17.98126
G0 F7500 X45 Y82.856
G0 X45 Y81.373
G0 X45.526 Y143.731
G0 X46.094 Y142.361
G0 X47.306 Y144.044
G0 X47.498 Y145
G0 X47.344 Y145.774
G0 X46.882 Y146.882
;TYPE:WALL-INNER
G1 F2700 E24.48126
G1 F1500 X47.459 Y146.019 E24.53305
G1 X47.662 Y145 E24.58489
G1 X47.459 Y143.981 E24.63673
G1 X46.882 Y143.118 E24.68852
G1 X46.019 Y142.541 E24.74031
G1 X45 Y142.338 E24.79215
G1 X43.981 Y142.541 E24.84398
G1 X43.118 Y143.118 E24.89578
G1 X42.541 Y143.981 E24.94757
G1 X42.338 Y145 E24.99941
G1 X42.541 Y146.019 E25.05124
G1 X43.118 Y146.882 E25.10304
G1 X43.981 Y147.459 E25.15483
G1 X45 Y147.662 E25.20666
G1 X46.019 Y147.459 E25.2585
G1 X46.882 Y146.882 E25.31029
G0 F7500 X46.594 Y146.594
;TYPE:WALL-OUTER
G1 F1500 X47.082 Y145.863 E25.35414
G1 X47.254 Y145 E25.39805
G1 X47.082 Y144.137 E25.44195
G1 X46.594 Y143.406 E25.4858
G1 X45.863 Y142.918 E25.52965
G1 X45 Y142.746 E25.57355
G1 X44.137 Y142.918 E25.61745
G1 X43.406 Y143.406 E25.6613
G1 X42.918 Y144.137 E25.70515
G1 X42.746 Y145 E25.74905
G1 X42.918 Y145.863 E25.79295
G1 X43.406 Y146.594 E25.8368
G1 X44.137 Y147.082 E25.88065
G1 X45 Y147.254 E25.92456
G1 X45.863 Y147.082 E25.96846
G1 X46.594 Y146.594 E26.01231
G0 F7500 X46.705 Y146.428
G0 X47.07 Y146.672
G1 F2700 E19.51231
G0 F7500 X47.639 Y146.094
G0 X46.269 Y145.526
G0 X89.201 Y143.841
G0 X89.474 Y143.731
G0 X90.526 Y143.731
G0 X173.731 Y140.526
G0 X172.361 Y141.094
G0 X173.118 Y141.882
;TYPE:WALL-INNER
G1 F2700 E26.01231
G1 F1500 X173.981 Y142.459 E26.0641
G1 X175 Y142.662 E26.11594
G1 X176.019 Y142.459 E26.16777
G1 X176.882 Y141.882 E26.21957
G1 X177.459 Y141.019 E26.27136
G1 X177.662 Y140 E26.3232
G1 X177.459 Y138.981 E26.37503
G1 X176.882 Y138.118 E26.42682
G1 X176.019 Y137.541 E26.47862
G1 X175 Y137.338 E26.53045
G1 X173.981 Y137.541 E26.58229
G1 X173.118 Y138.118 E26.63408
G1 X172.541 Y138.981 E26.68587
G1 X172.338 Y140 E26.73771
G1 X172.541 Y141.019 E26.78955
G1 X173.118 Y141.882 E26.84134
G0 F7500 X173.406 Y141.594
;TYPE:WALL-OUTER
G1 F1500 X174.137 Y142.082 E26.88519
G1 X175 Y142.254 E26.92909
G1 X175.863 Y142.082 E26.97299
G1 X176.594 Y141.594 E27.01684
G1 X177.082 Y140.863 E27.06069
G1 X177.254 Y140 E27.1046
G1 X177.082 Y139.137 E27.1485
G1 X176.594 Y138.406 E27.19235
G1 X175.863 Y137.918 E27.2362
G1 X175 Y137.746 E27.2801
G1 X174.137 Y137.918 E27.324
G1 X173.406 Y138.406 E27.36785
G1 X172.918 Y139.137 E27.4117
G1 X172.746 Y140 E27.4556
G1 X172.918 Y140.863 E27.49951
G1 X173.406 Y141.594 E27.54335
G0 F7500 X173.572 Y141.705
G0 X173.328 Y142.07
G1 F2700 E21.04335
G0 F7500 X172.694 Y140.956
G0 X172.502 Y140
G0 X172.694 Y139.044
G0 X173.906 Y137.361
G0 X174.474 Y138.731
G0 X175 Y101.373
G0 X175 Y102.856
G0 X173.981 Y102.459
;TYPE:WALL-INNER
G1 F2700 E27.54335
G1 F1500 X175 Y102.662 E27.59519
G1 X176.019 Y102.459 E27.64703
G1 X176.882 Y101.882 E27.69882
G1 X177.459 Y101.019 E27.75061
G1 X177.662 Y100 E27.80245
G1 X177.459 Y98.981 E27.85429
G1 X176.882 Y98.118 E27.90608
G1 X176.019 Y97.541 E27.95787
G1 X175 Y97.338 E28.00971
G1 X173.981 Y97.541 E28.06155
G1 X173.118 Y98.118 E28.11334
G1 X172.541 Y98.981 E28.16513
G1 X172.338 Y100 E28.21697
G1 X172.541 Y101.019 E28.2688
G1 X173.118 Y101.882 E28.3206
G1 X173.981 Y102.459 E28.37239
G0 F7500 X174.137 Y102.082
;TYPE:WALL-OUTER
G1 F1500 X175 Y102.254 E28.41629
G1 X175.863 Y102.082 E28.46019
G1 X176.594 Y101.594 E28.50404
G1 X177.082 Y100.863 E28.54789
G1 X177.254 Y100 E28.59179
G1 X177.082 Y99.137 E28.6357
G1 X176.594 Y98.406 E28.67955
G1 X175.863 Y97.918 E28.7234
G1 X175 Y97.746 E28.7673
G1 X174.137 Y97.918 E28.8112
G1 X173.406 Y98.406 E28.85505
G1 X172.918 Y99.137 E28.8989
G1 X172.746 Y100 E28.9428
G1 X172.918 Y100.863 E28.9867
G1 X173.406 Y101.594 E29.03055
G1 X174.137 Y102.082 E29.0744
G0 F7500 X174.333 Y102.121
G0 X174.246 Y102.552
G1 F2700 E22.5744
G0 F7500 X173.234 Y101.766
G0 X172.694 Y100.956
G0 X172.361 Y98.906
G0 X173.731 Y99.474
G0 X165 Y86.873
G0 X165 Y88.356
G0 X163.79 Y87.921
;TYPE:WALL-INNER
G1 F2700 E29.0744
G1 F1500 X165 Y88.162 E29.13595
G1 X166.21 Y87.921 E29.19751
G1 X167.235 Y87.235 E29.25904
G1 X167.921 Y86.21 E29.32057
G1 X168.162 Y85 E29.38213
G1 X167.921 Y83.79 E29.44368
G1 X167.235 Y82.765 E29.50521
G1 X166.21 Y82.079 E29.56675
G1 X165 Y81.838 E29.6283
G1 X163.79 Y82.079 E29.68985
G1 X162.765 Y82.765 E29.75139
G1 X162.079 Y83.79 E29.81292
G1 X161.838 Y85 E29.87447
G1 X162.079 Y86.21 E29.93603
G1 X162.765 Y87.235 E29.99756
G1 X163.79 Y87.921 E30.05909
G0 F7500 X163.946 Y87.544
;TYPE:WALL-OUTER
G1 F1500 X165 Y87.754 E30.11271
G1 X166.054 Y87.544 E30.16633
G1 X166.947 Y86.947 E30.21992
G1 X167.544 Y86.054 E30.27351
G1 X167.754 Y85 E30.32713
G1 X167.544 Y83.946 E30.38075
G1 X166.947 Y83.053 E30.43434
G1 X166.054 Y82.456 E30.48793
G1 X165 Y82.246 E30.54155
G1 X163.946 Y82.456 E30.59516
G1 X163.053 Y83.053 E30.64875
G1 X162.456 Y83.946 E30.70235
G1 X162.246 Y85 E30.75596
G1 X162.456 Y86.054 E30.80958
G1 X163.053 Y86.947 E30.86317
G1 X163.946 Y87.544 E30.91676
G0 F7500 X164.142 Y87.583
G0 X164.055 Y88.014
G1 F2700 E24.41676
G0 F7500 X162.628 Y87.372
G0 X163.676 Y86.324
G0 X146.731 Y85.717
G0 X148.101 Y86.285
G0 X147.119 Y87.119
G0 X146.147 Y87.768
G0 X145.115 Y87.975
G0 X143.79 Y87.921
;TYPE:WALL-INNER
G1 F2700 E30.91676
G1 F1500 X145 Y88.162 E30.97832
G1 X146.21 Y87.921 E31.03987
G1 X147.235 Y87.235 E31.1014
G1 X147.921 Y86.21 E31.16294
G1 X148.162 Y85 E31.22449
G1 X147.921 Y83.79 E31.28604
G1 X147.235 Y82.765 E31.34757
G1 X146.21 Y82.079 E31.40911
G1 X145 Y81.838 E31.47066
G1 X143.79 Y82.079 E31.53221
G1 X142.765 Y82.765 E31.59375
G1 X142.079 Y83.79 E31.65528
G1 X141.838 Y85 E31.71683
G1 X142.079 Y86.21 E31.77839
G1 X142.765 Y87.235 E31.83992
G1 X143.79 Y87.921 E31.90145
G0 F7500 X143.946 Y87.544
;TYPE:WALL-OUTER
G1 F1500 X145 Y87.754 E31.95507
G1 X146.054 Y87.544 E32.00869
G1 X146.947 Y86.947 E32.06228
G1 X147.544 Y86.054 E32.11587
G1 X147.754 Y85 E32.16949
G1 X147.544 Y83.946 E32.22311
G1 X146.947 Y83.053 E32.2767
G1 X146.054 Y82.456 E32.33029
G1 X145 Y82.246 E32.38391
G1 X143.946 Y82.456 E32.43752
G1 X143.053 Y83.053 E32.49112
G1 X142.456 Y83.946 E32.54471
G1 X142.246 Y85 E32.59832
G1 X142.456 Y86.054 E32.65194
G1 X143.053 Y86.947 E32.70553
G1 X143.946 Y87.544 E32.75912
G0 F7500 X144.142 Y87.583
G0 X144.055 Y88.014
G1 F2700 E26.25912
G0 F7500 X142.628 Y87.372
G0 X143.676 Y86.324
G0 X126.324 Y86.324
G0 X127.372 Y87.372
G0 X125 Y88.162
;TYPE:WALL-INNER
G1 F2700 E32.75912
G1 F1500 X126.21 Y87.921 E32.82068
G1 X127.235 Y87.235 E32.88221
G1 X127.921 Y86.21 E32.94374
G1 X128.162 Y85 E33.0053
G1 X127.921 Y83.79 E33.06685
G1 X127.235 Y82.765 E33.12838
G1 X126.21 Y82.079 E33.18992
G1 X125 Y81.838 E33.25147
G1 X123.79 Y82.079 E33.31302
G1 X122.765 Y82.765 E33.37456
G1 X122.079 Y83.79 E33.43609
G1 X121.838 Y85 E33.49764
G1 X122.079 Y86.21 E33.5592
G1 X122.765 Y87.235 E33.62073
G1 X123.79 Y87.921 E33.68226
G1 X125 Y88.162 E33.74382
G0 F7500 X125 Y87.754
;TYPE:WALL-OUTER
G1 F1500 X126.054 Y87.544 E33.79743
G1 X126.947 Y86.947 E33.85102
G1 X127.544 Y86.054 E33.90461
G1 X127.754 Y85 E33.95823
G1 X127.544 Y83.946 E34.01185
G1 X126.947 Y83.053 E34.06544
G1 X126.054 Y82.456 E34.11903
G1 X125 Y82.246 E34.17265
G1 X123.946 Y82.456 E34.22627
G1 X123.053 Y83.053 E34.27986
G1 X122.456 Y83.946 E34.33345
G1 X122.246 Y85 E34.38707
G1 X122.456 Y86.054 E34.44069
G1 X123.053 Y86.947 E34.49428
G1 X123.946 Y87.544 E34.54787
G1 X125 Y87.754 E34.60149
G0 F7500 X125.196 Y87.715
G0 X125.281 Y88.146
G1 F2700 E28.10149
G0 F7500 X123.853 Y87.768
G0 X123.067 Y87.243
G0 X121.899 Y86.285
G0 X123.269 Y85.717
G0 X90.971 Y80.971
G0 X92.019 Y82.019
G0 X90 Y82.662
;TYPE:WALL-INNER
G1 F2700 E34.60149
G1 F1500 X91.019 Y82.459 E34.65332
G1 X91.882 Y81.882 E34.70511
G1 X92.459 Y81.019 E34.75691
G1 X92.662 Y80 E34.80874
G1 X92.459 Y78.981 E34.86058
G1 X91.882 Y78.118 E34.91237
G1 X91.019 Y77.541 E34.96417
G1 X90 Y77.338 E35.016
G1 X88.981 Y77.541 E35.06784
G1 X88.118 Y78.118 E35.11963
G1 X87.541 Y78.981 E35.17142
G1 X87.338 Y80 E35.22326
G1 X87.541 Y81.019 E35.2751
G1 X88.118 Y81.882 E35.32689
G1 X88.981 Y82.459 E35.37868
G1 X90 Y82.662 E35.43052
G0 F7500 X90 Y82.254
;TYPE:WALL-OUTER
G1 F1500 X90.863 Y82.082 E35.47442
G1 X91.594 Y81.594 E35.51827
G1 X92.082 Y80.863 E35.56212
G1 X92.254 Y80 E35.60602
G1 X92.082 Y79.137 E35.64992
G1 X91.594 Y78.406 E35.69377
G1 X90.863 Y77.918 E35.73762
G1 X90 Y77.746 E35.78153
G1 X89.137 Y77.918 E35.82543
G1 X88.406 Y78.406 E35.86928
G1 X87.918 Y79.137 E35.91313
G1 X87.746 Y80 E35.95703
G1 X87.918 Y80.863 E36.00093
G1 X88.406 Y81.594 E36.04478
G1 X89.137 Y82.082 E36.08863
G1 X90 Y82.254 E36.13253
G0 F7500 X90.196 Y82.215
G0 X90.281 Y82.646
G1 F2700 E29.63253
G0 F7500 X92.019 Y82.019
G0 X90.971 Y80.971
G0 X103.269 Y85.717
G0 X101.899 Y86.285
G0 X102.881 Y87.119
G0 X103.755 Y87.703
G0 X105 Y88.162
;TYPE:WALL-INNER
G1 F2700 E36.13253
G1 F1500 X106.21 Y87.921 E36.19409
G1 X107.235 Y87.235 E36.25562
G1 X107.921 Y86.21 E36.31715
G1 X108.162 Y85 E36.37871
G1 X107.921 Y83.79 E36.44026
G1 X107.235 Y82.765 E36.50179
G1 X106.21 Y82.079 E36.56333
G1 X105 Y81.838 E36.62488
G1 X103.79 Y82.079 E36.68643
G1 X102.765 Y82.765 E36.74796
G1 X102.079 Y83.79 E36.8095
G1 X101.838 Y85 E36.87105
G1 X102.079 Y86.21 E36.9326
G1 X102.765 Y87.235 E36.99414
G1 X103.79 Y87.921 E37.05567
G1 X105 Y88.162 E37.11722
G0 F7500 X105 Y87.754
;TYPE:WALL-OUTER
G1 F1500 X106.054 Y87.544 E37.17084
G1 X106.947 Y86.947 E37.22443
G1 X107.544 Y86.054 E37.27802
G1 X107.754 Y85 E37.33164
G1 X107.544 Y83.946 E37.38526
G1 X106.947 Y83.053 E37.43885
G1 X106.054 Y82.456 E37.49244
G1 X105 Y82.246 E37.54606
G1 X103.946 Y82.456 E37.59968
G1 X103.053 Y83.053 E37.65327
G1 X102.456 Y83.946 E37.70686
G1 X102.246 Y85 E37.76048
G1 X102.456 Y86.054 E37.81409
G1 X103.053 Y86.947 E37.86768
G1 X103.946 Y87.544 E37.92128
G1 X105 Y87.754 E37.97489
G0 F7500 X105.196 Y87.715
G0 X105.281 Y88.146
G1 F2700 E31.47489
G0 F7500 X104.842 Y88.325
G0 X105 Y86.873
G0 X100.526 Y108.731
G0 X101.056 Y107.353
G0 X101.766 Y108.234
G0 X102.306 Y109.044
G0 X102.498 Y110
G0 X102.306 Y110.956
G0 X101.766 Y111.766
G0 X101.11 Y112.203
G0 X100 Y112.662
;TYPE:WALL-INNER
G1 F2700 E37.97489
G1 F1500 X101.019 Y112.459 E38.02673
G1 X101.882 Y111.882 E38.07852
G1 X102.459 Y111.019 E38.13032
G1 X102.662 Y110 E38.18215
G1 X102.459 Y108.981 E38.23399
G1 X101.882 Y108.118 E38.28578
G1 X101.019 Y107.541 E38.33757
G1 X100 Y107.338 E38.38941
G1 X98.981 Y107.541 E38.44125
G1 X98.118 Y108.118 E38.49304
G1 X97.541 Y108.981 E38.54483
G1 X97.338 Y110 E38.59667
G1 X97.541 Y111.019 E38.64851
G1 X98.118 Y111.882 E38.7003
G1 X98.981 Y112.459 E38.75209
G1 X100 Y112.662 E38.80393
G0 F7500 X100 Y112.254
;TYPE:WALL-OUTER
G1 F1500 X100.863 Y112.082 E38.84783
G1 X101.594 Y111.594 E38.89168
G1 X102.082 Y110.863 E38.93553
G1 X102.254 Y110 E38.97943
G1 X102.082 Y109.137 E39.02333
G1 X101.594 Y108.406 E39.06718
G1 X100.863 Y107.918 E39.11103
G1 X100 Y107.746 E39.15493
G1 X99.137 Y107.918 E39.19884
G1 X98.406 Y108.406 E39.24269
G1 X97.918 Y109.137 E39.28654
G1 X97.746 Y110 E39.33044
G1 X97.918 Y110.863 E39.37434
G1 X98.406 Y111.594 E39.41819
G1 X99.137 Y112.082 E39.46204
G1 X100 Y112.254 E39.50594
G0 F7500 X100.196 Y112.215
G0 X100.281 Y112.646
G1 F2700 E33.00594
G0 F7500 X100 Y112.856
G0 X100 Y111.373
G0 X100 Y138.627
G0 X100 Y137.144
G0 X101.766 Y138.234
G0 X102.306 Y139.044
G0 X102.498 Y140
G0 X102.306 Y140.956
G0 X101.766 Y141.766
G0 X101.11 Y142.203
G0 X100 Y142.662
;TYPE:WALL-INNER
G1 F2700 E39.50594
G1 F1500 X101.019 Y142.459 E39.55778
G1 X101.882 Y141.882 E39.60957
G1 X102.459 Y141.019 E39.66136
G1 X102.662 Y140 E39.7132
G1 X102.459 Y138.981 E39.76504
G1 X101.882 Y138.118 E39.81683
G1 X101.019 Y137.541 E39.86862
G1 X100 Y137.338 E39.92046
G1 X98.981 Y137.541 E39.97229
G1 X98.118 Y138.118 E40.02409
G1 X97.541 Y138.981 E40.07588
G1 X97.338 Y140 E40.12772
G1 X97.541 Y141.019 E40.17955
G1 X98.118 Y141.882 E40.23135
G1 X98.981 Y142.459 E40.28314
G1 X100 Y142.662 E40.33497
G0 F7500 X100 Y142.254
;TYPE:WALL-OUTER
G1 F1500 X100.863 Y142.082 E40.37888
G1 X101.594 Y141.594 E40.42273
G1 X102.082 Y140.863 E40.46658
G1 X102.254 Y140 E40.51048
G1 X102.082 Y139.137 E40.55438
G1 X101.594 Y138.406 E40.59823
G1 X100.863 Y137.918 E40.64208
G1 X100 Y137.746 E40.68598
G1 X99.137 Y137.918 E40.72988
G1 X98.406 Y138.406 E40.77373
G1 X97.918 Y139.137 E40.81758
G1 X97.746 Y140 E40.86148
G1 X97.918 Y140.863 E40.90539
G1 X98.406 Y141.594 E40.94924
G1 X99.137 Y142.082 E40.99309
G1 X100 Y142.254 E41.03699
G0 F7500 X100.196 Y142.215
G0 X100.281 Y142.646
G1 F2700 E34.53699
G0 F7500 X98.906 Y142.639
G0 X99.474 Y141.269
G0 X91.373 Y145
G0 X92.856 Y145
G0 X91.766 Y146.766
G0 X91.019 Y147.459
;TYPE:WALL-INNER
G1 F2700 E41.03699
G1 F1500 X91.882 Y146.882 E41.08878
G1 X92.459 Y146.019 E41.14057
G1 X92.662 Y145 E41.19241
G1 X92.459 Y143.981 E41.24425
G1 X91.882 Y143.118 E41.29604
G1 X91.019 Y142.541 E41.34783
G1 X90 Y142.338 E41.39967
