;FLAVOR:Marlin
;TIME:17309
;Filament used: 16.3668m
;Layer height: 0.2
;MINX:31.8
;MINY:61.8
;MINZ:0.3
;MAXX:188.2
;MAXY:158.2
;MAXZ:5.1
;Generated with Cura_SteamEngine 4.13.1
M140 S60
M105
M190 S60
M104 S195
M105
M109 S195
M82 ;absolute extrusion mode
G28 ;Home
G1 Z15.0 F2000 ;Move the platform
G92 E0
G92 E0
G1 F2700 E-6.5
;LAYER_COUNT:25
;LAYER:0
M107
M204 S1000
G0 F7500 X33.617 Y62.128 Z0.3
;TYPE:SKIRT
G1 F2700 E0
G1 F1500 X34.088 Y61.944 E0.02523
G1 X34.582 Y61.838 E0.05043
G1 X34.919 Y61.81 E0.06731
G1 X35.33 Y61.8 E0.08782
G1 X184.339 Y61.8 E7.52191
G1 X185.037 Y61.81 E7.55673
G1 X185.54 Y61.857 E7.58194
G1 X186.03 Y61.983 E7.60718
G1 X186.494 Y62.185 E7.63243
G1 X186.92 Y62.457 E7.65764
G1 X187.298 Y62.792 E7.68284
G1 X187.618 Y63.183 E7.70805
G1 X187.873 Y63.62 E7.73329
G1 X188.056 Y64.091 E7.7585
G1 X188.163 Y64.585 E7.78372
G1 X188.19 Y64.92 E7.80048
G1 X188.2 Y65.33 E7.82095
G1 X188.2 Y154.304 E12.25988
G1 X188.191 Y155.031 E12.29615
G1 X188.145 Y155.534 E12.32135
G1 X188.02 Y156.024 E12.34658
G1 X187.819 Y156.488 E12.37181
G1 X187.548 Y156.915 E12.39704
G1 X187.213 Y157.294 E12.42227
G1 X186.823 Y157.615 E12.44747
G1 X186.387 Y157.871 E12.4727
G1 X185.916 Y158.054 E12.49791
G1 X185.422 Y158.162 E12.52314
G1 X185.081 Y158.19 E12.5402
G1 X184.67 Y158.2 E12.56072
G1 X35.666 Y158.2 E19.99456
G1 X34.968 Y158.191 E20.02938
G1 X34.464 Y158.144 E20.05464
G1 X33.974 Y158.019 E20.07986
G1 X33.51 Y157.818 E20.10509
G1 X33.084 Y157.547 E20.13028
G1 X32.705 Y157.212 E20.15552
G1 X32.384 Y156.821 E20.18076
G1 X32.129 Y156.385 E20.20596
G1 X31.945 Y155.914 E20.23118
G1 X31.838 Y155.42 E20.2564
G1 X31.81 Y155.077 E20.27357
G1 X31.8 Y154.658 E20.29448
G1 X31.8 Y65.631 E24.73606
G1 X31.809 Y64.966 E24.76924
G1 X31.856 Y64.462 E24.79449
G1 X31.982 Y63.973 E24.81968
G1 X32.183 Y63.509 E24.84491
G1 X32.454 Y63.082 E24.87014
G1 X32.789 Y62.704 E24.89534
G1 X33.18 Y62.383 E24.92058
G1 X33.617 Y62.128 E24.94582
G1 F2700 E18.44582
;MESH:BasisPlatteSteuerung.stl
G0 F7500 X45 Y148.627
G0 X45 Y147.144
G0 X46.766 Y148.234
G0 X47.306 Y149.044
G0 X47.498 Y150
G0 X47.344 Y150.774
G0 X46.882 Y151.882
;TYPE:WALL-INNER
G1 F2700 E24.94582
G1 F1500 X47.459 Y151.019 E24.99761
G1 X47.662 Y150 E25.04945
G1 X47.459 Y148.981 E25.10129
G1 X46.882 Y148.118 E25.15308
G1 X46.019 Y147.541 E25.20487
G1 X45 Y147.338 E25.25671
G1 X43.981 Y147.541 E25.30855
G1 X43.118 Y148.118 E25.36034
G1 X42.541 Y148.981 E25.41213
G1 X42.338 Y150 E25.46397
G1 X42.541 Y151.019 E25.5158
G1 X43.118 Y151.882 E25.5676
G1 X43.981 Y152.459 E25.61939
G1 X45 Y152.662 E25.67123
G1 X46.019 Y152.459 E25.72306
G1 X46.882 Y151.882 E25.77485
G0 F7500 X46.594 Y151.594
;TYPE:WALL-OUTER
G1 F1500 X47.082 Y150.863 E25.8187
G1 X47.254 Y150 E25.86261
G1 X47.082 Y149.137 E25.90651
G1 X46.594 Y148.406 E25.95036
G1 X45.863 Y147.918 E25.99421
G1 X45 Y147.746 E26.03811
G1 X44.137 Y147.918 E26.08201
G1 X43.406 Y148.406 E26.12586
G1 X42.918 Y149.137 E26.16971
G1 X42.746 Y150 E26.21361
G1 X42.918 Y150.863 E26.25752
G1 X43.406 Y151.594 E26.30136
G1 X44.137 Y152.082 E26.34521
G1 X45 Y152.254 E26.38912
G1 X45.863 Y152.082 E26.43302
G1 X46.594 Y151.594 E26.47687
G0 F7500 X46.705 Y151.428
G0 X47.07 Y151.672
G1 F2700 E19.97687
G0 F7500 X47.306 Y150.956
G0 X47.498 Y150
G0 X47.306 Y149.044
G0 X46.094 Y147.361
G0 X45.526 Y148.731
G0 X45 Y103.173
G0 X45 Y104.656
G0 X46.019 Y104.259
;TYPE:WALL-INNER
G1 F2700 E26.47687
G1 F1500 X46.883 Y103.682 E26.5287
G1 X47.459 Y102.818 E26.58051
G1 X47.662 Y101.8 E26.6323
G1 X47.459 Y100.781 E26.68413
G1 X46.882 Y99.918 E26.73593
G1 X46.019 Y99.341 E26.78772
G1 X45 Y99.138 E26.83955
G1 X43.981 Y99.341 E26.89139
G1 X43.118 Y99.918 E26.94318
G1 X42.541 Y100.781 E26.99498
G1 X42.338 Y101.8 E27.04681
G1 X42.541 Y102.818 E27.0986
G1 X43.117 Y103.682 E27.15041
G1 X43.981 Y104.259 E27.20224
G1 X45 Y104.462 E27.25408
G1 X46.019 Y104.259 E27.30591
G0 F7500 X45.863 Y103.882
;TYPE:WALL-OUTER
G1 F1500 X46.594 Y103.394 E27.34976
G1 X47.082 Y102.662 E27.39366
G1 X47.254 Y101.8 E27.43751
G1 X47.082 Y100.937 E27.48141
G1 X46.594 Y100.206 E27.52526
G1 X45.863 Y99.718 E27.56911
G1 X45 Y99.546 E27.61301
G1 X44.137 Y99.718 E27.65691
G1 X43.406 Y100.206 E27.70076
G1 X42.918 Y100.937 E27.74461
G1 X42.746 Y101.8 E27.78852
G1 X42.918 Y102.662 E27.83237
G1 X43.406 Y103.394 E27.87626
G1 X44.137 Y103.882 E27.92011
G1 X45 Y104.054 E27.96401
G1 X45.863 Y103.882 E28.00791
G0 F7500 X46.029 Y103.771
G0 X46.273 Y104.138
G1 F2700 E21.50791
G0 F7500 X46.766 Y103.566
G0 X47.306 Y102.755
G0 X47.639 Y100.706
G0 X46.269 Y101.274
G0 X55 Y86.873
G0 X55 Y88.356
G0 X56.21 Y87.921
;TYPE:WALL-INNER
G1 F2700 E28.00791
G1 F1500 X57.235 Y87.235 E28.06945
G1 X57.921 Y86.21 E28.13098
G1 X58.162 Y85 E28.19253
G1 X57.921 Y83.79 E28.25409
G1 X57.235 Y82.765 E28.31562
G1 X56.21 Y82.079 E28.37715
G1 X55 Y81.838 E28.43871
G1 X53.79 Y82.079 E28.50026
G1 X52.765 Y82.765 E28.56179
G1 X52.079 Y83.79 E28.62333
G1 X51.838 Y85 E28.68488
G1 X52.079 Y86.21 E28.74643
G1 X52.765 Y87.235 E28.80796
G1 X53.79 Y87.921 E28.8695
G1 X55 Y88.162 E28.93105
G1 X56.21 Y87.921 E28.9926
G0 F7500 X56.054 Y87.544
;TYPE:WALL-OUTER
G1 F1500 X56.947 Y86.947 E29.0462
G1 X57.544 Y86.054 E29.09979
G1 X57.754 Y85 E29.1534
G1 X57.544 Y83.946 E29.20702
G1 X56.947 Y83.053 E29.26061
G1 X56.054 Y82.456 E29.3142
G1 X55 Y82.246 E29.36782
G1 X53.946 Y82.456 E29.42144
G1 X53.053 Y83.053 E29.47503
G1 X52.456 Y83.946 E29.52862
G1 X52.246 Y85 E29.58224
G1 X52.456 Y86.054 E29.63586
G1 X53.053 Y86.947 E29.68945
G1 X53.946 Y87.544 E29.74304
G1 X55 Y87.754 E29.79666
G1 X56.054 Y87.544 E29.85027
G0 F7500 X56.22 Y87.433
G0 X56.464 Y87.799
G1 F2700 E23.35027
G0 F7500 X58.101 Y86.285
G0 X56.731 Y85.717
G0 X73.269 Y85.717
G0 X71.899 Y86.285
G0 X72.881 Y87.119
G0 X73.853 Y87.768
G0 X74.885 Y87.975
G0 X76.21 Y87.921
;TYPE:WALL-INNER
G1 F2700 E29.85027
G1 F1500 X77.235 Y87.235 E29.91181
G1 X77.921 Y86.21 E29.97334
G1 X78.162 Y85 E30.03489
G1 X77.921 Y83.79 E30.09645
G1 X77.235 Y82.765 E30.15798
G1 X76.21 Y82.079 E30.21951
G1 X75 Y81.838 E30.28107
G1 X73.79 Y82.079 E30.34262
G1 X72.765 Y82.765 E30.40415
G1 X72.079 Y83.79 E30.46569
G1 X71.838 Y85 E30.52724
G1 X72.079 Y86.21 E30.58879
G1 X72.765 Y87.235 E30.65033
G1 X73.79 Y87.921 E30.71186
G1 X75 Y88.162 E30.77341
G1 X76.21 Y87.921 E30.83497
G0 F7500 X76.054 Y87.544
;TYPE:WALL-OUTER
G1 F1500 X76.947 Y86.947 E30.88856
G1 X77.544 Y86.054 E30.94215
G1 X77.754 Y85 E30.99577
G1 X77.544 Y83.946 E31.04938
G1 X76.947 Y83.053 E31.10297
G1 X76.054 Y82.456 E31.15656
G1 X75 Y82.246 E31.21018
G1 X73.946 Y82.456 E31.2638
G1 X73.053 Y83.053 E31.31739
G1 X72.456 Y83.946 E31.37098
G1 X72.246 Y85 E31.4246
G1 X72.456 Y86.054 E31.47822
G1 X73.053 Y86.947 E31.53181
G1 X73.946 Y87.544 E31.5854
G1 X75 Y87.754 E31.63902
G1 X76.054 Y87.544 E31.69264
G0 F7500 X76.22 Y87.433
G0 X76.464 Y87.799
G1 F2700 E25.19264
G0 F7500 X77.372 Y87.372
G0 X76.324 Y86.324
G0 X174.427 Y150
G0 X172.944 Y150
G0 X173.918 Y151.883
;TYPE:WALL-INNER
G1 F2700 E31.69264
G1 F1500 X174.782 Y152.459 E31.74444
G1 X175.8 Y152.662 E31.79623
G1 X176.819 Y152.459 E31.84807
G1 X177.682 Y151.882 E31.89986
G1 X178.259 Y151.019 E31.95165
G1 X178.462 Y150 E32.00349
G1 X178.259 Y148.981 E32.05533
G1 X177.682 Y148.118 E32.10712
G1 X176.819 Y147.541 E32.15891
G1 X175.8 Y147.338 E32.21075
G1 X174.782 Y147.541 E32.26253
G1 X173.918 Y148.117 E32.31434
G1 X173.341 Y148.981 E32.36617
G1 X173.138 Y150 E32.41801
G1 X173.341 Y151.019 E32.46985
G1 X173.918 Y151.883 E32.52168
G0 F7500 X174.206 Y151.594
;TYPE:WALL-OUTER
G1 F1500 X174.938 Y152.082 E32.56557
G1 X175.8 Y152.254 E32.60943
G1 X176.663 Y152.082 E32.65333
G1 X177.394 Y151.594 E32.69718
G1 X177.882 Y150.863 E32.74103
G1 X178.054 Y150 E32.78493
G1 X177.882 Y149.137 E32.82883
G1 X177.394 Y148.406 E32.87268
G1 X176.663 Y147.918 E32.91653
G1 X175.8 Y147.746 E32.96043
G1 X174.938 Y147.918 E33.00429
G1 X174.206 Y148.406 E33.04818
G1 X173.718 Y149.137 E33.09203
G1 X173.546 Y150 E33.13593
G1 X173.718 Y150.863 E33.17983
G1 X174.206 Y151.594 E33.22368
G0 F7500 X174.372 Y151.705
G0 X174.128 Y152.07
G1 F2700 E26.72368
G0 F7500 X173.494 Y150.956
G0 X173.302 Y150
G0 X173.494 Y149.044
G0 X174.707 Y147.361
G0 X175.275 Y148.731
G0 X175.8 Y106.373
G0 X175.8 Y107.856
G0 X174.782 Y107.459
;TYPE:WALL-INNER
G1 F2700 E33.22368
G1 F1500 X175.8 Y107.662 E33.27547
G1 X176.819 Y107.459 E33.32731
G1 X177.682 Y106.882 E33.3791
G1 X178.259 Y106.019 E33.43089
G1 X178.462 Y105 E33.48273
G1 X178.259 Y103.981 E33.53456
G1 X177.682 Y103.118 E33.58636
G1 X176.819 Y102.541 E33.63815
G1 X175.8 Y102.338 E33.68999
G1 X174.782 Y102.541 E33.74177
G1 X173.918 Y103.117 E33.79358
G1 X173.341 Y103.981 E33.84541
G1 X173.138 Y105 E33.89725
G1 X173.341 Y106.019 E33.94909
G1 X173.918 Y106.883 E34.00092
G1 X174.782 Y107.459 E34.05273
G0 F7500 X174.938 Y107.082
;TYPE:WALL-OUTER
G1 F1500 X175.8 Y107.254 E34.09658
G1 X176.663 Y107.082 E34.14048
G1 X177.394 Y106.594 E34.18433
G1 X177.882 Y105.863 E34.22818
G1 X178.054 Y105 E34.27208
G1 X177.882 Y104.137 E34.31599
G1 X177.394 Y103.406 E34.35984
G1 X176.663 Y102.918 E34.40369
G1 X175.8 Y102.746 E34.44759
G1 X174.938 Y102.918 E34.49144
G1 X174.206 Y103.406 E34.53533
G1 X173.718 Y104.137 E34.57918
G1 X173.546 Y105 E34.62308
G1 X173.718 Y105.863 E34.66699
G1 X174.206 Y106.594 E34.71083
G1 X174.938 Y107.082 E34.75473
G0 F7500 X175.134 Y107.121
G0 X175.047 Y107.552
G1 F2700 E28.25473
G0 F7500 X174.034 Y106.766
G0 X173.494 Y105.956
G0 X173.161 Y103.906
G0 X174.531 Y104.474
G0 X160 Y86.873
G0 X160 Y88.356
G0 X158.79 Y87.921
;TYPE:WALL-INNER
G1 F2700 E34.75473
G1 F1500 X160 Y88.162 E34.81628
G1 X161.21 Y87.921 E34.87783
G1 X162.235 Y87.235 E34.93937
G1 X162.921 Y86.21 E35.0009
G1 X163.162 Y85 E35.06245
G1 X162.921 Y83.79 E35.124
G1 X162.235 Y82.765 E35.18554
G1 X161.21 Y82.079 E35.24707
G1 X160 Y81.838 E35.30862
G1 X158.79 Y82.079 E35.37018
G1 X157.765 Y82.765 E35.43171
G1 X157.079 Y83.79 E35.49324
G1 X156.838 Y85 E35.5548
G1 X157.079 Y86.21 E35.61635
G1 X157.765 Y87.235 E35.67788
G1 X158.79 Y87.921 E35.73942
G0 F7500 X158.946 Y87.544
;TYPE:WALL-OUTER
G1 F1500 X160 Y87.754 E35.79303
G1 X161.054 Y87.544 E35.84665
G1 X161.947 Y86.947 E35.90024
G1 X162.544 Y86.054 E35.95383
G1 X162.754 Y85 E36.00745
G1 X162.544 Y83.946 E36.06107
G1 X161.947 Y83.053 E36.11466
G1 X161.054 Y82.456 E36.16825
G1 X160 Y82.246 E36.22187
G1 X158.946 Y82.456 E36.27549
G1 X158.053 Y83.053 E36.32908
G1 X157.456 Y83.946 E36.38267
G1 X157.246 Y85 E36.43629
G1 X157.456 Y86.054 E36.48991
G1 X158.053 Y86.947 E36.5435
G1 X158.946 Y87.544 E36.59709
G0 F7500 X159.142 Y87.583
G0 X159.055 Y88.014
G1 F2700 E30.09709
G0 F7500 X157.628 Y87.372
G0 X158.676 Y86.324
G0 X141.731 Y85.717
G0 X143.101 Y86.285
G0 X142.119 Y87.119
G0 X141.147 Y87.768
G0 X140.115 Y87.975
G0 X138.79 Y87.921
;TYPE:WALL-INNER
G1 F2700 E36.59709
G1 F1500 X140 Y88.162 E36.65864
G1 X141.21 Y87.921 E36.72019
G1 X142.235 Y87.235 E36.78173
G1 X142.921 Y86.21 E36.84326
G1 X143.162 Y85 E36.90481
G1 X142.921 Y83.79 E36.96637
G1 X142.235 Y82.765 E37.0279
G1 X141.21 Y82.079 E37.08943
G1 X140 Y81.838 E37.15099
G1 X138.79 Y82.079 E37.21254
G1 X137.765 Y82.765 E37.27407
G1 X137.079 Y83.79 E37.33561
G1 X136.838 Y85 E37.39716
G1 X137.079 Y86.21 E37.45871
G1 X137.765 Y87.235 E37.52024
G1 X138.79 Y87.921 E37.58178
G0 F7500 X138.946 Y87.544
;TYPE:WALL-OUTER
G1 F1500 X140 Y87.754 E37.6354
G1 X141.054 Y87.544 E37.68901
G1 X141.947 Y86.947 E37.7426
G1 X142.544 Y86.054 E37.7962
G1 X142.754 Y85 E37.84981
G1 X142.544 Y83.946 E37.90343
G1 X141.947 Y83.053 E37.95702
G1 X141.054 Y82.456 E38.01061
G1 X140 Y82.246 E38.06423
G1 X138.946 Y82.456 E38.11785
G1 X138.053 Y83.053 E38.17144
G1 X137.456 Y83.946 E38.22503
G1 X137.246 Y85 E38.27865
G1 X137.456 Y86.054 E38.33227
G1 X138.053 Y86.947 E38.38586
G1 X138.946 Y87.544 E38.43945
G0 F7500 X139.142 Y87.583
G0 X139.055 Y88.014
G1 F2700 E31.93945
G0 F7500 X137.628 Y87.372
G0 X138.676 Y86.324
G0 X112.069 Y104.474
G0 X113.439 Y103.906
G0 X113.106 Y105.956
G0 X112.566 Y106.766
G0 X111.91 Y107.203
G0 X110.8 Y107.662
;TYPE:WALL-INNER
G1 F2700 E38.43945
G1 F1500 X111.819 Y107.459 E38.49129
G1 X112.682 Y106.882 E38.54308
G1 X113.259 Y106.019 E38.59487
G1 X113.462 Y105 E38.64671
G1 X113.259 Y103.981 E38.69854
G1 X112.682 Y103.118 E38.75034
G1 X111.819 Y102.541 E38.80213
G1 X110.8 Y102.338 E38.85396
G1 X109.782 Y102.541 E38.90575
G1 X108.918 Y103.117 E38.95756
G1 X108.341 Y103.981 E39.00939
G1 X108.138 Y105 E39.06123
G1 X108.341 Y106.019 E39.11307
G1 X108.918 Y106.883 E39.1649
G1 X109.782 Y107.459 E39.21671
G1 X110.8 Y107.662 E39.26849
G0 F7500 X110.8 Y107.254
;TYPE:WALL-OUTER
G1 F1500 X111.663 Y107.082 E39.3124
G1 X112.394 Y106.594 E39.35625
G1 X112.882 Y105.863 E39.4001
G1 X113.054 Y105 E39.444
G1 X112.882 Y104.137 E39.4879
G1 X112.394 Y103.406 E39.53175
G1 X111.663 Y102.918 E39.5756
G1 X110.8 Y102.746 E39.6195
G1 X109.938 Y102.918 E39.66335
G1 X109.206 Y103.406 E39.70725
G1 X108.718 Y104.137 E39.7511
G1 X108.546 Y105 E39.795
G1 X108.718 Y105.863 E39.8389
G1 X109.206 Y106.594 E39.88275
G1 X109.938 Y107.082 E39.92664
G1 X110.8 Y107.254 E39.97049
G0 F7500 X110.996 Y107.215
G0 X111.081 Y107.646
G1 F2700 E33.47049
G0 F7500 X108.781 Y107.02
G0 X109.829 Y105.971
G0 X97.069 Y107.426
G0 X98.439 Y107.994
G0 X96.755 Y109.206
G0 X95.8 Y109.562
;TYPE:WALL-INNER
G1 F2700 E39.97049
G1 F1500 X96.818 Y109.359 E40.02228
G1 X97.682 Y108.783 E40.07409
G1 X98.259 Y107.919 E40.12592
G1 X98.462 Y106.9 E40.17776
G1 X98.259 Y105.882 E40.22955
G1 X97.682 Y105.018 E40.28138
G1 X96.818 Y104.441 E40.33321
G1 X95.8 Y104.238 E40.385
G1 X94.781 Y104.441 E40.43684
G1 X93.917 Y105.018 E40.48867
G1 X93.341 Y105.882 E40.54048
G1 X93.138 Y106.9 E40.59227
G1 X93.341 Y107.919 E40.6441
G1 X93.918 Y108.782 E40.6959
G1 X94.781 Y109.359 E40.74769
G1 X95.8 Y109.562 E40.79952
G0 F7500 X95.8 Y109.154
;TYPE:WALL-OUTER
G1 F1500 X96.662 Y108.982 E40.84338
G1 X97.394 Y108.494 E40.88727
G1 X97.882 Y107.763 E40.93112
G1 X98.054 Y106.9 E40.97502
G1 X97.882 Y106.038 E41.01887
G1 X97.394 Y105.306 E41.06276
G1 X96.662 Y104.818 E41.10666
G1 X95.8 Y104.646 E41.15051
G1 X94.937 Y104.818 E41.19441
G1 X94.206 Y105.306 E41.23826
G1 X93.718 Y106.038 E41.28215
G1 X93.546 Y106.9 E41.32601
G1 X93.718 Y107.763 E41.36991
G1 X94.206 Y108.494 E41.41376
G1 X94.937 Y108.982 E41.45761
G1 X95.8 Y109.154 E41.50151
G0 F7500 X95.996 Y109.115
G0 X96.081 Y109.546
G1 F2700 E35.00151
G0 F7500 X95.8 Y109.756
G0 X95.8 Y108.273
G0 X95.8 Y133.427
G0 X95.8 Y131.944
G0 X97.566 Y133.034
G0 X98.106 Y133.845
G0 X98.298 Y134.8
G0 X98.106 Y135.756
G0 X97.566 Y136.566
G0 X96.91 Y137.003
G0 X95.8 Y137.462
;TYPE:WALL-INNER
G1 F2700 E41.50151
G1 F1500 X96.818 Y137.259 E41.5533
G1 X97.682 Y136.683 E41.6051
G1 X98.259 Y135.819 E41.65694
G1 X98.462 Y134.8 E41.70877
G1 X98.259 Y133.782 E41.76056
G1 X97.682 Y132.918 E41.8124
G1 X96.818 Y132.341 E41.86423
G1 X95.8 Y132.138 E41.91602
G1 X94.781 Y132.341 E41.96785
G1 X93.917 Y132.918 E42.01969
G1 X93.341 Y133.782 E42.07149
G1 X93.138 Y134.8 E42.12328
G1 X93.341 Y135.819 E42.17512
G1 X93.918 Y136.682 E42.22691
G1 X94.781 Y137.259 E42.2787
G1 X95.8 Y137.462 E42.33054
G0 F7500 X95.8 Y137.054
;TYPE:WALL-OUTER
G1 F1500 X96.662 Y136.882 E42.37439
G1 X97.394 Y136.394 E42.41828
G1 X97.882 Y135.663 E42.46213
G1 X98.054 Y134.8 E42.50604
G1 X97.882 Y133.938 E42.54989
G1 X97.394 Y133.206 E42.59378
G1 X96.662 Y132.718 E42.63767
G1 X95.8 Y132.546 E42.68152
G1 X94.937 Y132.718 E42.72543
G1 X94.206 Y133.206 E42.76928
G1 X93.718 Y133.938 E42.81317
G1 X93.546 Y134.8 E42.85702
G1 X93.718 Y135.663 E42.90092
G1 X94.206 Y136.394 E42.94477
G1 X94.937 Y136.882 E42.98862
G1 X95.8 Y137.054 E43.03252
G0 F7500 X95.996 Y137.015
G0 X96.081 Y137.446
G1 F2700 E36.53252
G0 F7500 X96.893 Y137.439
G0 X96.325 Y136.069
G0 X109.829 Y149.029
G0 X108.781 Y147.98
G0 X108.302 Y150
G0 X108.494 Y150.956
G0 X109.034 Y151.766
G0 X109.69 Y152.203
G0 X110.8 Y152.662
;TYPE:WALL-INNER
G1 F2700 E43.03252
G1 F1500 X111.819 Y152.459 E43.08436
G1 X112.682 Y151.882 E43.13615
G1 X113.259 Y151.019 E43.18795
G1 X113.462 Y150 E43.23978
G1 X113.259 Y148.981 E43.29162
G1 X112.682 Y148.118 E43.34341
