;FLAVOR:Marlin
;TIME:2152
;Filament used: 0.687578m
;Layer height: 0.1
;MINX:88.9
;MINY:87.658
;MINZ:0.3
;MAXX:131.1
;MAXY:132.35
;MAXZ:4
;Generated with Cura_SteamEngine 4.13.1
M140 S60
M105
M190 S60
M104 S195
M105
M109 S195
M82 ;absolute extrusion mode
G28 ;Home
G1 Z15.0 F2000 ;Move the platform
G92 E0
G92 E0
G1 F2700 E-6.5
;LAYER_COUNT:38
;LAYER:0
M107
M204 S1000
G0 F7500 X95.293 Y93.631 Z0.3
;TYPE:SKIRT
G1 F2700 E0
G1 F1500 X95.414 Y93.514 E0.0084
G1 X95.952 Y93.017 E0.04494
G1 X96.177 Y92.819 E0.05989
G1 X96.843 Y92.264 E0.10314
G1 X96.974 Y92.161 E0.11146
G1 X97.608 Y91.682 E0.1511
G1 X97.837 Y91.52 E0.16509
G1 X98.517 Y91.058 E0.20611
G1 X98.683 Y90.952 E0.21594
G1 X99.41 Y90.509 E0.25841
G1 X99.559 Y90.424 E0.26697
G1 X100.199 Y90.074 E0.30336
G1 X100.43 Y89.954 E0.31635
G1 X101.234 Y89.566 E0.36088
G1 X101.383 Y89.498 E0.36906
G1 X102.125 Y89.182 E0.40929
G1 X102.384 Y89.081 E0.42316
G1 X103.104 Y88.816 E0.46144
G1 X103.263 Y88.761 E0.46983
G1 X104.018 Y88.524 E0.50931
G1 X104.369 Y88.425 E0.52751
G1 X105.157 Y88.221 E0.56811
G1 X105.319 Y88.183 E0.57642
G1 X106.084 Y88.023 E0.61541
G1 X106.331 Y87.979 E0.62792
G1 X107.173 Y87.847 E0.67045
G1 X107.346 Y87.825 E0.67915
G1 X108.116 Y87.743 E0.71778
G1 X108.427 Y87.717 E0.73335
G1 X109.187 Y87.673 E0.77133
G1 X109.353 Y87.667 E0.77962
G1 X110.128 Y87.658 E0.81828
G1 X110.493 Y87.664 E0.8365
G1 X111.279 Y87.696 E0.87574
G1 X111.45 Y87.707 E0.88429
G1 X112.231 Y87.776 E0.92341
G1 X112.549 Y87.812 E0.93937
G1 X113.297 Y87.916 E0.97705
G1 X113.465 Y87.944 E0.98555
G1 X114.331 Y88.107 E1.02951
G1 X114.556 Y88.155 E1.04099
G1 X115.397 Y88.359 E1.08416
G1 X115.583 Y88.409 E1.09377
G1 X116.254 Y88.605 E1.12865
G1 X116.582 Y88.711 E1.14584
G1 X117.347 Y88.978 E1.18627
G1 X117.506 Y89.038 E1.19475
G1 X118.305 Y89.361 E1.23774
G1 X118.503 Y89.448 E1.24853
G1 X119.265 Y89.801 E1.29043
G1 X119.434 Y89.885 E1.29985
G1 X120.108 Y90.238 E1.3378
G1 X120.386 Y90.393 E1.35368
G1 X121.073 Y90.799 E1.3935
G1 X121.263 Y90.918 E1.40468
G1 X121.895 Y91.332 E1.44238
G1 X122.032 Y91.426 E1.45066
G1 X122.702 Y91.912 E1.49196
G1 X122.958 Y92.109 E1.50807
G1 X123.586 Y92.615 E1.54831
G1 X123.722 Y92.732 E1.55726
G1 X124.329 Y93.272 E1.59779
G1 X124.501 Y93.434 E1.60958
G1 X125.092 Y94.015 E1.65093
G1 X125.207 Y94.133 E1.65915
G1 X125.79 Y94.763 E1.70197
G1 X125.929 Y94.924 E1.71258
G1 X126.441 Y95.536 E1.75239
G1 X126.58 Y95.711 E1.76354
G1 X127.064 Y96.352 E1.80361
G1 X127.208 Y96.554 E1.81599
G1 X127.696 Y97.271 E1.85926
G1 X127.782 Y97.407 E1.86729
G1 X128.168 Y98.035 E1.90407
G1 X128.295 Y98.254 E1.9167
G1 X128.661 Y98.92 E1.95461
G1 X128.818 Y99.224 E1.97168
G1 X129.155 Y99.918 E2.01017
G1 X129.254 Y100.139 E2.02225
G1 X129.563 Y100.868 E2.06175
G1 X129.658 Y101.105 E2.07449
G1 X129.934 Y101.854 E2.11432
G1 X129.997 Y102.038 E2.12402
G1 X130.223 Y102.751 E2.16133
G1 X130.306 Y103.043 E2.17648
G1 X130.522 Y103.875 E2.21936
G1 X130.57 Y104.086 E2.23016
G1 X130.729 Y104.846 E2.2689
G1 X130.765 Y105.045 E2.27899
G1 X130.893 Y105.854 E2.31985
G1 X130.927 Y106.114 E2.33293
G1 X131.007 Y106.846 E2.36967
G1 X131.03 Y107.124 E2.38359
G1 X131.076 Y107.912 E2.42297
G1 X131.087 Y108.248 E2.43974
G1 X131.1 Y109.255 E2.48998
G1 X131.1 Y128.064 E3.42837
G1 X131.09 Y128.791 E3.46464
G1 X131.042 Y129.325 E3.49139
G1 X130.916 Y129.846 E3.51813
G1 X130.714 Y130.343 E3.5449
G1 X130.44 Y130.804 E3.57165
G1 X130.101 Y131.219 E3.59839
G1 X129.704 Y131.58 E3.62516
G1 X129.258 Y131.877 E3.65189
G1 X128.772 Y132.105 E3.67867
G1 X128.258 Y132.258 E3.70543
G1 X127.591 Y132.34 E3.73895
G1 X127.17 Y132.35 E3.75996
G1 X123.655 Y132.35 E3.93533
G1 X122.958 Y132.34 E3.97011
G1 X122.573 Y132.313 E3.98936
G1 X122.317 Y132.282 E4.00223
G1 X119.553 Y131.967 E4.14101
G1 X116.835 Y131.736 E4.27711
G1 X114.141 Y131.583 E4.41173
G1 X111.376 Y131.505 E4.54973
G1 X108.682 Y131.505 E4.68413
G1 X105.913 Y131.583 E4.82233
G1 X103.227 Y131.735 E4.95655
G1 X100.507 Y131.966 E5.09274
G1 X97.4 Y132.317 E5.24874
G1 X97.108 Y132.338 E5.26334
G1 X96.67 Y132.35 E5.2852
G1 X93.161 Y132.35 E5.46027
G1 X92.463 Y132.341 E5.49509
G1 X91.928 Y132.294 E5.52189
G1 X91.407 Y132.168 E5.54863
G1 X90.91 Y131.966 E5.57539
G1 X90.449 Y131.693 E5.60212
G1 X90.033 Y131.354 E5.6289
G1 X89.672 Y130.958 E5.65563
G1 X89.374 Y130.512 E5.68239
G1 X89.146 Y130.026 E5.70917
G1 X88.993 Y129.512 E5.73593
G1 X88.91 Y128.838 E5.76981
G1 X88.9 Y128.408 E5.79127
G1 X88.9 Y109.256 E6.74677
G1 X88.911 Y108.371 E6.79092
G1 X88.942 Y107.544 E6.83221
G1 X88.952 Y107.374 E6.84071
G1 X89.024 Y106.533 E6.88282
G1 X89.06 Y106.222 E6.89844
G1 X89.166 Y105.455 E6.93707
G1 X89.209 Y105.195 E6.95021
G1 X89.362 Y104.392 E6.991
G1 X89.404 Y104.199 E7.00085
G1 X89.577 Y103.472 E7.03813
G1 X89.623 Y103.298 E7.04711
G1 X89.882 Y102.41 E7.09326
G1 X89.952 Y102.195 E7.10454
G1 X90.2 Y101.48 E7.1423
G1 X90.258 Y101.324 E7.1506
G1 X90.578 Y100.523 E7.19363
G1 X90.697 Y100.248 E7.20858
G1 X91.027 Y99.534 E7.24783
G1 X91.132 Y99.322 E7.25963
G1 X91.479 Y98.657 E7.29705
G1 X91.627 Y98.39 E7.31228
G1 X92.022 Y97.718 E7.35117
G1 X92.132 Y97.541 E7.36157
G1 X92.601 Y96.824 E7.40431
G1 X92.722 Y96.652 E7.4148
G1 X93.17 Y96.036 E7.4528
G1 X93.269 Y95.905 E7.461
G1 X93.828 Y95.208 E7.50557
G1 X94.007 Y94.998 E7.51934
G1 X94.515 Y94.429 E7.55739
G1 X94.68 Y94.253 E7.56943
G1 X95.293 Y93.631 E7.613
G0 F7500 X95.578 Y93.912
G1 F1500 X95.686 Y93.807 E7.62051
G1 X96.29 Y93.251 E7.66147
G1 X96.433 Y93.127 E7.67091
G1 X97.099 Y92.572 E7.71416
G1 X97.215 Y92.48 E7.72155
G1 X97.84 Y92.008 E7.76062
G1 X98.062 Y91.85 E7.77422
G1 X98.735 Y91.393 E7.8148
G1 X98.891 Y91.293 E7.82405
G1 X99.61 Y90.855 E7.86605
G1 X99.751 Y90.775 E7.87414
G1 X100.384 Y90.429 E7.91013
G1 X100.615 Y90.309 E7.92312
G1 X101.408 Y89.926 E7.96705
G1 X101.54 Y89.866 E7.97429
G1 X102.274 Y89.554 E8.01408
G1 X102.522 Y89.456 E8.02738
G1 X103.242 Y89.191 E8.06566
G1 X103.384 Y89.142 E8.07315
G1 X104.046 Y88.933 E8.10779
G1 X104.469 Y88.812 E8.12974
G1 X105.257 Y88.608 E8.17035
G1 X105.401 Y88.574 E8.17773
G1 X106.072 Y88.433 E8.21193
G1 X106.393 Y88.375 E8.22821
G1 X107.235 Y88.243 E8.27073
G1 X107.389 Y88.222 E8.27848
G1 X108.151 Y88.141 E8.31671
G1 X108.45 Y88.116 E8.33168
G1 X109.21 Y88.072 E8.36966
G1 X109.358 Y88.067 E8.37705
G1 X110.224 Y88.058 E8.42026
G1 X110.477 Y88.064 E8.43288
G1 X111.263 Y88.096 E8.47213
G1 X111.415 Y88.105 E8.47973
G1 X112.196 Y88.174 E8.51884
G1 X112.494 Y88.208 E8.53381
G1 X113.242 Y88.312 E8.57148
G1 X113.391 Y88.337 E8.57902
G1 X114.25 Y88.499 E8.62263
G1 X114.462 Y88.544 E8.63344
G1 X115.294 Y88.745 E8.67615
G1 X115.471 Y88.793 E8.6853
G1 X116.233 Y89.017 E8.72492
G1 X116.45 Y89.089 E8.73633
G1 X117.215 Y89.356 E8.77675
G1 X117.357 Y89.409 E8.78431
G1 X118.146 Y89.728 E8.82677
G1 X118.335 Y89.811 E8.83707
G1 X119.09 Y90.16 E8.87857
G1 X119.249 Y90.239 E8.88743
G1 X119.915 Y90.588 E8.92494
G1 X120.182 Y90.737 E8.94019
G1 X120.863 Y91.139 E8.97965
G1 X121.043 Y91.252 E8.99025
G1 X121.675 Y91.666 E9.02794
G1 X121.798 Y91.75 E9.03537
G1 X122.459 Y92.23 E9.07613
G1 X122.707 Y92.421 E9.09175
G1 X123.328 Y92.921 E9.13152
G1 X123.456 Y93.031 E9.13994
G1 X124.056 Y93.565 E9.18001
G1 X124.22 Y93.719 E9.19124
G1 X124.811 Y94.3 E9.23259
G1 X124.914 Y94.405 E9.23992
G1 X125.43 Y94.961 E9.27777
G1 X125.623 Y95.181 E9.29237
G1 X126.129 Y95.786 E9.33172
G1 X126.261 Y95.953 E9.34234
G1 X126.74 Y96.586 E9.38194
G1 X126.878 Y96.78 E9.39382
G1 X127.359 Y97.486 E9.43644
G1 X127.441 Y97.616 E9.44411
G1 X127.827 Y98.244 E9.48088
G1 X127.97 Y98.492 E9.49516
G1 X128.342 Y99.173 E9.53388
G1 X128.458 Y99.399 E9.54655
G1 X128.791 Y100.086 E9.58464
G1 X128.886 Y100.295 E9.59609
G1 X129.193 Y101.019 E9.63533
G1 X129.282 Y101.243 E9.64735
G1 X129.556 Y101.986 E9.68686
G1 X129.615 Y102.159 E9.69598
G1 X129.872 Y102.974 E9.73862
G1 X129.919 Y103.144 E9.74742
G1 X130.132 Y103.965 E9.78973
G1 X130.179 Y104.168 E9.80013
G1 X130.336 Y104.92 E9.83845
G1 X130.37 Y105.108 E9.84798
G1 X130.496 Y105.907 E9.88834
G1 X130.529 Y106.157 E9.90092
G1 X130.609 Y106.889 E9.93766
G1 X130.63 Y107.148 E9.95062
G1 X130.676 Y107.926 E9.9895
G1 X130.687 Y108.253 E10.00583
G1 X130.7 Y109.26 E10.05607
G1 X130.7 Y128.058 E10.99391
G1 X130.69 Y128.785 E11.03018
G1 X130.643 Y129.288 E11.05538
G1 X130.517 Y129.778 E11.08063
G1 X130.316 Y130.242 E11.10585
G1 X130.044 Y130.668 E11.13107
G1 X129.709 Y131.047 E11.15631
G1 X129.318 Y131.367 E11.18151
G1 X128.882 Y131.622 E11.20671
G1 X128.411 Y131.806 E11.23194
G1 X127.916 Y131.912 E11.2572
G1 X127.58 Y131.94 E11.27402
G1 X127.17 Y131.95 E11.29448
G1 X123.661 Y131.95 E11.46954
G1 X122.964 Y131.94 E11.50432
G1 X122.621 Y131.916 E11.52147
G1 X122.335 Y131.881 E11.53585
G1 X119.596 Y131.569 E11.67338
G1 X116.891 Y131.339 E11.80882
G1 X114.14 Y131.183 E11.94629
G1 X111.387 Y131.105 E12.08369
G1 X108.671 Y131.105 E12.21919
G1 X105.915 Y131.183 E12.35675
G1 X103.173 Y131.337 E12.49376
G1 X100.492 Y131.566 E12.628
G1 X97.355 Y131.92 E12.7855
G1 X97.096 Y131.939 E12.79846
G1 X96.768 Y131.949 E12.81483
G1 X93.166 Y131.95 E12.99454
G1 X92.468 Y131.941 E13.02936
G1 X91.964 Y131.894 E13.05462
G1 X91.474 Y131.769 E13.07984
G1 X91.01 Y131.568 E13.10507
G1 X90.584 Y131.297 E13.13026
G1 X90.205 Y130.962 E13.1555
G1 X89.884 Y130.571 E13.18074
G1 X89.629 Y130.135 E13.20594
G1 X89.445 Y129.664 E13.23116
G1 X89.338 Y129.17 E13.25638
G1 X89.31 Y128.827 E13.27355
G1 X89.3 Y128.408 E13.29446
G1 X89.3 Y109.261 E14.24971
G1 X89.313 Y108.294 E14.29796
G1 X89.341 Y107.559 E14.33465
G1 X89.351 Y107.408 E14.3422
G1 X89.433 Y106.465 E14.38943
G1 X89.456 Y106.277 E14.39887
G1 X89.561 Y105.519 E14.43705
G1 X89.603 Y105.269 E14.4497
G1 X89.753 Y104.474 E14.49006
G1 X89.793 Y104.291 E14.49941
G1 X89.966 Y103.564 E14.53669
G1 X90.007 Y103.41 E14.54464
G1 X90.264 Y102.531 E14.59033
G1 X90.33 Y102.326 E14.60108
G1 X90.578 Y101.611 E14.63883
G1 X90.629 Y101.473 E14.64617
G1 X90.985 Y100.585 E14.6939
G1 X91.06 Y100.415 E14.70317
G1 X91.349 Y99.787 E14.73766
G1 X91.487 Y99.507 E14.75324
G1 X91.876 Y98.764 E14.79508
G1 X91.972 Y98.592 E14.8049
G1 X92.363 Y97.927 E14.84339
G1 X92.467 Y97.759 E14.85325
G1 X92.883 Y97.121 E14.89125
G1 X93.045 Y96.887 E14.90545
G1 X93.493 Y96.271 E14.94345
G1 X93.581 Y96.155 E14.95071
G1 X94.133 Y95.466 E14.99476
G1 X94.306 Y95.264 E15.00802
G1 X94.808 Y94.7 E15.04569
G1 X94.965 Y94.534 E15.05709
G1 X95.578 Y93.912 E15.10066
G1 F2700 E8.60066
;MESH:FuellerAdapterVichy.stl
G0 F7500 X97.176 Y95.888
G0 X98.192 Y96.956
G0 X97.069 Y98.136
G0 X96.09 Y99.456
G0 X95.236 Y100.882
G0 X94.545 Y102.348
G0 X93.995 Y103.885
G0 X93.591 Y105.487
G0 X93.351 Y107.112
G0 X93.271 Y108.77
G0 X93.282 Y127.968
G0 X96.218 Y127.968
G0 X96.642 Y105.403
G0 X99.355 Y100.014
G0 X102.515 Y97.59
G0 X104.253 Y96.6
G0 X106.077 Y95.897
G0 X108.004 Y95.46
G0 X109.976 Y95.31
G0 X111.947 Y95.453
G0 X113.901 Y95.888
G0 X115.745 Y96.6
G0 X117.446 Y97.561
G0 X119.024 Y98.793
G0 X120.389 Y100.224
G0 X121.529 Y101.841
G0 X122.416 Y103.606
G0 X123.036 Y105.484
G0 X123.374 Y107.433
G0 X123.392 Y107.804
G0 X123.6 Y128.15
;TYPE:WALL-INNER
G1 F2700 E15.10066
G1 F1500 X123.6 Y108.742 E16.06893
G1 X123.584 Y108.082 E16.10187
G1 X123.534 Y107.417 E16.13514
G1 X123.453 Y106.754 E16.16846
G1 X123.338 Y106.097 E16.20174
G1 X123.192 Y105.445 E16.23507
G1 X123.014 Y104.802 E16.26836
G1 X122.805 Y104.168 E16.30166
G1 X122.565 Y103.545 E16.33497
G1 X122.295 Y102.936 E16.36821
G1 X121.994 Y102.34 E16.40152
G1 X121.666 Y101.758 E16.43485
G1 X121.308 Y101.195 E16.46813
G1 X120.925 Y100.649 E16.50141
G1 X120.513 Y100.122 E16.53478
G1 X120.076 Y99.616 E16.56814
G1 X119.599 Y99.117 E16.60258
G1 X119.132 Y98.673 E16.63472
G1 X118.609 Y98.223 E16.66915
G1 X118.082 Y97.811 E16.70252
G1 X117.535 Y97.428 E16.73583
G1 X116.97 Y97.071 E16.76918
G1 X116.389 Y96.744 E16.80244
G1 X115.813 Y96.455 E16.83459
G1 X115.181 Y96.177 E16.86904
G1 X114.56 Y95.938 E16.90223
G1 X113.948 Y95.735 E16.9344
G1 X113.28 Y95.553 E16.96894
G1 X112.63 Y95.407 E17.00218
G1 X111.971 Y95.294 E17.03554
G1 X111.308 Y95.214 E17.06886
G1 X110.668 Y95.166 E17.10087
G1 X109.975 Y95.15 E17.13546
G1 X109.307 Y95.168 E17.1688
G1 X108.642 Y95.219 E17.20207
G1 X107.98 Y95.301 E17.23535
G1 X107.323 Y95.417 E17.26864
G1 X106.671 Y95.564 E17.30198
G1 X106.029 Y95.743 E17.33523
G1 X105.395 Y95.953 E17.36855
G1 X104.773 Y96.194 E17.40183
G1 X104.184 Y96.456 E17.43399
G1 X103.568 Y96.768 E17.46844
G1 X103.008 Y97.085 E17.50055
G1 X102.425 Y97.457 E17.53505
G1 X101.879 Y97.84 E17.56832
G1 X101.353 Y98.253 E17.60169
G1 X100.849 Y98.69 E17.63497
G1 X100.384 Y99.134 E17.66704
G1 X99.924 Y99.617 E17.70032
G1 X99.487 Y100.122 E17.73364
G1 X99.075 Y100.649 E17.76701
G1 X98.692 Y101.195 E17.80029
G1 X98.334 Y101.758 E17.83357
G1 X98.006 Y102.34 E17.8669
G1 X97.705 Y102.936 E17.90021
G1 X97.435 Y103.545 E17.93345
G1 X97.195 Y104.168 E17.96676
G1 X96.986 Y104.802 E18.00006
G1 X96.808 Y105.445 E18.03335
G1 X96.662 Y106.097 E18.06668
G1 X96.547 Y106.754 E18.09996
G1 X96.466 Y107.417 E18.13328
G1 X96.416 Y108.082 E18.16655
G1 X96.4 Y108.742 E18.19949
G1 X96.4 Y128.15 E19.16776
G1 X93.1 Y128.15 E19.33239
G1 X93.1 Y108.765 E20.29952
G1 X93.121 Y107.906 E20.34238
G1 X93.182 Y107.089 E20.38326
G1 X93.285 Y106.255 E20.42518
G1 X93.425 Y105.448 E20.46605
G1 X93.603 Y104.658 E20.50645
G1 X93.829 Y103.84 E20.54879
G1 X94.09 Y103.052 E20.5902
G1 X94.385 Y102.287 E20.63111
G1 X94.725 Y101.52 E20.67296
G1 X95.088 Y100.797 E20.71332
G1 X95.497 Y100.074 E20.75477
G1 X95.951 Y99.357 E20.79711
G1 X96.429 Y98.678 E20.83853
G1 X96.933 Y98.032 E20.87941
G1 X97.468 Y97.412 E20.92027
G1 X98.047 Y96.804 E20.96215
G1 X98.686 Y96.197 E21.00612
G1 X99.292 Y95.676 E21.046
G1 X99.939 Y95.172 E21.08691
G1 X100.65 Y94.673 E21.13025
G1 X101.327 Y94.246 E21.17018
G1 X102.02 Y93.853 E21.20993
G1 X102.808 Y93.458 E21.2539
G1 X103.537 Y93.135 E21.29368
G1 X104.332 Y92.83 E21.33617
G1 X105.095 Y92.577 E21.37627
G1 X105.938 Y92.346 E21.41988
G1 X106.702 Y92.174 E21.45895
G1 X107.542 Y92.03 E21.50147
G1 X108.347 Y91.931 E21.54193
G1 X109.196 Y91.87 E21.5844
G1 X110 Y91.85 E21.62452
G1 X110.866 Y91.873 E21.66774
G1 X111.658 Y91.931 E21.70736
G1 X112.506 Y92.037 E21.75
G1 X113.3 Y92.175 E21.7902
G1 X114.137 Y92.364 E21.83301
G1 X114.895 Y92.574 E21.87225
G1 X115.728 Y92.851 E21.91605
G1 X116.473 Y93.139 E21.9559
G1 X117.248 Y93.484 E21.99822
G1 X117.961 Y93.843 E22.03805
G1 X118.715 Y94.272 E22.08133
G1 X119.426 Y94.724 E22.12336
G1 X120.063 Y95.172 E22.16221
G1 X120.748 Y95.709 E22.20564
G1 X121.338 Y96.218 E22.24451
G1 X121.946 Y96.797 E22.2864
G1 X122.532 Y97.412 E22.32878
G1 X123.067 Y98.032 E22.36964
G1 X123.565 Y98.67 E22.41002
G1 X124.049 Y99.357 E22.45194
G1 X124.498 Y100.066 E22.49381
G1 X124.907 Y100.788 E22.53521
G1 X125.275 Y101.52 E22.57608
G1 X125.615 Y102.287 E22.61794
G1 X125.907 Y103.043 E22.65837
G1 X126.174 Y103.849 E22.70073
G1 X126.391 Y104.63 E22.74117
G1 X126.573 Y105.438 E22.7825
G1 X126.715 Y106.255 E22.82387
G1 X126.819 Y107.088 E22.86575
G1 X126.879 Y107.906 E22.90667
G1 X126.9 Y108.75 E22.94879
G1 X126.9 Y128.15 E23.91666
G1 X123.6 Y128.15 E24.0813
G0 F7500 X123.2 Y128.55
;TYPE:WALL-OUTER
G1 F1500 X123.2 Y108.747 E25.06927
G1 X123.184 Y108.102 E25.10146
G1 X123.136 Y107.456 E25.13378
G1 X123.057 Y106.813 E25.1661
G1 X122.946 Y106.175 E25.19841
G1 X122.804 Y105.542 E25.23077
G1 X122.631 Y104.918 E25.26308
G1 X122.428 Y104.303 E25.29539
G1 X122.195 Y103.698 E25.32773
G1 X121.933 Y103.107 E25.35999
G1 X121.641 Y102.528 E25.39234
G1 X121.323 Y101.964 E25.42464
G1 X120.975 Y101.417 E25.45699
G1 X120.603 Y100.887 E25.48929
G1 X120.204 Y100.376 E25.52164
G1 X119.78 Y99.885 E25.554
G1 X119.316 Y99.4 E25.58749
G1 X118.864 Y98.97 E25.61861
G1 X118.355 Y98.532 E25.65211
G1 X117.844 Y98.133 E25.68446
G1 X117.313 Y97.761 E25.7168
G1 X116.765 Y97.415 E25.74914
G1 X116.201 Y97.097 E25.78144
G1 X115.643 Y96.817 E25.81259
G1 X115.029 Y96.547 E25.84605
G1 X114.425 Y96.315 E25.87833
G1 X113.832 Y96.118 E25.90951
G1 X113.184 Y95.941 E25.94302
G1 X112.552 Y95.8 E25.97532
G1 X111.913 Y95.69 E26.00767
G1 X111.269 Y95.612 E26.04004
G1 X110.648 Y95.566 E26.0711
