;FLAVOR:Marlin
;TIME:3263
;Filament used: 1.4812m
;Layer height: 0.1
;MINX:76.835
;MINY:75.904
;MINZ:0.36
;MAXX:143.164
;MAXY:144.415
;MAXZ:4.86
;Generated with Cura_SteamEngine 4.13.1
M140 S60
M105
M190 S60
M104 S195
M105
M109 S195
M82 ;absolute extrusion mode
G28 ;Home
G1 Z15.0 F2000 ;Move the platform
G92 E0
G92 E0
G1 F2700 E-6.5
;LAYER_COUNT:38
;LAYER:-9
M107
M204 S1000
G0 F9000 X87.052 Y86.309 Z0.36
;TYPE:SUPPORT-INTERFACE
G1 F2700 E0
G1 F1125 X87.568 Y85.794 E0.08729
G1 X88.213 Y85.181 E0.19384
G1 X88.751 Y84.693 E0.28081
G1 X89.394 Y84.14 E0.38235
G1 X89.95 Y83.686 E0.4683
G1 X90.602 Y83.177 E0.56734
G1 X91.207 Y82.729 E0.65748
G1 X91.896 Y82.248 E0.7581
G1 X91.948 Y82.211 E0.76574
G1 X92.515 Y81.834 E0.84726
G1 X93.203 Y81.401 E0.9446
G1 X93.851 Y81.012 E1.0351
G1 X94.544 Y80.619 E1.13049
G1 X95.259 Y80.239 E1.22744
G1 X96.015 Y79.86 E1.3287
G1 X96.669 Y79.553 E1.41521
G1 X97.336 Y79.257 E1.50258
G1 X98.1 Y78.94 E1.60162
G1 X98.919 Y78.626 E1.70665
G1 X99.586 Y78.39 E1.79136
G1 X100.363 Y78.133 E1.88935
G1 X101.076 Y77.918 E1.97852
G1 X101.923 Y77.686 E2.08368
G1 X102.593 Y77.519 E2.16635
G1 X103.322 Y77.355 E2.25582
G1 X103.775 Y77.263 E2.31117
G1 X104.171 Y77.187 E2.35945
G1 X105.017 Y77.042 E2.46223
G1 X105.729 Y76.938 E2.54838
G1 X106.518 Y76.841 E2.64357
G1 X107.193 Y76.777 E2.72475
G1 X108.169 Y76.705 E2.84193
G1 X108.843 Y76.674 E2.92272
G1 X109.682 Y76.654 E3.02321
G1 X110.401 Y76.656 E3.1093
G1 X111.268 Y76.678 E3.21314
G1 X112.003 Y76.716 E3.30127
G1 X112.812 Y76.776 E3.3984
G1 X113.522 Y76.846 E3.48382
G1 X114.389 Y76.955 E3.58845
G1 X115.115 Y77.063 E3.67634
G1 X115.945 Y77.208 E3.77722
G1 X116.593 Y77.337 E3.85634
G1 X117.162 Y77.465 E3.92617
G1 X117.528 Y77.548 E3.9711
G1 X118.223 Y77.723 E4.05692
G1 X118.931 Y77.92 E4.14491
G1 X119.659 Y78.14 E4.23597
G1 X120.528 Y78.428 E4.34559
G1 X121.231 Y78.682 E4.43509
G1 X121.987 Y78.975 E4.53217
G1 X122.659 Y79.254 E4.6193
G1 X123.457 Y79.611 E4.72397
G1 X124.11 Y79.92 E4.81047
G1 X124.836 Y80.286 E4.90782
G1 X125.47 Y80.627 E4.99402
G1 X126.245 Y81.068 E5.10079
G1 X126.896 Y81.461 E5.19184
G1 X127.618 Y81.921 E5.29434
G1 X128.158 Y82.282 E5.37212
G1 X128.843 Y82.766 E5.47254
G1 X129.466 Y83.229 E5.56548
G1 X130.128 Y83.749 E5.66628
G1 X130.663 Y84.188 E5.74914
G1 X131.31 Y84.748 E5.8516
G1 X131.886 Y85.272 E5.94484
G1 X132.441 Y85.802 E6.03673
G1 X132.948 Y86.309 E6.12258
G1 X133.557 Y86.949 E6.22836
G1 X134.071 Y87.518 E6.32017
G1 X134.534 Y88.054 E6.40498
G1 X135.015 Y88.638 E6.49557
G1 X135.546 Y89.317 E6.59878
G1 X136 Y89.928 E6.68992
G1 X136.511 Y90.656 E6.79642
G1 X136.906 Y91.248 E6.88164
G1 X137.355 Y91.958 E6.98222
G1 X137.711 Y92.553 E7.06524
G1 X138.143 Y93.317 E7.17033
G1 X138.492 Y93.971 E7.25909
G1 X138.857 Y94.696 E7.35628
G1 X139.167 Y95.351 E7.44305
G1 X139.516 Y96.136 E7.54591
G1 X139.79 Y96.798 E7.6317
G1 X140.07 Y97.522 E7.72465
G1 X140.338 Y98.268 E7.81956
G1 X140.605 Y99.074 E7.92123
G1 X140.818 Y99.779 E8.00941
G1 X141.047 Y100.607 E8.11227
G1 X141.222 Y101.302 E8.19809
G1 X141.41 Y102.14 E8.30092
G1 X141.56 Y102.899 E8.39356
G1 X141.694 Y103.673 E8.48761
G1 X141.802 Y104.398 E8.57538
G1 X141.906 Y105.241 E8.67708
G1 X141.977 Y105.963 E8.76395
G1 X142.039 Y106.81 E8.86564
G1 X142.075 Y107.534 E8.95243
G1 X142.096 Y108.387 E9.0546
G1 X142.1 Y108.75 E9.09807
G1 X142.1 Y128.736 E11.49112
G1 X142.064 Y129.742 E11.61165
G1 X142.054 Y129.877 E11.62786
G1 X141.952 Y130.794 E11.73834
G1 X141.927 Y130.969 E11.7595
G1 X141.765 Y131.847 E11.86641
G1 X141.735 Y131.981 E11.88285
G1 X141.504 Y132.866 E11.99236
G1 X141.452 Y133.038 E12.01388
G1 X141.176 Y133.85 E12.11657
G1 X141.096 Y134.059 E12.14336
G1 X140.761 Y134.849 E12.24611
G1 X140.68 Y135.024 E12.2692
G1 X140.265 Y135.832 E12.37796
G1 X140.198 Y135.949 E12.3941
G1 X139.724 Y136.728 E12.50329
G1 X139.624 Y136.879 E12.52497
G1 X139.113 Y137.593 E12.63011
G1 X139 Y137.741 E12.6524
G1 X138.424 Y138.432 E12.76012
G1 X138.323 Y138.545 E12.77826
G1 X137.698 Y139.194 E12.88615
G1 X137.573 Y139.314 E12.90689
G1 X136.907 Y139.912 E13.01407
G1 X136.786 Y140.013 E13.03294
G1 X136.074 Y140.563 E13.14067
G1 X135.915 Y140.676 E13.16402
G1 X135.177 Y141.166 E13.27009
G1 X135.051 Y141.242 E13.28771
G1 X134.257 Y141.688 E13.39675
G1 X134.106 Y141.766 E13.4171
G1 X133.292 Y142.149 E13.52482
G1 X133.149 Y142.209 E13.54339
G1 X132.29 Y142.538 E13.65353
G1 X132.14 Y142.59 E13.67253
G1 X131.29 Y142.845 E13.77879
G1 X131.117 Y142.892 E13.80026
G1 X130.222 Y143.092 E13.91006
G1 X130.092 Y143.115 E13.92587
G1 X129.187 Y143.249 E14.03541
G1 X129.019 Y143.267 E14.05565
G1 X128.129 Y143.333 E14.1625
G1 X127.945 Y143.342 E14.18456
G1 X127.44 Y143.35 E14.24504
G1 X122.997 Y143.349 E14.77703
G1 X121.996 Y143.313 E14.89696
G1 X121.873 Y143.304 E14.91173
G1 X120.956 Y143.202 E15.0222
G1 X120.781 Y143.177 E15.04337
G1 X119.892 Y143.013 E15.15161
G1 X119.769 Y142.985 E15.16671
G1 X118.875 Y142.751 E15.27736
G1 X118.712 Y142.702 E15.29774
G1 X117.87 Y142.416 E15.40422
G1 X117.704 Y142.352 E15.42552
G1 X116.901 Y142.011 E15.52998
G1 X116.712 Y141.923 E15.55494
G1 X115.918 Y141.515 E15.66183
G1 X115.801 Y141.448 E15.67798
G1 X115.022 Y140.974 E15.78716
G1 X114.871 Y140.874 E15.80885
G1 X114.157 Y140.363 E15.91398
G1 X114.009 Y140.25 E15.93627
G1 X113.448 Y139.783 E16.02367
G1 X112.907 Y139.387 E16.10395
G1 X112.309 Y139.057 E16.18573
G1 X111.675 Y138.806 E16.26738
G1 X111.014 Y138.635 E16.34913
G1 X110.336 Y138.551 E16.43093
G1 X109.653 Y138.551 E16.51271
G1 X108.976 Y138.639 E16.59445
G1 X108.314 Y138.81 E16.67632
G1 X107.682 Y139.065 E16.75792
G1 X107.082 Y139.398 E16.84009
G1 X106.833 Y139.587 E16.87752
G1 X106.82 Y139.568 E16.88027
G1 X106.286 Y140.013 E16.9635
G1 X105.574 Y140.563 E17.07123
G1 X105.415 Y140.676 E17.09459
G1 X104.677 Y141.166 E17.20065
G1 X104.551 Y141.242 E17.21827
G1 X103.757 Y141.688 E17.32732
G1 X103.606 Y141.766 E17.34767
G1 X102.792 Y142.149 E17.45538
G1 X102.649 Y142.209 E17.47395
G1 X101.79 Y142.538 E17.58409
G1 X101.64 Y142.59 E17.6031
G1 X100.79 Y142.845 E17.70936
G1 X100.617 Y142.892 E17.73082
G1 X99.722 Y143.092 E17.84063
G1 X99.592 Y143.115 E17.85644
G1 X98.687 Y143.249 E17.96598
G1 X98.519 Y143.267 E17.98621
G1 X97.629 Y143.333 E18.09307
G1 X97.445 Y143.342 E18.11513
G1 X96.94 Y143.35 E18.1756
G1 X92.497 Y143.349 E18.70759
G1 X91.496 Y143.313 E18.82752
G1 X91.373 Y143.304 E18.84229
G1 X90.456 Y143.202 E18.95277
G1 X90.281 Y143.177 E18.97393
G1 X89.392 Y143.013 E19.08217
G1 X89.269 Y142.985 E19.09728
G1 X88.375 Y142.751 E19.20793
G1 X88.212 Y142.702 E19.22831
G1 X87.37 Y142.416 E19.33478
G1 X87.204 Y142.352 E19.35609
G1 X86.401 Y142.011 E19.46054
G1 X86.212 Y141.923 E19.48551
G1 X85.418 Y141.515 E19.5924
G1 X85.301 Y141.448 E19.60854
G1 X84.522 Y140.974 E19.71772
G1 X84.371 Y140.874 E19.73941
G1 X83.657 Y140.363 E19.84454
G1 X83.509 Y140.25 E19.86684
G1 X82.818 Y139.674 E19.97455
G1 X82.705 Y139.573 E19.9927
G1 X82.056 Y138.948 E20.10058
G1 X81.936 Y138.823 E20.12133
G1 X81.333 Y138.152 E20.22935
G1 X81.236 Y138.034 E20.24764
G1 X80.678 Y137.312 E20.3569
G1 X80.574 Y137.165 E20.37846
G1 X80.081 Y136.422 E20.48522
G1 X80.008 Y136.301 E20.50214
G1 X79.556 Y135.496 E20.61269
G1 X79.484 Y135.357 E20.63143
G1 X79.087 Y134.511 E20.74333
G1 X79.041 Y134.399 E20.75782
G1 X78.712 Y133.54 E20.86796
G1 X78.655 Y133.375 E20.88887
G1 X78.405 Y132.54 E20.99323
G1 X78.358 Y132.367 E21.0147
G1 X78.157 Y131.466 E21.12523
G1 X78.135 Y131.342 E21.14031
G1 X78 Y130.428 E21.25094
G1 X77.983 Y130.268 E21.2702
G1 X77.917 Y129.376 E21.3773
G1 X77.908 Y129.195 E21.399
G1 X77.9 Y128.694 E21.45899
G1 X77.9 Y108.754 E23.84654
G1 X77.904 Y108.393 E23.88977
G1 X77.925 Y107.544 E23.99145
G1 X77.961 Y106.81 E24.07945
G1 X78.022 Y105.973 E24.17993
G1 X78.093 Y105.251 E24.2668
G1 X78.197 Y104.408 E24.3685
G1 X78.306 Y103.673 E24.45747
G1 X78.461 Y102.786 E24.56529
G1 X78.592 Y102.133 E24.64503
G1 X78.776 Y101.311 E24.74589
G1 X78.953 Y100.606 E24.83292
G1 X79.179 Y99.788 E24.93454
G1 X79.392 Y99.084 E25.02261
G1 X79.659 Y98.277 E25.12439
G1 X79.928 Y97.528 E25.21968
G1 X80.21 Y96.798 E25.31338
G1 X80.485 Y96.136 E25.39921
G1 X80.829 Y95.36 E25.50085
G1 X81.143 Y94.696 E25.58879
G1 X81.543 Y93.904 E25.69503
G1 X81.895 Y93.248 E25.78417
G1 X82.284 Y92.561 E25.87871
G1 X82.666 Y91.924 E25.96764
G1 X83.124 Y91.203 E26.06992
G1 X83.538 Y90.584 E26.15908
G1 X84 Y89.928 E26.25515
G1 X84.451 Y89.321 E26.3457
G1 X84.982 Y88.642 E26.44891
G1 X85.463 Y88.058 E26.5395
G1 X85.925 Y87.523 E26.62414
G1 X86.078 Y87.351 E26.6517
G1 X86.482 Y86.906 E26.72367
G1 X87.052 Y86.309 E26.8225
G0 F9000 X86.4 Y86.996
G1 F1125 X86.4 Y142.01 E33.40968
G0 F9000 X88 Y142.629
G1 F1125 X88 Y85.383 E40.26412
G0 F9000 X89.6 Y83.971
G1 F1125 X89.6 Y143.051 E47.33815
G0 F9000 X91.2 Y143.284
G1 F1125 X91.2 Y82.734 E54.58819
G0 F9000 X92.8 Y81.654
G1 F1125 X92.8 Y143.349 E61.97534
G0 F9000 X94.4 Y143.349
G1 F1125 X94.4 Y80.7 E69.47671
G0 F9000 X96 Y79.867
G1 F1125 X96 Y143.349 E77.07782
G0 F9000 X97.6 Y143.335
G1 F1125 X97.6 Y79.147 E84.76346
G0 F9000 X99.2 Y78.526
G1 F1125 X99.2 Y143.174 E92.50419
G0 F9000 X100.8 Y142.842
G1 F1125 X100.8 Y78.001 E100.26802
G0 F9000 X102.4 Y77.567
G1 F1125 X102.4 Y142.305 E108.01952
G0 F9000 X104 Y141.552
G1 F1125 X104 Y77.219 E115.72253
G0 F9000 X105.6 Y76.956
G1 F1125 X105.6 Y140.543 E123.33621
G0 F9000 X107.2 Y139.333
G1 F1125 X107.2 Y76.776 E130.82657
G0 F9000 X108.8 Y76.675
G1 F1125 X108.8 Y138.685 E138.25143
G0 F9000 X110.4 Y138.558
G1 F1125 X110.4 Y76.656 E145.66336
G0 F9000 X112 Y76.716
G1 F1125 X112 Y138.934 E153.11312
G0 F9000 X113.6 Y139.909
G1 F1125 X113.6 Y76.856 E160.66287
G0 F9000 X115.2 Y77.078
G1 F1125 X115.2 Y141.082 E168.32648
G0 F9000 X116.8 Y141.963
G1 F1125 X116.8 Y77.384 E176.05894
G0 F9000 X118.4 Y77.773
G1 F1125 X118.4 Y142.596 E183.82062
G0 F9000 X120 Y143.032
G1 F1125 X120 Y78.254 E191.57691
G0 F9000 X121.6 Y78.826
G1 F1125 X121.6 Y143.273 E199.29357
G0 F9000 X123.2 Y143.349
G1 F1125 X123.2 Y79.497 E206.93898
G0 F9000 X124.8 Y80.268
G1 F1125 X124.8 Y143.349 E214.49208
G0 F9000 X126.4 Y143.349
G1 F1125 X126.4 Y81.162 E221.93813
G0 F9000 X128 Y82.177
G1 F1125 X128 Y143.34 E229.26158
G0 F9000 X129.6 Y143.188
G1 F1125 X129.6 Y83.335 E236.42816
G0 F9000 X131.2 Y84.653
G1 F1125 X131.2 Y142.87 E243.39886
G0 F9000 X132.8 Y142.343
G1 F1125 X132.8 Y86.161 E250.1259
G0 F9000 X134.4 Y87.899
G1 F1125 X134.4 Y141.608 E256.55682
G0 F9000 X136 Y140.616
G1 F1125 X136 Y89.928 E262.62603
G0 F9000 X137.6 Y92.368
G1 F1125 X137.6 Y139.289 E268.24418
G0 F9000 X139.2 Y137.472
G1 F1125 X139.2 Y95.426 E273.27862
G1 F2700 E266.77862
G0 F9000 X140.491 Y95.713
G0 X140.654 Y96.119
G0 X141.622 Y98.757
G0 X140.8 Y99.72
G1 F2700 E273.27862
G1 F1125 X140.8 Y134.758 E277.47395
G1 F2700 E270.97395
G0 F9000 X141.632 Y135.499
G0 X140.626 Y137.293
G0 X139.838 Y138.398
G0 X138.445 Y139.953
G0 X137.446 Y140.849
G0 X135.74 Y142.069
G0 X134.586 Y142.716
G0 X132.659 Y143.537
G0 X131.378 Y143.923
G0 X129.32 Y144.305
G0 X127.447 Y144.415
G0 X91.443 Y144.376
G0 X90.117 Y144.229
G0 X88.09 Y143.777
G0 X86.8 Y143.337
G0 X86.268 Y143.088
G0 X84.757 Y142.363
G0 X84.8 Y141.143
G1 F2700 E277.47395
G1 F1125 X84.8 Y88.874 E283.73246
G0 F9000 X83.2 Y91.089
G1 F1125 X83.2 Y139.992 E289.58793
G0 F9000 X81.6 Y138.449
G1 F1125 X81.6 Y93.797 E294.9344
G0 F9000 X80 Y97.341
G1 F1125 X80 Y136.286 E299.59754
G0 F9000 X78.4 Y132.521
G1 F1125 X78.4 Y103.135 E303.11612
G1 F2700 E296.61612
G0 F300 X78.4 Y103.135 Z0.51
G0 F9000 X77.254 Y103.509
G0 X76.962 Y105.877
G0 X76.835 Y108.747
G0 X76.854 Y129.437
G0 X77.083 Y131.508
G0 X77.379 Y132.823
G0 X78.05 Y134.788
G0 X78.622 Y136.007
G0 X79.687 Y137.753
G0 X80.574 Y137.163
;TIME_ELAPSED:146.955031
;LAYER:-8
;TYPE:SUPPORT
G1 F2700 E303.11612
G1 F1125 X80.678 Y137.311 E303.12514
G1 X81.235 Y138.033 E303.17064
G1 X81.332 Y138.151 E303.17826
G1 X81.935 Y138.822 E303.22326
G1 X82.056 Y138.947 E303.23194
G1 X82.705 Y139.572 E303.2769
G1 X82.817 Y139.673 E303.28442
G1 X83.509 Y140.248 E303.32931
G1 X83.657 Y140.362 E303.33863
G1 X84.137 Y140.706 E303.36809
G1 X80.531 Y137.1 E303.62251
G1 X80.08 Y136.421 E303.66318
G1 X80.007 Y136.3 E303.67023
G1 X79.555 Y135.495 E303.71629
G1 X79.483 Y135.356 E303.7241
G1 X79.087 Y134.51 E303.7707
G1 X79.04 Y134.398 E303.77676
G1 X78.913 Y134.068 E303.7944
G1 X87.191 Y142.345 E304.37842
G1 X87.203 Y142.351 E304.37909
G1 X87.37 Y142.415 E304.38802
G1 X88.211 Y142.701 E304.43233
G1 X88.374 Y142.75 E304.44083
G1 X89.234 Y142.974 E304.48516
G1 X78.28 Y132.02 E305.25803
G1 X78.156 Y131.465 E305.2864
G1 X78.134 Y131.341 E305.29268
G1 X77.999 Y130.427 E305.33878
G1 X77.986 Y130.312 E305.34455
G1 X90.927 Y143.253 E306.25761
G1 X91.373 Y143.302 E306.27999
G1 X91.496 Y143.312 E306.28615
G1 X92.433 Y143.345 E306.33292
G1 X77.901 Y128.813 E307.35824
G1 X77.9 Y128.693 E307.36422
G1 X77.899 Y127.397 E307.42888
G1 X93.85 Y143.348 E308.55431
G1 X95.264 Y143.348 E308.62485
G1 X77.899 Y125.983 E309.85005
G1 X77.899 Y124.568 E309.92064
G1 X96.679 Y143.348 E311.24567
G1 X96.94 Y143.348 E311.25869
G1 X97.444 Y143.341 E311.28384
G1 X97.628 Y143.331 E311.29304
G1 X98.046 Y143.3 E311.31395
G1 X77.899 Y123.154 E312.73539
G1 X77.899 Y121.74 E312.80594
G1 X99.314 Y143.155 E314.31688
G1 X99.591 Y143.114 E314.33085
G1 X99.721 Y143.091 E314.33744
G1 X100.491 Y142.918 E314.37681
G1 X77.899 Y120.326 E315.9708
G1 X77.899 Y118.912 E316.04134
G1 X101.591 Y142.603 E317.71291
G1 X101.639 Y142.589 E317.7154
G1 X101.789 Y142.537 E317.72332
G1 X102.62 Y142.218 E317.76773
G1 X77.899 Y117.497 E319.51193
G1 X77.899 Y116.083 E319.58247
G1 X103.589 Y141.772 E321.39501
G1 X103.605 Y141.765 E321.39588
G1 X103.756 Y141.687 E321.40436
G1 X104.499 Y141.269 E321.44689
G1 X77.899 Y114.669 E323.32366
G1 X77.899 Y113.255 E323.39421
G1 X105.357 Y140.712 E325.33148
G1 X105.414 Y140.675 E325.33487
G1 X105.574 Y140.562 E325.34464
G1 X106.164 Y140.105 E325.38188
G1 X77.899 Y111.84 E327.37613
G1 X77.899 Y110.426 E327.44667
G1 X106.961 Y139.488 E329.49715
G1 X107.082 Y139.396 E329.50474
G1 X107.681 Y139.064 E329.5389
G1 X107.874 Y138.986 E329.54929
G1 X77.899 Y109.012 E331.66415
G1 X77.899 Y108.753 E331.67707
G1 X77.904 Y108.391 E331.69513
G1 X77.923 Y107.621 E331.73356
G1 X108.946 Y138.645 E333.92244
G1 X108.976 Y138.638 E333.92397
G1 X109.653 Y138.549 E333.95804
G1 X110.265 Y138.549 E333.98857
G1 X77.998 Y106.283 E336.26515
G1 X78.022 Y105.972 E336.28071
G1 X78.092 Y105.25 E336.3169
G1 X78.123 Y104.994 E336.32977
G1 X112.105 Y138.975 E338.72734
G1 X112.309 Y139.056 E338.73829
G1 X112.906 Y139.386 E338.77233
G1 X113.448 Y139.782 E338.80582
G1 X114.008 Y140.249 E338.84219
G1 X114.156 Y140.362 E338.85148
G1 X114.871 Y140.873 E338.89533
G1 X115.022 Y140.973 E338.90436
G1 X115.8 Y141.447 E338.94982
G1 X115.918 Y141.513 E338.95656
G1 X116.205 Y141.661 E338.97267
G1 X78.293 Y103.749 E341.64757
G1 X78.305 Y103.672 E341.65146
G1 X78.46 Y102.785 E341.69638
G1 X78.507 Y102.548 E341.70843
G1 X118.632 Y142.673 E344.53947
G1 X118.711 Y142.701 E344.54365
G1 X118.875 Y142.75 E344.55219
G1 X119.769 Y142.984 E344.59829
G1 X119.891 Y143.012 E344.60454
G1 X120.495 Y143.123 E344.63518
G1 X78.758 Y101.385 E347.57998
G1 X78.775 Y101.31 E347.58382
G1 X78.953 Y100.605 E347.6201
G1 X79.047 Y100.26 E347.63794
G1 X122.102 Y143.315 E350.6757
G1 X122.996 Y143.348 E350.72033
G1 X123.549 Y143.348 E350.74792
G1 X79.366 Y99.165 E353.86527
G1 X79.391 Y99.083 E353.86955
G1 X79.659 Y98.275 E353.91202
G1 X79.719 Y98.104 E353.92106
G1 X124.964 Y143.348 E357.1133
G1 X126.378 Y143.348 E357.18385
G1 X80.102 Y97.073 E360.44883
G1 X80.209 Y96.797 E360.4636
G1 X80.485 Y96.134 E360.49943
G1 X80.513 Y96.069 E360.50296
G1 X127.786 Y143.343 E363.83836
G1 X127.944 Y143.341 E363.84625
G1 X128.129 Y143.331 E363.85549
G1 X129.019 Y143.266 E363.90001
G1 X129.113 Y143.255 E363.90473
G1 X80.953 Y95.095 E367.30268
G1 X81.142 Y94.695 E367.32475
G1 X81.419 Y94.147 E367.35538
G1 X130.337 Y143.065 E370.80681
G1 X131.116 Y142.891 E370.84664
G1 X131.289 Y142.844 E370.85558
G1 X131.474 Y142.788 E370.86522
G1 X81.908 Y93.222 E374.36237
G1 X82.284 Y92.56 E374.40035
G1 X82.425 Y92.324 E374.41407
