;FLAVOR:Marlin
;TIME:2920
;Filament used: 0.938453m
;Layer height: 0.1
;MINX:88.9
;MINY:87.658
;MINZ:0.3
;MAXX:131.1
;MAXY:132.35
;MAXZ:5
;Generated with Cura_SteamEngine 4.13.1
M140 S60
M105
M190 S60
M104 S195
M105
M109 S195
M82 ;absolute extrusion mode
G28 ;Home
G1 Z15.0 F2000 ;Move the platform
G92 E0
G92 E0
G1 F2700 E-6.5
;LAYER_COUNT:48
;LAYER:0
M107
M204 S1000
G0 F7500 X95.285 Y93.637 Z0.3
;TYPE:SKIRT
G1 F2700 E0
G1 F1500 X95.419 Y93.51 E0.00921
G1 X95.946 Y93.022 E0.04504
G1 X96.173 Y92.823 E0.0601
G1 X96.833 Y92.272 E0.103
G1 X97.033 Y92.115 E0.11568
G1 X97.615 Y91.678 E0.15199
G1 X97.828 Y91.525 E0.16508
G1 X98.482 Y91.08 E0.20454
G1 X98.628 Y90.986 E0.21321
G1 X99.37 Y90.532 E0.2566
G1 X99.568 Y90.419 E0.26798
G1 X100.293 Y90.025 E0.30914
G1 X100.508 Y89.915 E0.32119
G1 X101.149 Y89.604 E0.35674
G1 X101.303 Y89.534 E0.36518
G1 X102.1 Y89.193 E0.40843
G1 X102.37 Y89.086 E0.42292
G1 X103.104 Y88.816 E0.46193
G1 X103.268 Y88.76 E0.47058
G1 X104.116 Y88.495 E0.51491
G1 X104.324 Y88.436 E0.52569
G1 X105.074 Y88.241 E0.56435
G1 X105.366 Y88.174 E0.5793
G1 X106.164 Y88.01 E0.61994
G1 X106.329 Y87.98 E0.62831
G1 X107.147 Y87.852 E0.66962
G1 X107.399 Y87.819 E0.6823
G1 X108.202 Y87.735 E0.72258
G1 X108.363 Y87.721 E0.73064
G1 X109.118 Y87.676 E0.76837
G1 X109.447 Y87.665 E0.7848
G1 X110.102 Y87.658 E0.81748
G1 X110.509 Y87.665 E0.83779
G1 X111.335 Y87.7 E0.87903
G1 X111.517 Y87.712 E0.88813
G1 X112.355 Y87.788 E0.93011
G1 X112.53 Y87.81 E0.93891
G1 X113.315 Y87.919 E0.97845
G1 X113.587 Y87.965 E0.99221
G1 X114.297 Y88.099 E1.02826
G1 X114.466 Y88.136 E1.03689
G1 X115.324 Y88.341 E1.0809
G1 X115.497 Y88.387 E1.08983
G1 X116.414 Y88.656 E1.13751
G1 X116.577 Y88.71 E1.14608
G1 X117.367 Y88.986 E1.18783
G1 X117.528 Y89.047 E1.19642
G1 X118.353 Y89.381 E1.24082
G1 X118.498 Y89.445 E1.24873
G1 X119.196 Y89.767 E1.28708
G1 X119.459 Y89.897 E1.30172
G1 X120.128 Y90.248 E1.33941
G1 X120.35 Y90.371 E1.35207
G1 X121.104 Y90.817 E1.39577
G1 X121.243 Y90.904 E1.40396
G1 X121.88 Y91.321 E1.44194
G1 X122.02 Y91.418 E1.45044
G1 X122.718 Y91.925 E1.49348
G1 X122.966 Y92.115 E1.50906
G1 X123.57 Y92.602 E1.54777
G1 X123.7 Y92.712 E1.55627
G1 X124.319 Y93.263 E1.59761
G1 X124.505 Y93.438 E1.61035
G1 X125.092 Y94.015 E1.65142
G1 X125.207 Y94.133 E1.65964
G1 X125.79 Y94.763 E1.70246
G1 X125.929 Y94.923 E1.71304
G1 X126.449 Y95.545 E1.75348
G1 X126.58 Y95.711 E1.76403
G1 X127.064 Y96.352 E1.80411
G1 X127.208 Y96.554 E1.81648
G1 X127.696 Y97.271 E1.85975
G1 X127.782 Y97.407 E1.86778
G1 X128.168 Y98.035 E1.90456
G1 X128.295 Y98.254 E1.91719
G1 X128.661 Y98.92 E1.9551
G1 X128.818 Y99.224 E1.97217
G1 X129.155 Y99.918 E2.01066
G1 X129.254 Y100.139 E2.02274
G1 X129.563 Y100.868 E2.06224
G1 X129.658 Y101.105 E2.07498
G1 X129.934 Y101.854 E2.11481
G1 X129.997 Y102.038 E2.12451
G1 X130.223 Y102.751 E2.16183
G1 X130.306 Y103.043 E2.17697
G1 X130.522 Y103.875 E2.21986
G1 X130.57 Y104.086 E2.23065
G1 X130.729 Y104.846 E2.26939
G1 X130.765 Y105.045 E2.27948
G1 X130.893 Y105.854 E2.32034
G1 X130.927 Y106.114 E2.33342
G1 X131.007 Y106.846 E2.37016
G1 X131.03 Y107.124 E2.38408
G1 X131.076 Y107.912 E2.42346
G1 X131.087 Y108.248 E2.44023
G1 X131.1 Y109.255 E2.49047
G1 X131.1 Y128.064 E3.42886
G1 X131.09 Y128.791 E3.46513
G1 X131.042 Y129.325 E3.49188
G1 X130.916 Y129.846 E3.51862
G1 X130.714 Y130.343 E3.54539
G1 X130.44 Y130.804 E3.57214
G1 X130.101 Y131.219 E3.59888
G1 X129.704 Y131.58 E3.62565
G1 X129.258 Y131.877 E3.65238
G1 X128.772 Y132.105 E3.67916
G1 X128.258 Y132.258 E3.70592
G1 X127.591 Y132.34 E3.73945
G1 X127.17 Y132.35 E3.76046
G1 X123.155 Y132.35 E3.96077
G1 X122.458 Y132.34 E3.99554
G1 X122.173 Y132.324 E4.00978
G1 X121.869 Y132.295 E4.02502
G1 X119.54 Y132.03 E4.14196
G1 X116.828 Y131.8 E4.27775
G1 X114.132 Y131.647 E4.41247
G1 X111.367 Y131.569 E4.55047
G1 X108.672 Y131.569 E4.68493
G1 X105.907 Y131.647 E4.82293
G1 X103.214 Y131.8 E4.9575
G1 X100.502 Y132.031 E5.09329
G1 X99.027 Y132.189 E5.1673
G1 X97.899 Y132.318 E5.22394
G1 X97.591 Y132.34 E5.23935
G1 X97.272 Y132.349 E5.25527
G1 X93.161 Y132.35 E5.46037
G1 X92.463 Y132.341 E5.49519
G1 X91.928 Y132.294 E5.52199
G1 X91.407 Y132.168 E5.54873
G1 X90.91 Y131.966 E5.5755
G1 X90.449 Y131.693 E5.60223
G1 X90.033 Y131.354 E5.629
G1 X89.672 Y130.958 E5.65573
G1 X89.374 Y130.512 E5.68249
G1 X89.146 Y130.026 E5.70928
G1 X88.993 Y129.512 E5.73603
G1 X88.91 Y128.838 E5.76991
G1 X88.9 Y128.408 E5.79137
G1 X88.9 Y109.256 E6.74687
G1 X88.911 Y108.371 E6.79102
G1 X88.942 Y107.544 E6.83231
G1 X88.952 Y107.374 E6.84081
G1 X89.024 Y106.533 E6.88292
G1 X89.06 Y106.222 E6.89854
G1 X89.166 Y105.455 E6.93717
G1 X89.209 Y105.195 E6.95031
G1 X89.362 Y104.392 E6.9911
G1 X89.404 Y104.199 E7.00095
G1 X89.577 Y103.472 E7.03823
G1 X89.623 Y103.298 E7.04721
G1 X89.882 Y102.41 E7.09336
G1 X89.952 Y102.195 E7.10464
G1 X90.2 Y101.48 E7.1424
G1 X90.258 Y101.324 E7.1507
G1 X90.578 Y100.523 E7.19374
G1 X90.697 Y100.248 E7.20868
G1 X91.027 Y99.534 E7.24793
G1 X91.132 Y99.322 E7.25973
G1 X91.479 Y98.657 E7.29715
G1 X91.627 Y98.39 E7.31238
G1 X92.022 Y97.718 E7.35127
G1 X92.132 Y97.541 E7.36167
G1 X92.601 Y96.824 E7.40441
G1 X92.722 Y96.652 E7.4149
G1 X93.17 Y96.036 E7.4529
G1 X93.269 Y95.905 E7.4611
G1 X93.763 Y95.287 E7.50057
G1 X93.992 Y95.015 E7.51831
G1 X94.518 Y94.425 E7.55774
G1 X94.706 Y94.225 E7.57144
G1 X95.285 Y93.637 E7.61261
G0 F7500 X95.563 Y93.925
G1 F1500 X95.691 Y93.803 E7.62143
G1 X96.218 Y93.315 E7.65726
G1 X96.43 Y93.13 E7.6713
G1 X97.083 Y92.584 E7.71377
G1 X97.273 Y92.434 E7.72584
G1 X97.85 Y92.001 E7.76183
G1 X98.053 Y91.855 E7.77431
G1 X98.707 Y91.41 E7.81377
G1 X98.836 Y91.327 E7.82143
G1 X99.57 Y90.879 E7.86433
G1 X99.76 Y90.771 E7.87523
G1 X100.478 Y90.38 E7.91602
G1 X100.682 Y90.275 E7.92747
G1 X101.323 Y89.964 E7.96301
G1 X101.46 Y89.901 E7.97053
G1 X102.249 Y89.564 E8.01334
G1 X102.508 Y89.462 E8.02723
G1 X103.242 Y89.192 E8.06624
G1 X103.388 Y89.142 E8.07394
G1 X104.229 Y88.879 E8.1179
G1 X104.425 Y88.823 E8.12807
G1 X105.166 Y88.63 E8.16628
G1 X105.447 Y88.566 E8.18065
G1 X106.245 Y88.402 E8.2213
G1 X106.391 Y88.375 E8.22871
G1 X107.203 Y88.248 E8.26971
G1 X107.441 Y88.216 E8.28169
G1 X108.244 Y88.132 E8.32197
G1 X108.387 Y88.121 E8.32913
G1 X109.227 Y88.072 E8.37111
G1 X109.451 Y88.065 E8.38229
G1 X110.106 Y88.058 E8.41497
G1 X110.492 Y88.065 E8.43423
G1 X111.311 Y88.099 E8.47512
G1 X111.481 Y88.111 E8.48362
G1 X112.308 Y88.186 E8.52505
G1 X112.476 Y88.206 E8.53349
G1 X113.249 Y88.314 E8.57243
G1 X113.512 Y88.359 E8.58575
G1 X114.222 Y88.493 E8.62179
G1 X114.373 Y88.525 E8.62949
G1 X115.231 Y88.73 E8.6735
G1 X115.385 Y88.77 E8.68144
G1 X116.196 Y89.007 E8.7236
G1 X116.445 Y89.088 E8.73666
G1 X117.235 Y89.364 E8.77841
G1 X117.378 Y89.418 E8.78603
G1 X118.194 Y89.748 E8.82995
G1 X118.33 Y89.808 E8.83736
G1 X119.108 Y90.168 E8.88013
G1 X119.274 Y90.251 E8.88939
G1 X119.936 Y90.599 E8.9267
G1 X120.146 Y90.716 E8.9387
G1 X120.9 Y91.162 E8.9824
G1 X121.024 Y91.239 E8.98969
G1 X121.661 Y91.656 E9.02767
G1 X121.785 Y91.741 E9.03517
G1 X122.409 Y92.193 E9.07361
G1 X122.715 Y92.427 E9.09283
G1 X123.319 Y92.914 E9.13154
G1 X123.434 Y93.012 E9.13908
G1 X124.047 Y93.556 E9.17996
G1 X124.224 Y93.723 E9.1921
G1 X124.811 Y94.3 E9.23317
G1 X124.914 Y94.405 E9.24051
G1 X125.43 Y94.961 E9.27835
G1 X125.622 Y95.18 E9.29288
G1 X126.136 Y95.794 E9.33283
G1 X126.261 Y95.953 E9.34292
G1 X126.74 Y96.586 E9.38253
G1 X126.878 Y96.78 E9.3944
G1 X127.359 Y97.486 E9.43702
G1 X127.441 Y97.616 E9.44469
G1 X127.827 Y98.244 E9.48147
G1 X127.97 Y98.492 E9.49575
G1 X128.342 Y99.173 E9.53446
G1 X128.458 Y99.399 E9.54714
G1 X128.791 Y100.086 E9.58523
G1 X128.886 Y100.295 E9.59668
G1 X129.193 Y101.019 E9.63591
G1 X129.282 Y101.243 E9.64794
G1 X129.556 Y101.986 E9.68745
G1 X129.615 Y102.159 E9.69657
G1 X129.872 Y102.974 E9.7392
G1 X129.919 Y103.144 E9.748
G1 X130.132 Y103.965 E9.79032
G1 X130.179 Y104.168 E9.80071
G1 X130.336 Y104.92 E9.83904
G1 X130.37 Y105.108 E9.84857
G1 X130.496 Y105.907 E9.88892
G1 X130.529 Y106.157 E9.90151
G1 X130.609 Y106.889 E9.93824
G1 X130.63 Y107.148 E9.95121
G1 X130.676 Y107.926 E9.99009
G1 X130.687 Y108.253 E10.00641
G1 X130.7 Y109.26 E10.05666
G1 X130.7 Y128.058 E10.99449
G1 X130.69 Y128.785 E11.03076
G1 X130.643 Y129.288 E11.05597
G1 X130.517 Y129.778 E11.08121
G1 X130.316 Y130.242 E11.10644
G1 X130.044 Y130.668 E11.13165
G1 X129.709 Y131.047 E11.15689
G1 X129.318 Y131.367 E11.1821
G1 X128.882 Y131.622 E11.2073
G1 X128.411 Y131.806 E11.23252
G1 X127.916 Y131.912 E11.25778
G1 X127.58 Y131.94 E11.2746
G1 X127.17 Y131.95 E11.29506
G1 X123.161 Y131.95 E11.49507
G1 X122.464 Y131.94 E11.52985
G1 X122.21 Y131.926 E11.54254
G1 X121.914 Y131.897 E11.55738
G1 X119.617 Y131.636 E11.67271
G1 X116.849 Y131.401 E11.81131
G1 X114.131 Y131.247 E11.94713
G1 X111.378 Y131.169 E12.08453
G1 X108.661 Y131.169 E12.22008
G1 X105.908 Y131.247 E12.35748
G1 X103.158 Y131.403 E12.4949
G1 X100.476 Y131.631 E12.62919
G1 X98.972 Y131.792 E12.70465
G1 X97.854 Y131.92 E12.7608
G1 X97.579 Y131.94 E12.77455
G1 X97.17 Y131.95 E12.79496
G1 X93.166 Y131.95 E12.99472
G1 X92.468 Y131.941 E13.02955
G1 X91.964 Y131.894 E13.0548
G1 X91.474 Y131.769 E13.08003
G1 X91.01 Y131.568 E13.10526
G1 X90.584 Y131.297 E13.13045
G1 X90.205 Y130.962 E13.15569
G1 X89.884 Y130.571 E13.18092
G1 X89.629 Y130.135 E13.20612
G1 X89.445 Y129.664 E13.23135
G1 X89.338 Y129.17 E13.25657
G1 X89.31 Y128.827 E13.27374
G1 X89.3 Y128.408 E13.29465
G1 X89.3 Y109.261 E14.2499
G1 X89.313 Y108.294 E14.29814
G1 X89.341 Y107.559 E14.33484
G1 X89.351 Y107.408 E14.34239
G1 X89.433 Y106.465 E14.38961
G1 X89.456 Y106.277 E14.39906
G1 X89.561 Y105.519 E14.43724
G1 X89.603 Y105.269 E14.44989
G1 X89.753 Y104.474 E14.49025
G1 X89.793 Y104.291 E14.4996
G1 X89.966 Y103.564 E14.53688
G1 X90.007 Y103.41 E14.54483
G1 X90.264 Y102.531 E14.59052
G1 X90.33 Y102.326 E14.60126
G1 X90.578 Y101.611 E14.63902
G1 X90.629 Y101.473 E14.64636
G1 X90.985 Y100.585 E14.69409
G1 X91.06 Y100.415 E14.70336
G1 X91.349 Y99.787 E14.73785
G1 X91.487 Y99.507 E14.75342
G1 X91.876 Y98.764 E14.79526
G1 X91.972 Y98.592 E14.80509
G1 X92.363 Y97.927 E14.84358
G1 X92.467 Y97.759 E14.85344
G1 X92.883 Y97.121 E14.89143
G1 X93.045 Y96.887 E14.90563
G1 X93.493 Y96.271 E14.94363
G1 X93.581 Y96.155 E14.9509
G1 X94.075 Y95.537 E14.99037
G1 X94.292 Y95.281 E15.00711
G1 X94.811 Y94.698 E15.04605
G1 X94.992 Y94.505 E15.05926
G1 X95.563 Y93.925 E15.09986
G1 F2700 E8.59986
;MESH:FuellerAdapterVichy.stl
G0 F7500 X97.187 Y95.875
G0 X98.203 Y96.945
G0 X97.069 Y98.136
G0 X96.09 Y99.456
G0 X95.236 Y100.882
G0 X94.545 Y102.348
G0 X93.995 Y103.885
G0 X93.591 Y105.487
G0 X93.351 Y107.112
G0 X93.271 Y108.77
G0 X93.282 Y127.968
G0 X96.718 Y127.968
G0 X97.127 Y105.525
G0 X99.741 Y100.331
G0 X102.796 Y98.002
G0 X104.451 Y97.06
G0 X106.227 Y96.374
G0 X108.083 Y95.953
G0 X109.982 Y95.81
G0 X111.879 Y95.948
G0 X113.738 Y96.361
G0 X115.514 Y97.045
G0 X117.174 Y97.982
G0 X118.674 Y99.151
G0 X120.003 Y100.541
G0 X121.1 Y102.098
G0 X121.955 Y103.798
G0 X122.551 Y105.606
G0 X122.877 Y107.482
G0 X122.894 Y107.84
G0 X123.1 Y128.15
;TYPE:WALL-INNER
G1 F2700 E15.09986
G1 F1500 X123.1 Y108.743 E16.06808
G1 X123.085 Y108.107 E16.09982
G1 X123.037 Y107.466 E16.13189
G1 X122.959 Y106.828 E16.16396
G1 X122.848 Y106.194 E16.19607
G1 X122.707 Y105.567 E16.22813
G1 X122.536 Y104.947 E16.26022
G1 X122.334 Y104.338 E16.29223
G1 X122.104 Y103.736 E16.32438
G1 X121.842 Y103.148 E16.35649
G1 X121.553 Y102.576 E16.38847
G1 X121.237 Y102.015 E16.42059
G1 X120.892 Y101.472 E16.45269
G1 X120.523 Y100.947 E16.4847
G1 X120.127 Y100.439 E16.51684
G1 X119.706 Y99.953 E16.54891
G1 X119.25 Y99.474 E16.58191
G1 X118.782 Y99.031 E16.61406
G1 X118.296 Y98.611 E16.64611
G1 X117.788 Y98.217 E16.67818
G1 X117.263 Y97.848 E16.71019
G1 X116.718 Y97.504 E16.74235
G1 X116.158 Y97.188 E16.77443
G1 X115.583 Y96.9 E16.80651
G1 X114.996 Y96.64 E16.83854
G1 X114.395 Y96.41 E16.87065
G1 X113.785 Y96.208 E16.9027
G1 X113.163 Y96.039 E16.93486
G1 X112.538 Y95.899 E16.96681
G1 X111.903 Y95.789 E16.99897
G1 X111.265 Y95.712 E17.03103
G1 X110.624 Y95.665 E17.06309
G1 X109.982 Y95.65 E17.09513
G1 X109.339 Y95.666 E17.12722
G1 X108.697 Y95.715 E17.15934
G1 X108.059 Y95.794 E17.19142
G1 X107.425 Y95.906 E17.22354
G1 X106.798 Y96.048 E17.25561
G1 X106.179 Y96.22 E17.28766
G1 X105.57 Y96.422 E17.31967
G1 X104.969 Y96.653 E17.3518
G1 X104.382 Y96.916 E17.38389
G1 X103.808 Y97.207 E17.41599
G1 X103.25 Y97.524 E17.44801
G1 X102.706 Y97.869 E17.48015
G1 X102.182 Y98.239 E17.51215
G1 X101.675 Y98.635 E17.54425
G1 X101.19 Y99.056 E17.57629
G1 X100.737 Y99.487 E17.60748
G1 X100.294 Y99.953 E17.63956
G1 X99.873 Y100.439 E17.67164
G1 X99.477 Y100.947 E17.70377
G1 X99.108 Y101.472 E17.73579
G1 X98.763 Y102.015 E17.76789
G1 X98.447 Y102.576 E17.80001
G1 X98.158 Y103.148 E17.83198
G1 X97.896 Y103.736 E17.8641
G1 X97.666 Y104.338 E17.89625
G1 X97.464 Y104.947 E17.92826
G1 X97.293 Y105.567 E17.96035
G1 X97.152 Y106.194 E17.99241
G1 X97.041 Y106.828 E18.02452
G1 X96.963 Y107.466 E18.05659
G1 X96.915 Y108.107 E18.08866
G1 X96.9 Y108.743 E18.12039
G1 X96.9 Y128.15 E19.08861
G1 X93.1 Y128.15 E19.2782
G1 X93.1 Y108.765 E20.24532
G1 X93.121 Y107.906 E20.28819
G1 X93.182 Y107.089 E20.32906
G1 X93.285 Y106.255 E20.37099
G1 X93.425 Y105.448 E20.41185
G1 X93.603 Y104.658 E20.45225
G1 X93.829 Y103.84 E20.49459
G1 X94.09 Y103.052 E20.536
G1 X94.385 Y102.287 E20.57691
G1 X94.725 Y101.52 E20.61876
G1 X95.088 Y100.797 E20.65913
G1 X95.497 Y100.074 E20.70057
G1 X95.951 Y99.357 E20.74291
G1 X96.429 Y98.678 E20.78434
G1 X96.933 Y98.032 E20.82521
G1 X97.481 Y97.397 E20.86706
G1 X98.058 Y96.793 E20.90873
G1 X98.681 Y96.201 E20.95161
G1 X99.287 Y95.68 E20.99148
G1 X99.957 Y95.159 E21.03382
G1 X100.629 Y94.687 E21.07479
G1 X101.324 Y94.247 E21.11583
G1 X102.052 Y93.836 E21.15754
G1 X102.793 Y93.465 E21.19888
G1 X103.537 Y93.135 E21.23949
G1 X104.325 Y92.832 E21.28161
G1 X105.115 Y92.572 E21.3231
G1 X105.907 Y92.353 E21.3641
G1 X106.718 Y92.172 E21.40555
G1 X107.536 Y92.031 E21.44697
G1 X108.372 Y91.928 E21.48899
G1 X109.164 Y91.871 E21.5286
G1 X110.025 Y91.85 E21.57157
G1 X110.859 Y91.873 E21.6132
G1 X111.683 Y91.934 E21.65442
G1 X112.5 Y92.036 E21.6955
G1 X113.321 Y92.179 E21.73707
G1 X114.134 Y92.364 E21.77867
G1 X114.924 Y92.584 E21.81958
G1 X115.724 Y92.85 E21.86164
G1 X116.479 Y93.142 E21.90203
G1 X117.253 Y93.486 E21.94429
G1 X117.983 Y93.855 E21.9851
G1 X118.71 Y94.269 E22.02683
G1 X119.413 Y94.716 E22.0684
G1 X120.073 Y95.18 E22.10865
G1 X120.729 Y95.693 E22.15019
G1 X121.338 Y96.218 E22.19031
G1 X121.946 Y96.797 E22.2322
G1 X122.532 Y97.412 E22.27458
G1 X123.067 Y98.032 E22.31543
G1 X123.565 Y98.67 E22.35581
G1 X124.049 Y99.357 E22.39774
G1 X124.498 Y100.066 E22.43961
G1 X124.907 Y100.788 E22.481
G1 X125.275 Y101.52 E22.52188
G1 X125.615 Y102.287 E22.56374
G1 X125.907 Y103.043 E22.60417
G1 X126.174 Y103.849 E22.64653
G1 X126.391 Y104.63 E22.68697
G1 X126.573 Y105.438 E22.72829
G1 X126.715 Y106.255 E22.76966
G1 X126.819 Y107.088 E22.81154
G1 X126.879 Y107.906 E22.85246
G1 X126.9 Y108.75 E22.89458
G1 X126.9 Y128.15 E23.86245
G1 X123.1 Y128.15 E24.05204
G0 F7500 X122.7 Y128.55
;TYPE:WALL-OUTER
G1 F1500 X122.7 Y108.748 E25.03996
G1 X122.685 Y108.127 E25.07095
G1 X122.639 Y107.505 E25.10207
G1 X122.563 Y106.887 E25.13313
G1 X122.456 Y106.272 E25.16428
G1 X122.319 Y105.664 E25.19537
G1 X122.153 Y105.063 E25.22648
G1 X121.957 Y104.472 E25.25754
G1 X121.734 Y103.889 E25.28868
G1 X121.481 Y103.32 E25.31975
G1 X121.2 Y102.764 E25.35083
G1 X120.894 Y102.221 E25.38193
G1 X120.559 Y101.694 E25.41308
G1 X120.201 Y101.185 E25.44413
G1 X119.818 Y100.693 E25.47523
G1 X119.41 Y100.222 E25.50632
G1 X118.967 Y99.757 E25.53836
G1 X118.514 Y99.328 E25.56949
G1 X118.043 Y98.921 E25.60055
G1 X117.55 Y98.539 E25.63166
G1 X117.041 Y98.181 E25.66271
G1 X116.513 Y97.847 E25.69388
G1 X115.97 Y97.541 E25.72497
G1 X115.412 Y97.262 E25.7561
G1 X114.843 Y97.01 E25.78715
G1 X114.261 Y96.787 E25.81824
G1 X113.669 Y96.591 E25.84935
G1 X113.067 Y96.427 E25.88048
G1 X112.46 Y96.291 E25.91151
G1 X111.845 Y96.185 E25.94265
