;FLAVOR:Marlin
;TIME:23934
;Filament used: 23.9399m
;Layer height: 0.15
;MINX:46.8
;MINY:76.8
;MINZ:0.3
;MAXX:173.2
;MAXY:143.2
;MAXZ:25.05
;Generated with Cura_SteamEngine 4.13.1
M140 S60
M105
M190 S60
M104 S195
M105
M109 S195
M82 ;absolute extrusion mode
G28 ;Home
G1 Z15.0 F2000 ;Move the platform
G92 E0
G92 E0
G1 F2700 E-6.5
;LAYER_COUNT:166
;LAYER:0
M107
M204 S1000
G0 F7500 X48.18 Y77.383 Z0.3
;TYPE:SKIRT
G1 F2700 E0
G1 F1500 X48.617 Y77.128 E0.02524
G1 X49.088 Y76.944 E0.05047
G1 X49.582 Y76.838 E0.07568
G1 X49.919 Y76.81 E0.09255
G1 X50.33 Y76.8 E0.11306
G1 X169.339 Y76.8 E6.05044
G1 X170.037 Y76.81 E6.08527
G1 X170.54 Y76.857 E6.11047
G1 X171.03 Y76.983 E6.13571
G1 X171.494 Y77.185 E6.16096
G1 X171.92 Y77.457 E6.18618
G1 X172.298 Y77.792 E6.21138
G1 X172.618 Y78.183 E6.23658
G1 X172.873 Y78.62 E6.26183
G1 X173.056 Y79.091 E6.28704
G1 X173.163 Y79.585 E6.31225
G1 X173.19 Y79.92 E6.32902
G1 X173.2 Y80.33 E6.34948
G1 X173.2 Y99.318 E7.2968
G1 X173.19 Y100.038 E7.33272
G1 X173.143 Y100.542 E7.35797
G1 X173.017 Y101.032 E7.38322
G1 X172.816 Y101.495 E7.4084
G1 X172.544 Y101.922 E7.43366
G1 X172.209 Y102.3 E7.45886
G1 X171.784 Y102.644 E7.48613
G1 X170.836 Y103.286 E7.54325
G1 X168.541 Y104.887 E7.68286
G1 X166.367 Y106.496 E7.8178
G1 X164.195 Y108.203 E7.95562
G1 X162.092 Y109.951 E8.09205
G1 X160.037 Y111.762 E8.2287
G1 X158.024 Y113.638 E8.36598
G1 X156.088 Y115.548 E8.50166
G1 X154.205 Y117.515 E8.63752
G1 X152.347 Y119.568 E8.77566
G1 X150.585 Y121.631 E8.91101
G1 X148.863 Y123.765 E9.04782
G1 X147.19 Y125.963 E9.18563
G1 X145.614 Y128.159 E9.32048
G1 X144.071 Y130.444 E9.45804
G1 X142.606 Y132.751 E9.59438
G1 X141.204 Y135.104 E9.73103
G1 X139.866 Y137.499 E9.8679
G1 X138.608 Y139.911 E10.00362
G1 X138.388 Y140.364 E10.02874
G1 X137.851 Y141.43 E10.08829
G1 X137.588 Y141.862 E10.11352
G1 X137.261 Y142.247 E10.13873
G1 X136.877 Y142.576 E10.16395
G1 X136.447 Y142.841 E10.18915
G1 X135.979 Y143.034 E10.21441
G1 X135.488 Y143.152 E10.2396
G1 X135.092 Y143.188 E10.25944
G1 X134.67 Y143.2 E10.2805
G1 X85.661 Y143.2 E12.72557
G1 X84.962 Y143.19 E12.76045
G1 X84.459 Y143.143 E12.78565
G1 X83.969 Y143.017 E12.81089
G1 X83.505 Y142.815 E12.83614
G1 X83.079 Y142.543 E12.86136
G1 X82.701 Y142.208 E12.88656
G1 X82.381 Y141.817 E12.91176
G1 X82.135 Y141.399 E12.93596
G1 X81.98 Y141.083 E12.95352
G1 X80.754 Y138.657 E13.08913
G1 X79.433 Y136.214 E13.22769
G1 X78.062 Y133.842 E13.36438
G1 X76.633 Y131.524 E13.50023
G1 X75.127 Y129.229 E13.63718
G1 X73.563 Y126.988 E13.77352
G1 X71.939 Y124.79 E13.90986
G1 X70.258 Y122.652 E14.04555
G1 X68.477 Y120.508 E14.18461
G1 X66.7 Y118.493 E14.31864
G1 X64.822 Y116.478 E14.45606
G1 X62.886 Y114.514 E14.59365
G1 X60.909 Y112.621 E14.73021
G1 X58.91 Y110.812 E14.86471
G1 X56.795 Y109.005 E15.0035
G1 X54.691 Y107.305 E15.13845
G1 X52.493 Y105.632 E15.27626
G1 X50.268 Y104.036 E15.41287
G1 X48.435 Y102.797 E15.52325
G1 X48.176 Y102.616 E15.53901
G1 X47.786 Y102.295 E15.56421
G1 X47.451 Y101.916 E15.58945
G1 X47.18 Y101.489 E15.61468
G1 X46.98 Y101.025 E15.63989
G1 X46.855 Y100.535 E15.66512
G1 X46.81 Y100.082 E15.68783
G1 X46.8 Y99.67 E15.70839
G1 X46.8 Y80.631 E16.65825
G1 X46.809 Y79.966 E16.69143
G1 X46.856 Y79.462 E16.71668
G1 X46.982 Y78.973 E16.74188
G1 X47.183 Y78.509 E16.7671
G1 X47.454 Y78.082 E16.79233
G1 X47.789 Y77.704 E16.81753
G1 X48.18 Y77.383 E16.84277
G1 F2700 E10.34277
;MESH:Halterung.stl
G0 F7500 X49.347 Y100.653
G0 X75.814 Y100.65
G0 X99.428 Y120.533
G0 X97.973 Y120.592
G0 X98.995 Y123.937
G0 X99.691 Y125.509
G0 X100.61 Y126.963
G0 X101.737 Y128.267
G0 X103.039 Y129.392
G0 X104.494 Y130.31
G0 X106.066 Y131.006
G0 X107.407 Y131.377
G0 X110.003 Y131.85
;TYPE:WALL-INNER
G1 F2700 E16.84277
G1 F1500 X110.585 Y131.836 E16.87182
G1 X111.165 Y131.793 E16.90083
G1 X111.742 Y131.722 E16.92984
G1 X112.315 Y131.622 E16.95886
G1 X112.883 Y131.494 E16.9879
G1 X113.443 Y131.339 E17.01689
G1 X113.995 Y131.156 E17.04591
G1 X114.537 Y130.948 E17.07487
G1 X115.07 Y130.712 E17.10395
G1 X115.589 Y130.45 E17.13296
G1 X116.096 Y130.161 E17.16207
G1 X116.585 Y129.851 E17.19096
G1 X117.061 Y129.517 E17.21997
G1 X117.52 Y129.158 E17.24904
G1 X117.96 Y128.778 E17.27804
G1 X118.379 Y128.379 E17.30691
G1 X118.78 Y127.958 E17.33592
G1 X119.16 Y127.518 E17.36492
G1 X119.519 Y127.059 E17.39399
G1 X119.853 Y126.583 E17.42301
G1 X120.164 Y126.093 E17.45196
G1 X120.451 Y125.586 E17.48103
G1 X120.713 Y125.067 E17.51003
G1 X120.949 Y124.534 E17.53911
G1 X121.157 Y123.992 E17.56808
G1 X121.34 Y123.44 E17.59709
G1 X121.495 Y122.879 E17.62613
G1 X121.622 Y122.312 E17.65511
G1 X121.722 Y121.739 E17.68413
G1 X121.793 Y121.162 E17.71314
G1 X121.836 Y120.582 E17.74215
G1 X121.85 Y120 E17.7712
G1 X121.836 Y119.418 E17.80024
G1 X121.793 Y118.838 E17.82926
G1 X121.722 Y118.261 E17.85826
G1 X121.622 Y117.688 E17.88728
G1 X121.495 Y117.121 E17.91627
G1 X121.34 Y116.56 E17.94531
G1 X121.157 Y116.008 E17.97432
G1 X120.949 Y115.466 E18.00328
G1 X120.713 Y114.933 E18.03236
G1 X120.451 Y114.414 E18.06137
G1 X120.164 Y113.907 E18.09044
G1 X119.853 Y113.417 E18.11939
G1 X119.519 Y112.941 E18.1484
G1 X119.16 Y112.482 E18.17747
G1 X118.78 Y112.042 E18.20648
G1 X118.377 Y111.619 E18.23563
G1 X117.956 Y111.218 E18.26463
G1 X117.516 Y110.838 E18.29364
G1 X117.057 Y110.48 E18.32268
G1 X116.58 Y110.144 E18.35179
G1 X116.089 Y109.835 E18.38073
G1 X115.583 Y109.548 E18.40975
G1 X115.064 Y109.286 E18.43876
G1 X114.531 Y109.05 E18.46784
G1 X113.989 Y108.842 E18.4968
G1 X113.437 Y108.659 E18.52582
G1 X112.875 Y108.505 E18.55489
G1 X112.309 Y108.378 E18.58383
G1 X111.736 Y108.278 E18.61285
G1 X111.159 Y108.207 E18.64185
G1 X110.579 Y108.164 E18.67087
G1 X109.997 Y108.15 E18.69991
G1 X109.415 Y108.164 E18.72896
G1 X108.835 Y108.207 E18.75797
G1 X108.258 Y108.278 E18.78698
G1 X107.685 Y108.378 E18.816
G1 X107.117 Y108.506 E18.84504
G1 X106.557 Y108.661 E18.87403
G1 X106.005 Y108.844 E18.90305
G1 X105.463 Y109.052 E18.93201
G1 X104.93 Y109.288 E18.96109
G1 X104.411 Y109.55 E18.9901
G1 X103.904 Y109.839 E19.01921
G1 X103.415 Y110.149 E19.0481
G1 X102.939 Y110.483 E19.07711
G1 X102.48 Y110.842 E19.10618
G1 X102.04 Y111.222 E19.13518
G1 X101.621 Y111.621 E19.16405
G1 X101.22 Y112.042 E19.19306
G1 X100.84 Y112.482 E19.22206
G1 X100.481 Y112.941 E19.25113
G1 X100.147 Y113.417 E19.28014
G1 X99.836 Y113.907 E19.3091
G1 X99.549 Y114.414 E19.33817
G1 X99.287 Y114.933 E19.36717
G1 X99.051 Y115.466 E19.39625
G1 X98.843 Y116.008 E19.42522
G1 X98.66 Y116.56 E19.45423
G1 X98.505 Y117.121 E19.48327
G1 X98.378 Y117.688 E19.51225
G1 X98.278 Y118.261 E19.54127
G1 X98.207 Y118.838 E19.57028
G1 X98.164 Y119.418 E19.59929
G1 X98.15 Y120 E19.62834
G1 X98.164 Y120.582 E19.65738
G1 X98.207 Y121.162 E19.6864
G1 X98.278 Y121.739 E19.7154
G1 X98.378 Y122.312 E19.74442
G1 X98.505 Y122.879 E19.77341
G1 X98.66 Y123.44 E19.80245
G1 X98.843 Y123.992 E19.83146
G1 X99.051 Y124.534 E19.86042
G1 X99.287 Y125.067 E19.8895
G1 X99.549 Y125.586 E19.91851
G1 X99.836 Y126.093 E19.94758
G1 X100.147 Y126.583 E19.97653
G1 X100.481 Y127.059 E20.00554
G1 X100.84 Y127.518 E20.03461
G1 X101.22 Y127.958 E20.06362
G1 X101.623 Y128.381 E20.09277
G1 X102.044 Y128.782 E20.12177
G1 X102.484 Y129.162 E20.15078
G1 X102.943 Y129.52 E20.17982
G1 X103.42 Y129.856 E20.20893
G1 X103.911 Y130.165 E20.23787
G1 X104.417 Y130.452 E20.26689
G1 X104.936 Y130.714 E20.2959
G1 X105.469 Y130.95 E20.32498
G1 X106.011 Y131.158 E20.35394
G1 X106.563 Y131.341 E20.38296
G1 X107.125 Y131.495 E20.41203
G1 X107.691 Y131.622 E20.44097
G1 X108.264 Y131.722 E20.46999
G1 X108.841 Y131.793 E20.49899
G1 X109.421 Y131.836 E20.52801
G1 X110.003 Y131.85 E20.55705
G0 F7500 X110.003 Y131.45
;TYPE:WALL-OUTER
G1 F1500 X110.565 Y131.436 E20.5851
G1 X111.126 Y131.395 E20.61316
G1 X111.683 Y131.326 E20.64116
G1 X112.237 Y131.23 E20.66921
G1 X112.785 Y131.106 E20.69725
G1 X113.327 Y130.956 E20.7253
G1 X113.86 Y130.779 E20.75332
G1 X114.384 Y130.578 E20.78132
G1 X114.899 Y130.35 E20.80942
G1 X115.4 Y130.097 E20.83742
G1 X115.89 Y129.818 E20.86555
G1 X116.363 Y129.518 E20.8935
G1 X116.823 Y129.195 E20.92154
G1 X117.266 Y128.849 E20.94958
G1 X117.691 Y128.482 E20.9776
G1 X118.096 Y128.096 E21.00551
G1 X118.484 Y127.689 E21.03356
G1 X118.851 Y127.264 E21.06158
G1 X119.197 Y126.821 E21.08962
G1 X119.52 Y126.361 E21.11766
G1 X119.821 Y125.887 E21.14568
G1 X120.098 Y125.397 E21.17376
G1 X120.351 Y124.896 E21.20176
G1 X120.579 Y124.381 E21.22986
G1 X120.78 Y123.857 E21.25786
G1 X120.957 Y123.324 E21.28588
G1 X121.107 Y122.782 E21.31394
G1 X121.23 Y122.234 E21.34196
G1 X121.326 Y121.68 E21.37001
G1 X121.395 Y121.123 E21.39801
G1 X121.436 Y120.562 E21.42607
G1 X121.45 Y120 E21.45412
G1 X121.436 Y119.438 E21.48217
G1 X121.395 Y118.877 E21.51023
G1 X121.326 Y118.32 E21.53823
G1 X121.23 Y117.766 E21.56628
G1 X121.107 Y117.218 E21.5943
G1 X120.957 Y116.676 E21.62236
G1 X120.78 Y116.143 E21.65038
G1 X120.579 Y115.619 E21.67838
G1 X120.351 Y115.104 E21.70648
G1 X120.098 Y114.603 E21.73448
G1 X119.821 Y114.113 E21.76256
G1 X119.52 Y113.639 E21.79057
G1 X119.197 Y113.179 E21.81861
G1 X118.851 Y112.736 E21.84666
G1 X118.484 Y112.311 E21.87467
G1 X118.094 Y111.902 E21.90287
G1 X117.687 Y111.514 E21.93092
G1 X117.262 Y111.147 E21.95894
G1 X116.819 Y110.801 E21.98698
G1 X116.358 Y110.477 E22.01509
G1 X115.884 Y110.178 E22.04305
G1 X115.394 Y109.901 E22.07113
G1 X114.893 Y109.648 E22.09913
G1 X114.378 Y109.42 E22.12723
G1 X113.854 Y109.219 E22.15523
G1 X113.321 Y109.042 E22.18325
G1 X112.778 Y108.893 E22.21134
G1 X112.231 Y108.77 E22.23931
G1 X111.677 Y108.674 E22.26737
G1 X111.12 Y108.605 E22.29537
G1 X110.559 Y108.564 E22.32343
G1 X109.997 Y108.55 E22.35148
G1 X109.435 Y108.564 E22.37952
G1 X108.874 Y108.605 E22.40759
G1 X108.317 Y108.674 E22.43559
G1 X107.763 Y108.77 E22.46364
G1 X107.215 Y108.894 E22.49167
G1 X106.673 Y109.044 E22.51973
G1 X106.14 Y109.221 E22.54775
G1 X105.616 Y109.422 E22.57575
G1 X105.101 Y109.65 E22.60385
G1 X104.6 Y109.903 E22.63185
G1 X104.11 Y110.182 E22.65998
G1 X103.637 Y110.482 E22.68792
G1 X103.177 Y110.805 E22.71596
G1 X102.734 Y111.151 E22.74401
G1 X102.309 Y111.518 E22.77202
G1 X101.904 Y111.904 E22.79994
G1 X101.516 Y112.311 E22.82799
G1 X101.149 Y112.736 E22.856
G1 X100.803 Y113.179 E22.88405
G1 X100.48 Y113.639 E22.91209
G1 X100.179 Y114.113 E22.9401
G1 X99.902 Y114.603 E22.96818
G1 X99.649 Y115.104 E22.99619
G1 X99.421 Y115.619 E23.02428
G1 X99.22 Y116.143 E23.05228
G1 X99.043 Y116.676 E23.0803
G1 X98.893 Y117.218 E23.10836
G1 X98.77 Y117.766 E23.13638
G1 X98.674 Y118.32 E23.16443
G1 X98.605 Y118.877 E23.19243
G1 X98.564 Y119.438 E23.2205
G1 X98.55 Y120 E23.24854
G1 X98.564 Y120.562 E23.27659
G1 X98.605 Y121.123 E23.30465
G1 X98.674 Y121.68 E23.33265
G1 X98.77 Y122.234 E23.36071
G1 X98.893 Y122.782 E23.38873
G1 X99.043 Y123.324 E23.41678
G1 X99.22 Y123.857 E23.4448
G1 X99.421 Y124.381 E23.4728
G1 X99.649 Y124.896 E23.5009
G1 X99.902 Y125.397 E23.5289
G1 X100.179 Y125.887 E23.55698
G1 X100.48 Y126.361 E23.585
G1 X100.803 Y126.821 E23.61304
G1 X101.149 Y127.264 E23.64108
G1 X101.516 Y127.689 E23.6691
G1 X101.906 Y128.098 E23.69729
G1 X102.313 Y128.486 E23.72535
G1 X102.738 Y128.853 E23.75336
G1 X103.181 Y129.199 E23.7814
G1 X103.642 Y129.523 E23.80952
G1 X104.116 Y129.822 E23.83748
G1 X104.606 Y130.099 E23.86556
G1 X105.107 Y130.352 E23.89356
G1 X105.622 Y130.58 E23.92166
G1 X106.146 Y130.781 E23.94966
G1 X106.679 Y130.958 E23.97768
G1 X107.222 Y131.107 E24.00577
G1 X107.769 Y131.23 E24.03374
G1 X108.323 Y131.326 E24.06179
G1 X108.88 Y131.395 E24.08979
G1 X109.441 Y131.436 E24.11786
G1 X110.003 Y131.45 E24.1459
G0 F7500 X110.203 Y131.446
G0 X110.212 Y131.886
G1 F2700 E17.6459
G0 F7500 X111.771 Y131.911
G0 X111.551 Y130.472
G0 X111.771 Y140.665
G0 X111.771 Y139.19
G0 X134.4 Y139.4
;TYPE:WALL-INNER
G1 F2700 E24.1459
G1 F1500 X85.6 Y139.4 E26.58054
G1 X85.6 Y99.4 E28.57615
G1 X50.6 Y99.4 E30.32231
G1 X50.6 Y80.6 E31.26025
G1 X169.4 Y80.6 E37.1872
G1 X169.4 Y99.4 E38.12514
G1 X134.4 Y99.4 E39.87129
G1 X134.4 Y139.4 E41.8669
G0 F7500 X134.8 Y139.8
;TYPE:WALL-OUTER
G1 F1500 X85.2 Y139.8 E44.34146
G1 X85.2 Y99.8 E46.33706
G1 X50.2 Y99.8 E48.08322
G1 X50.2 Y80.2 E49.06107
G1 X169.8 Y80.2 E55.02794
G1 X169.8 Y99.8 E56.00579
G1 X134.8 Y99.8 E57.75194
G1 X134.8 Y139.8 E59.74755
G0 F7500 X134.6 Y139.8
G0 X134.36 Y139.36
G0 X134.01 Y139.01
;TYPE:SKIN
G1 F1500 X85.99 Y139.01 E62.14328
G1 X85.99 Y99.01 E64.13889
G1 X50.99 Y99.01 E65.88504
G1 X50.99 Y80.99 E66.78407
G1 X169.01 Y80.99 E72.67211
G1 X169.01 Y99.01 E73.57113
G1 X134.01 Y99.01 E75.31729
G1 X134.01 Y139.01 E77.31289
G1 F2700 E70.81289
G0 F7500 X134.29 Y139.01
G0 X119.246 Y139.19
G0 X119.246 Y140.665
G0 X117.842 Y127.111
G0 X118.922 Y128.086
G0 X119.246 Y127.587
G1 F2700 E77.31289
G0 F7500 X119.462 Y127.766
G1 F1500 X119.833 Y127.291 E77.34296
G1 X120.177 Y126.8 E77.37287
G1 X120.499 Y126.294 E77.4028
G1 X120.795 Y125.77 E77.43282
G1 X121.066 Y125.234 E77.46279
G1 X121.31 Y124.682 E77.4929
G1 X121.524 Y124.123 E77.52276
G1 X121.713 Y123.553 E77.55272
G1 X121.873 Y122.974 E77.58269
G1 X122.004 Y122.388 E77.61264
G1 X122.108 Y121.796 E77.64263
G1 X122.181 Y121.201 E77.67254
G1 X122.226 Y120.601 E77.70256
G1 X122.24 Y120 E77.73255
G1 X122.226 Y119.399 E77.76254
G1 X122.181 Y118.799 E77.79256
G1 X122.108 Y118.204 E77.82247
G1 X122.004 Y117.612 E77.85245
G1 X121.873 Y117.026 E77.88241
G1 X121.713 Y116.447 E77.91238
G1 X121.524 Y115.877 E77.94234
G1 X121.31 Y115.318 E77.9722
G1 X121.066 Y114.766 E78.00231
G1 X120.795 Y114.23 E78.03228
G1 X120.499 Y113.706 E78.0623
G1 X120.177 Y113.2 E78.09222
G1 X119.833 Y112.709 E78.12213
G1 X119.462 Y112.234 E78.1522
G1 X119.069 Y111.78 E78.18216
G1 X118.652 Y111.344 E78.21226
G1 X118.218 Y110.929 E78.24222
G1 X117.764 Y110.536 E78.27218
G1 X117.289 Y110.166 E78.30222
G1 X116.796 Y109.819 E78.33229
G1 X116.289 Y109.5 E78.36218
G1 X115.767 Y109.204 E78.39212
G1 X115.231 Y108.933 E78.42208
G1 X114.679 Y108.689 E78.45219
G1 X114.12 Y108.475 E78.48205
G1 X113.55 Y108.286 E78.51201
G1 X112.969 Y108.127 E78.54207
G1 X112.385 Y107.996 E78.57193
G1 X111.793 Y107.892 E78.60191
G1 X111.198 Y107.819 E78.63182
G1 X110.598 Y107.774 E78.66184
G1 X109.997 Y107.76 E78.69183
G1 X109.396 Y107.774 E78.72182
G1 X108.796 Y107.819 E78.75184
G1 X108.201 Y107.892 E78.78175
G1 X107.609 Y107.996 E78.81174
G1 X107.022 Y108.128 E78.84175
G1 X106.444 Y108.288 E78.87167
G1 X105.874 Y108.477 E78.90163
G1 X105.315 Y108.691 E78.9315
G1 X104.763 Y108.935 E78.96161
G1 X104.226 Y109.207 E78.99164
G1 X103.703 Y109.505 E79.02167
G1 X103.199 Y109.825 E79.05145
G1 X102.707 Y110.169 E79.0814
G1 X102.232 Y110.54 E79.11147
G1 X101.778 Y110.933 E79.14143
G1 X101.346 Y111.346 E79.17125
G1 X100.931 Y111.78 E79.20121
G1 X100.538 Y112.234 E79.23116
G1 X100.167 Y112.709 E79.26123
G1 X99.823 Y113.2 E79.29114
G1 X99.501 Y113.706 E79.32107
G1 X99.205 Y114.23 E79.35109
G1 X98.934 Y114.766 E79.38106
G1 X98.69 Y115.318 E79.41117
G1 X98.476 Y115.877 E79.44103
G1 X98.287 Y116.447 E79.47099
G1 X98.127 Y117.026 E79.50096
G1 X97.996 Y117.612 E79.53091
G1 X97.892 Y118.204 E79.5609
G1 X97.819 Y118.799 E79.59081
G1 X97.774 Y119.399 E79.62083
G1 X97.76 Y120 E79.65082
G1 X97.774 Y120.601 E79.68081
G1 X97.819 Y121.201 E79.71083
G1 X97.892 Y121.796 E79.74074
G1 X97.996 Y122.388 E79.77072
G1 X98.127 Y122.974 E79.80068
G1 X98.287 Y123.553 E79.83065
G1 X98.476 Y124.123 E79.86061
G1 X98.69 Y124.682 E79.89047
G1 X98.934 Y125.234 E79.92058
G1 X99.205 Y125.77 E79.95055
G1 X99.501 Y126.294 E79.98057
G1 X99.823 Y126.8 E80.01049
G1 X100.167 Y127.291 E80.0404
G1 X100.538 Y127.766 E80.07047
G1 X100.931 Y128.22 E80.10043
G1 X101.348 Y128.656 E80.13053
G1 X101.782 Y129.071 E80.16049
G1 X102.236 Y129.464 E80.19045
G1 X102.711 Y129.834 E80.22049
G1 X103.204 Y130.181 E80.25056
G1 X103.711 Y130.5 E80.28045
G1 X104.233 Y130.796 E80.31039
G1 X104.769 Y131.067 E80.34035
G1 X105.321 Y131.311 E80.37046
G1 X105.88 Y131.525 E80.40032
G1 X106.45 Y131.714 E80.43028
G1 X107.031 Y131.873 E80.46034
G1 X107.615 Y132.004 E80.4902
G1 X108.207 Y132.108 E80.52018
G1 X108.802 Y132.181 E80.55009
