;FLAVOR:Marlin
;TIME:10715
;Filament used: 6.74173m
;Layer height: 0.2
;MINX:47.45
;MINY:91.835
;MINZ:0.3
;MAXX:172.55
;MAXY:127.3
;MAXZ:34.5
;Generated with Cura_SteamEngine 5.4.0
M140 S60
M105
M190 S60
M104 S195
M105
M109 S195
M82 ;absolute extrusion mode
G28 ;Home
G1 Z15.0 F2000 ;Move the platform
G92 E0
G92 E0
G1 F2700 E-6.5
;LAYER_COUNT:172
;LAYER:0
M107
M204 S1000
;MESH:HalterungAmFass.stl
G0 F7500 X81.65 Y126.9 Z0.3
;TYPE:WALL-INNER
G1 F2700 E0
G1 F1500 X81.65 Y97.5 E1.46677
G1 X81.688 Y97.289 E1.47747
G1 X81.89 Y97.019 E1.49429
G1 X82.176 Y96.9 E1.50975
G1 X172.15 Y96.9 E5.99857
G1 X172.15 Y93.1 E6.18815
G1 X47.85 Y93.1 E12.3895
G1 X47.85 Y96.9 E12.57908
G1 X77.25 Y96.9 E14.04586
G1 X77.445 Y96.932 E14.05572
G1 X77.611 Y97.019 E14.06507
G1 X77.812 Y97.289 E14.08186
G1 X77.85 Y97.5 E14.09255
G1 X77.85 Y122.612 E15.3454
G1 X77.766 Y122.808 E15.35604
G1 X77.558 Y123.016 E15.37071
G1 X77.25 Y123.1 E15.38664
G1 X47.85 Y123.1 E16.85341
G1 X47.85 Y126.9 E17.04299
G1 X81.65 Y126.9 E18.72928
G0 F7500 X82.05 Y127.3
;TYPE:WALL-OUTER
G1 F1500 X82.05 Y97.445 E20.21875
G1 X82.13 Y97.339 E20.22538
G1 X82.215 Y97.302 E20.23001
G1 X172.55 Y97.3 E24.73684
G1 X172.55 Y92.7 E24.96633
G1 X47.45 Y92.7 E31.2076
G1 X47.45 Y97.3 E31.43709
G1 X77.296 Y97.3 E32.92611
G1 X77.45 Y97.445 E32.93667
G1 X77.448 Y122.535 E34.18841
G1 X77.335 Y122.698 E34.19831
G1 X47.45 Y122.7 E35.68928
G1 X47.45 Y127.3 E35.91877
G1 X82.05 Y127.3 E37.64497
G0 F7500 X82.05 Y127.1
G0 X81.29 Y126.54
;TYPE:SKIN
G1 F1500 X48.21 Y126.54 E39.29534
G1 X48.21 Y123.46 E39.449
G1 X77.273 Y123.459 E40.89896
G1 X77.49 Y123.431 E40.90988
G1 X77.756 Y123.322 E40.92422
G1 X78.071 Y123.007 E40.94644
G1 X78.181 Y122.74 E40.96085
G1 X78.209 Y122.523 E40.97177
G1 X78.208 Y97.466 E42.22186
G1 X78.151 Y97.162 E42.2373
G1 X78.018 Y96.924 E42.2509
G1 X77.85 Y96.75 E42.26296
G1 X77.589 Y96.603 E42.27791
G1 X77.287 Y96.542 E42.29328
G1 X48.21 Y96.54 E43.74394
G1 X48.21 Y93.46 E43.8976
G1 X171.79 Y93.46 E50.06303
G1 X171.79 Y96.54 E50.21669
G1 X82.126 Y96.542 E54.69005
G1 X81.715 Y96.707 E54.71214
G1 X81.482 Y96.924 E54.72803
G1 X81.345 Y97.163 E54.74177
G1 X81.292 Y97.466 E54.75712
G1 X81.29 Y126.54 E56.20763
G1 F2700 E49.70763
G0 F7500 X81.55 Y126.54
G0 X48.839 Y126.8
G0 X48.839 Y126.338
G1 F2700 E56.20763
G1 F1500 X48.409 Y125.908 E56.23796
G0 F7500 X48.409 Y125.343
G1 F1500 X49.405 Y126.338 E56.3082
G0 F7500 X49.971 Y126.338
G1 F1500 X48.409 Y124.777 E56.41837
G0 F7500 X48.409 Y124.211
G1 F1500 X50.536 Y126.338 E56.56845
G0 F7500 X51.102 Y126.338
G1 F1500 X48.422 Y123.658 E56.75753
G0 F7500 X48.988 Y123.658
G1 F1500 X51.668 Y126.338 E56.94662
G0 F7500 X52.233 Y126.338
G1 F1500 X49.554 Y123.658 E57.13568
G0 F7500 X50.119 Y123.658
G1 F1500 X52.799 Y126.338 E57.32476
G0 F7500 X53.365 Y126.338
G1 F1500 X50.685 Y123.658 E57.51385
G0 F7500 X51.251 Y123.658
G1 F1500 X53.931 Y126.338 E57.70294
G0 F7500 X54.496 Y126.338
G1 F1500 X51.816 Y123.658 E57.89203
G0 F7500 X52.382 Y123.658
G1 F1500 X55.062 Y126.338 E58.08112
G0 F7500 X55.628 Y126.338
G1 F1500 X52.948 Y123.658 E58.27021
G0 F7500 X53.513 Y123.658
G1 F1500 X56.193 Y126.338 E58.4593
G0 F7500 X56.759 Y126.338
G1 F1500 X54.079 Y123.658 E58.64838
G0 F7500 X54.645 Y123.658
G1 F1500 X57.325 Y126.338 E58.83747
G0 F7500 X57.89 Y126.338
G1 F1500 X55.21 Y123.658 E59.02656
G0 F7500 X55.776 Y123.658
G1 F1500 X58.456 Y126.338 E59.21565
G0 F7500 X59.022 Y126.338
G1 F1500 X56.342 Y123.658 E59.40474
G0 F7500 X56.907 Y123.658
G1 F1500 X59.587 Y126.338 E59.59383
G0 F7500 X60.153 Y126.338
G1 F1500 X57.473 Y123.658 E59.78291
G0 F7500 X58.039 Y123.658
G1 F1500 X60.719 Y126.338 E59.972
G0 F7500 X61.284 Y126.338
G1 F1500 X58.605 Y123.658 E60.16106
G0 F7500 X59.17 Y123.658
G1 F1500 X61.85 Y126.338 E60.35015
G0 F7500 X62.416 Y126.338
G1 F1500 X59.736 Y123.658 E60.53923
G0 F7500 X60.302 Y123.658
G1 F1500 X62.982 Y126.338 E60.72832
G0 F7500 X63.547 Y126.338
G1 F1500 X60.867 Y123.658 E60.91741
G0 F7500 X61.433 Y123.658
G1 F1500 X64.113 Y126.338 E61.1065
G0 F7500 X64.679 Y126.338
G1 F1500 X61.999 Y123.658 E61.29559
G0 F7500 X62.564 Y123.658
G1 F1500 X65.244 Y126.338 E61.48468
G0 F7500 X65.81 Y126.338
G1 F1500 X63.13 Y123.658 E61.67376
G0 F7500 X63.696 Y123.658
G1 F1500 X66.376 Y126.338 E61.86285
G0 F7500 X66.941 Y126.338
G1 F1500 X64.261 Y123.658 E62.05194
G0 F7500 X64.827 Y123.658
G1 F1500 X67.507 Y126.338 E62.24103
G0 F7500 X68.073 Y126.338
G1 F1500 X65.393 Y123.658 E62.43012
G0 F7500 X65.958 Y123.658
G1 F1500 X68.638 Y126.338 E62.61921
G0 F7500 X69.204 Y126.338
G1 F1500 X66.524 Y123.658 E62.8083
G0 F7500 X67.09 Y123.658
G1 F1500 X69.77 Y126.338 E62.99738
G0 F7500 X70.335 Y126.338
G1 F1500 X67.655 Y123.658 E63.18647
G0 F7500 X68.221 Y123.658
G1 F1500 X70.901 Y126.338 E63.37556
G0 F7500 X71.467 Y126.338
G1 F1500 X68.787 Y123.658 E63.56465
G0 F7500 X69.353 Y123.658
G1 F1500 X72.032 Y126.338 E63.7537
G0 F7500 X72.598 Y126.338
G1 F1500 X69.918 Y123.658 E63.94279
G0 F7500 X70.484 Y123.658
G1 F1500 X73.164 Y126.338 E64.13188
G0 F7500 X73.73 Y126.338
G1 F1500 X71.05 Y123.658 E64.32097
G0 F7500 X71.615 Y123.658
G1 F1500 X74.295 Y126.338 E64.51006
G0 F7500 X74.861 Y126.338
G1 F1500 X72.181 Y123.658 E64.69914
G0 F7500 X72.747 Y123.658
G1 F1500 X75.427 Y126.338 E64.88823
G0 F7500 X75.992 Y126.338
G1 F1500 X73.312 Y123.658 E65.07732
G0 F7500 X73.878 Y123.658
G1 F1500 X76.558 Y126.338 E65.26641
G0 F7500 X77.124 Y126.338
G1 F1500 X74.444 Y123.658 E65.4555
G0 F7500 X75.009 Y123.658
G1 F1500 X77.689 Y126.338 E65.64459
G0 F7500 X78.255 Y126.338
G1 F1500 X75.575 Y123.658 E65.83368
G0 F7500 X76.141 Y123.658
G1 F1500 X78.821 Y126.338 E66.02276
G0 F7500 X79.386 Y126.338
G1 F1500 X76.706 Y123.658 E66.21185
G0 F7500 X77.27 Y123.656
G1 F1500 X79.952 Y126.338 E66.40108
G0 F7500 X80.518 Y126.338
G1 F1500 X77.727 Y123.547 E66.598
G0 F7500 X78.052 Y123.307
G1 F1500 X81.083 Y126.338 E66.81186
G0 F7500 X81.091 Y125.78
G1 F1500 X78.294 Y122.983 E67.0092
G0 F7500 X78.406 Y122.529
G1 F1500 X81.091 Y125.214 E67.19864
G0 F7500 X81.091 Y124.648
G1 F1500 X78.406 Y121.963 E67.38808
G0 F7500 X78.406 Y121.398
G1 F1500 X81.091 Y124.083 E67.57752
G0 F7500 X81.091 Y123.517
G1 F1500 X78.406 Y120.832 E67.76696
G0 F7500 X78.406 Y120.266
G1 F1500 X81.091 Y122.951 E67.95641
G0 F7500 X81.091 Y122.386
G1 F1500 X78.406 Y119.701 E68.14585
G0 F7500 X78.406 Y119.135
G1 F1500 X81.091 Y121.82 E68.33529
G0 F7500 X81.091 Y121.255
G1 F1500 X78.406 Y118.569 E68.52476
G0 F7500 X78.406 Y118.004
G1 F1500 X81.091 Y120.689 E68.71421
G0 F7500 X81.091 Y120.124
G1 F1500 X78.406 Y117.438 E68.90368
G0 F7500 X78.406 Y116.872
G1 F1500 X81.091 Y119.558 E69.09316
G0 F7500 X81.091 Y118.992
G1 F1500 X78.406 Y116.307 E69.2826
G0 F7500 X78.406 Y115.741
G1 F1500 X81.091 Y118.426 E69.47204
G0 F7500 X81.091 Y117.861
G1 F1500 X78.406 Y115.175 E69.66152
G0 F7500 X78.406 Y114.609
G1 F1500 X81.091 Y117.295 E69.85099
G0 F7500 X81.091 Y116.729
G1 F1500 X78.405 Y114.043 E70.04051
G0 F7500 X78.405 Y113.477
G1 F1500 X81.092 Y116.164 E70.23009
G0 F7500 X81.092 Y115.599
G1 F1500 X78.405 Y112.912 E70.41967
G0 F7500 X78.405 Y112.346
G1 F1500 X81.092 Y115.033 E70.60925
G0 F7500 X81.092 Y114.467
G1 F1500 X78.405 Y111.78 E70.79884
G0 F7500 X78.405 Y111.215
G1 F1500 X81.092 Y113.902 E70.98842
G0 F7500 X81.092 Y113.336
G1 F1500 X78.405 Y110.649 E71.178
G0 F7500 X78.405 Y110.083
G1 F1500 X81.092 Y112.77 E71.36758
G0 F7500 X81.092 Y112.205
G1 F1500 X78.405 Y109.518 E71.55716
G0 F7500 X78.405 Y108.952
G1 F1500 X81.093 Y111.64 E71.74682
G0 F7500 X81.093 Y111.074
G1 F1500 X78.405 Y108.386 E71.93647
G0 F7500 X78.405 Y107.821
G1 F1500 X81.093 Y110.508 E72.12609
G0 F7500 X81.093 Y109.943
G1 F1500 X78.405 Y107.255 E72.31574
G0 F7500 X78.405 Y106.689
G1 F1500 X81.093 Y109.377 E72.50539
G0 F7500 X81.093 Y108.811
G1 F1500 X78.405 Y106.123 E72.69505
G0 F7500 X78.404 Y105.557
G1 F1500 X81.093 Y108.246 E72.88477
G0 F7500 X81.093 Y107.68
G1 F1500 X78.404 Y104.991 E73.07449
G0 F7500 X78.404 Y104.426
G1 F1500 X81.093 Y107.114 E73.26418
G0 F7500 X81.093 Y106.549
G1 F1500 X78.404 Y103.86 E73.45391
G0 F7500 X78.404 Y103.294
G1 F1500 X81.093 Y105.983 E73.64363
G0 F7500 X81.093 Y105.418
G1 F1500 X78.404 Y102.729 E73.83335
G0 F7500 X78.404 Y102.163
G1 F1500 X81.093 Y104.852 E74.02308
G0 F7500 X81.093 Y104.286
G1 F1500 X78.404 Y101.597 E74.2128
G0 F7500 X78.404 Y101.032
G1 F1500 X81.093 Y103.721 E74.40252
G0 F7500 X81.093 Y103.155
G1 F1500 X78.404 Y100.466 E74.59225
G0 F7500 X78.404 Y99.9
G1 F1500 X81.093 Y102.589 E74.78197
G0 F7500 X81.094 Y102.024
G1 F1500 X78.404 Y99.335 E74.97173
G0 F7500 X78.404 Y98.769
G1 F1500 X81.094 Y101.459 E75.16152
G0 F7500 X81.094 Y100.893
G1 F1500 X78.404 Y98.203 E75.35132
G0 F7500 X78.404 Y97.638
G1 F1500 X81.094 Y100.327 E75.54108
G0 F7500 X81.094 Y99.762
G1 F1500 X78.23 Y96.898 E75.74315
G0 F7500 X77.846 Y96.514
G1 F1500 X74.992 Y93.659 E75.94455
G0 F7500 X75.557 Y93.659
G1 F1500 X81.094 Y99.196 E76.33521
G0 F7500 X81.094 Y98.63
G1 F1500 X76.123 Y93.659 E76.68594
G0 F7500 X76.689 Y93.659
G1 F1500 X81.094 Y98.065 E76.99677
G0 F7500 X81.094 Y97.499
G1 F1500 X77.254 Y93.659 E77.26771
G0 F7500 X77.82 Y93.659
G1 F1500 X81.194 Y97.033 E77.50576
G0 F7500 X81.424 Y96.697
G1 F1500 X78.386 Y93.659 E77.72011
G0 F7500 X78.952 Y93.659
G1 F1500 X81.762 Y96.47 E77.9184
G0 F7500 X82.201 Y96.343
G1 F1500 X79.517 Y93.659 E78.10778
G0 F7500 X80.083 Y93.659
G1 F1500 X82.766 Y96.343 E78.29711
G0 F7500 X83.332 Y96.343
G1 F1500 X80.649 Y93.659 E78.48645
G0 F7500 X81.214 Y93.659
G1 F1500 X83.898 Y96.343 E78.67582
G0 F7500 X84.463 Y96.343
G1 F1500 X81.78 Y93.659 E78.86515
G0 F7500 X82.346 Y93.659
G1 F1500 X85.029 Y96.343 E79.05449
G0 F7500 X85.595 Y96.343
G1 F1500 X82.911 Y93.659 E79.24386
G0 F7500 X83.477 Y93.659
G1 F1500 X86.16 Y96.343 E79.43319
G0 F7500 X86.726 Y96.343
G1 F1500 X84.043 Y93.659 E79.62253
G0 F7500 X84.608 Y93.659
G1 F1500 X87.292 Y96.343 E79.8119
G0 F7500 X87.858 Y96.343
G1 F1500 X85.174 Y93.659 E80.00127
G0 F7500 X85.74 Y93.659
G1 F1500 X88.423 Y96.343 E80.19061
G0 F7500 X88.989 Y96.343
G1 F1500 X86.305 Y93.659 E80.37998
G0 F7500 X86.871 Y93.659
G1 F1500 X89.555 Y96.343 E80.56935
G0 F7500 X90.12 Y96.343
G1 F1500 X87.437 Y93.659 E80.75868
G0 F7500 X88.002 Y93.659
G1 F1500 X90.686 Y96.343 E80.94805
G0 F7500 X91.252 Y96.343
G1 F1500 X88.568 Y93.659 E81.13742
G0 F7500 X89.134 Y93.659
G1 F1500 X91.817 Y96.343 E81.32676
G0 F7500 X92.383 Y96.343
G1 F1500 X89.7 Y93.659 E81.5161
G0 F7500 X90.265 Y93.659
G1 F1500 X92.949 Y96.343 E81.70547
G0 F7500 X93.514 Y96.343
G1 F1500 X90.831 Y93.659 E81.8948
G0 F7500 X91.397 Y93.659
G1 F1500 X94.08 Y96.343 E82.08414
G0 F7500 X94.646 Y96.343
G1 F1500 X91.962 Y93.659 E82.27351
G0 F7500 X92.528 Y93.659
G1 F1500 X95.211 Y96.343 E82.46284
G0 F7500 X95.777 Y96.343
G1 F1500 X93.094 Y93.659 E82.65218
G0 F7500 X93.659 Y93.659
G1 F1500 X96.343 Y96.343 E82.84155
G0 F7500 X96.908 Y96.343
G1 F1500 X94.225 Y93.659 E83.03088
G0 F7500 X94.791 Y93.659
G1 F1500 X97.474 Y96.343 E83.22022
G0 F7500 X98.04 Y96.343
G1 F1500 X95.356 Y93.659 E83.40959
G0 F7500 X95.922 Y93.659
G1 F1500 X98.606 Y96.343 E83.59896
G0 F7500 X99.171 Y96.343
G1 F1500 X96.488 Y93.659 E83.7883
G0 F7500 X97.053 Y93.659
G1 F1500 X99.737 Y96.343 E83.97767
G0 F7500 X100.302 Y96.342
G1 F1500 X97.619 Y93.659 E84.16697
G0 F7500 X98.185 Y93.659
G1 F1500 X100.868 Y96.342 E84.35627
G0 F7500 X101.433 Y96.342
G1 F1500 X98.75 Y93.659 E84.54557
G0 F7500 X99.316 Y93.659
G1 F1500 X101.999 Y96.342 E84.73487
G0 F7500 X102.565 Y96.342
G1 F1500 X99.882 Y93.659 E84.92417
G0 F7500 X100.448 Y93.659
G1 F1500 X103.13 Y96.342 E85.11343
G0 F7500 X103.696 Y96.342
G1 F1500 X101.013 Y93.659 E85.30273
G0 F7500 X101.579 Y93.659
G1 F1500 X104.262 Y96.342 E85.49203
G0 F7500 X104.827 Y96.342
G1 F1500 X102.145 Y93.659 E85.6813
G0 F7500 X102.71 Y93.659
G1 F1500 X105.393 Y96.342 E85.8706
G0 F7500 X105.959 Y96.342
G1 F1500 X103.276 Y93.659 E86.0599
G0 F7500 X103.842 Y93.659
G1 F1500 X106.524 Y96.342 E86.24916
G0 F7500 X107.09 Y96.342
G1 F1500 X104.407 Y93.659 E86.43846
G0 F7500 X104.973 Y93.659
G1 F1500 X107.656 Y96.342 E86.62776
G0 F7500 X108.221 Y96.342
G1 F1500 X105.539 Y93.659 E86.81703
G0 F7500 X106.104 Y93.659
G1 F1500 X108.787 Y96.342 E87.00633
G0 F7500 X109.353 Y96.342
G1 F1500 X106.67 Y93.659 E87.19563
G0 F7500 X107.236 Y93.659
G1 F1500 X109.919 Y96.342 E87.38493
G0 F7500 X110.484 Y96.342
G1 F1500 X107.801 Y93.659 E87.57423
G0 F7500 X108.367 Y93.659
G1 F1500 X111.05 Y96.342 E87.76353
G0 F7500 X111.616 Y96.342
G1 F1500 X108.933 Y93.659 E87.95283
G0 F7500 X109.499 Y93.659
G1 F1500 X112.181 Y96.342 E88.14209
G0 F7500 X112.747 Y96.342
G1 F1500 X110.065 Y93.66 E88.33132
G0 F7500 X110.631 Y93.66
G1 F1500 X113.313 Y96.342 E88.52055
G0 F7500 X113.878 Y96.342
G1 F1500 X111.196 Y93.66 E88.70978
G0 F7500 X111.762 Y93.66
G1 F1500 X114.444 Y96.342 E88.89901
G0 F7500 X115.01 Y96.342
G1 F1500 X112.328 Y93.66 E89.08824
G0 F7500 X112.893 Y93.66
G1 F1500 X115.575 Y96.342 E89.27747
G0 F7500 X116.141 Y96.342
G1 F1500 X113.459 Y93.66 E89.4667
G0 F7500 X114.025 Y93.66
G1 F1500 X116.707 Y96.342 E89.65593
G0 F7500 X117.272 Y96.342
G1 F1500 X114.59 Y93.66 E89.84516
G0 F7500 X115.156 Y93.66
G1 F1500 X117.838 Y96.342 E90.03439
G0 F7500 X118.403 Y96.341
G1 F1500 X115.722 Y93.66 E90.22355
G0 F7500 X116.287 Y93.66
G1 F1500 X118.969 Y96.341 E90.41274
G0 F7500 X119.534 Y96.341
G1 F1500 X116.853 Y93.66 E90.6019
G0 F7500 X117.419 Y93.66
G1 F1500 X120.1 Y96.341 E90.79106
G0 F7500 X120.666 Y96.341
G1 F1500 X117.985 Y93.66 E90.98022
G0 F7500 X118.55 Y93.66
G1 F1500 X121.232 Y96.341 E91.16941
G0 F7500 X121.797 Y96.341
G1 F1500 X119.116 Y93.66 E91.35857
G0 F7500 X119.682 Y93.66
G1 F1500 X122.363 Y96.341 E91.54773
G0 F7500 X122.929 Y96.341
G1 F1500 X120.247 Y93.66 E91.73693
G0 F7500 X120.813 Y93.66
G1 F1500 X123.494 Y96.341 E91.92609
G0 F7500 X124.06 Y96.341
G1 F1500 X121.379 Y93.66 E92.11525
G0 F7500 X121.944 Y93.66
G1 F1500 X124.626 Y96.341 E92.30444
G0 F7500 X125.191 Y96.341
G1 F1500 X122.51 Y93.66 E92.4936
G0 F7500 X123.076 Y93.66
G1 F1500 X125.757 Y96.341 E92.68276
G0 F7500 X126.323 Y96.341
G1 F1500 X123.641 Y93.66 E92.87195
G0 F7500 X124.207 Y93.66
G1 F1500 X126.888 Y96.341 E93.06111
G0 F7500 X127.454 Y96.341
G1 F1500 X124.773 Y93.66 E93.25027
G0 F7500 X125.338 Y93.66
G1 F1500 X128.02 Y96.341 E93.43946
G0 F7500 X128.585 Y96.341
G1 F1500 X125.904 Y93.66 E93.62862
G0 F7500 X126.47 Y93.66
G1 F1500 X129.151 Y96.341 E93.81778
G0 F7500 X129.717 Y96.341
G1 F1500 X127.035 Y93.66 E94.00698
G0 F7500 X127.601 Y93.66
G1 F1500 X130.283 Y96.341 E94.19617
G0 F7500 X130.848 Y96.341
G1 F1500 X128.167 Y93.66 E94.38533
G0 F7500 X128.733 Y93.66
G1 F1500 X131.414 Y96.341 E94.57449
G0 F7500 X131.98 Y96.341
G1 F1500 X129.298 Y93.66 E94.76368
G0 F7500 X129.864 Y93.66
G1 F1500 X132.545 Y96.341 E94.95284
G0 F7500 X133.111 Y96.341
G1 F1500 X130.43 Y93.66 E95.142
G0 F7500 X130.995 Y93.66
G1 F1500 X133.677 Y96.341 E95.3312
G0 F7500 X134.242 Y96.341
G1 F1500 X131.561 Y93.66 E95.52035
G0 F7500 X132.127 Y93.66
G1 F1500 X134.808 Y96.341 E95.70951
G0 F7500 X135.374 Y96.341
G1 F1500 X132.692 Y93.66 E95.89871
G0 F7500 X133.258 Y93.66
G1 F1500 X135.939 Y96.341 E96.08787
G0 F7500 X136.504 Y96.341
G1 F1500 X133.824 Y93.66 E96.27699
G0 F7500 X134.389 Y93.66
G1 F1500 X137.07 Y96.341 E96.46615
G0 F7500 X137.636 Y96.341
G1 F1500 X134.955 Y93.66 E96.65531
G0 F7500 X135.521 Y93.66
G1 F1500 X138.201 Y96.341 E96.84443
G0 F7500 X138.767 Y96.341
G1 F1500 X136.086 Y93.66 E97.03359
G0 F7500 X136.652 Y93.66
G1 F1500 X139.333 Y96.341 E97.22275
G0 F7500 X139.898 Y96.341
G1 F1500 X137.218 Y93.66 E97.41187
G0 F7500 X137.783 Y93.66
G1 F1500 X140.464 Y96.341 E97.60103
G0 F7500 X141.03 Y96.341
G1 F1500 X138.349 Y93.66 E97.79019
G0 F7500 X138.915 Y93.66
G1 F1500 X141.596 Y96.341 E97.97935
G0 F7500 X142.161 Y96.341
G1 F1500 X139.481 Y93.66 E98.16848
G0 F7500 X140.046 Y93.66
G1 F1500 X142.727 Y96.341 E98.35763
G0 F7500 X143.293 Y96.341
G1 F1500 X140.612 Y93.66 E98.54679
G0 F7500 X141.178 Y93.66
G1 F1500 X143.858 Y96.341 E98.73592
G0 F7500 X144.424 Y96.341
G1 F1500 X141.743 Y93.66 E98.92508
G0 F7500 X142.309 Y93.66
G1 F1500 X144.99 Y96.341 E99.11424
G0 F7500 X145.555 Y96.341
