;FLAVOR:Marlin
;TIME:23743
;Filament used: 23.4363m
;Layer height: 0.15
;MINX:46.8
;MINY:76.8
;MINZ:0.3
;MAXX:173.2
;MAXY:143.2
;MAXZ:25.05
;Generated with Cura_SteamEngine 4.13.1
M140 S60
M105
M190 S60
M104 S195
M105
M109 S195
M82 ;absolute extrusion mode
G28 ;Home
G1 Z15.0 F2000 ;Move the platform
G92 E0
G92 E0
G1 F2700 E-6.5
;LAYER_COUNT:166
;LAYER:0
M107
M204 S1000
G0 F7500 X48.18 Y77.383 Z0.3
;TYPE:SKIRT
G1 F2700 E0
G1 F1500 X48.617 Y77.128 E0.02524
G1 X49.088 Y76.944 E0.05047
G1 X49.582 Y76.838 E0.07568
G1 X49.919 Y76.81 E0.09255
G1 X50.33 Y76.8 E0.11306
G1 X169.339 Y76.8 E6.05044
G1 X170.037 Y76.81 E6.08527
G1 X170.54 Y76.857 E6.11047
G1 X171.03 Y76.983 E6.13571
G1 X171.494 Y77.185 E6.16096
G1 X171.92 Y77.457 E6.18618
G1 X172.298 Y77.792 E6.21138
G1 X172.618 Y78.183 E6.23658
G1 X172.873 Y78.62 E6.26183
G1 X173.056 Y79.091 E6.28704
G1 X173.163 Y79.585 E6.31225
G1 X173.19 Y79.92 E6.32902
G1 X173.2 Y80.33 E6.34948
G1 X173.2 Y99.318 E7.2968
G1 X173.19 Y100.038 E7.33272
G1 X173.143 Y100.542 E7.35797
G1 X173.017 Y101.032 E7.38322
G1 X172.816 Y101.495 E7.4084
G1 X172.544 Y101.922 E7.43366
G1 X172.209 Y102.3 E7.45886
G1 X171.784 Y102.644 E7.48613
G1 X170.836 Y103.286 E7.54325
G1 X168.541 Y104.887 E7.68286
G1 X166.367 Y106.496 E7.8178
G1 X164.195 Y108.203 E7.95562
G1 X162.092 Y109.951 E8.09205
G1 X160.037 Y111.762 E8.2287
G1 X158.024 Y113.638 E8.36598
G1 X156.088 Y115.548 E8.50166
G1 X154.205 Y117.515 E8.63752
G1 X152.347 Y119.568 E8.77566
G1 X150.585 Y121.631 E8.91101
G1 X148.863 Y123.765 E9.04782
G1 X147.19 Y125.963 E9.18563
G1 X145.614 Y128.159 E9.32048
G1 X144.071 Y130.444 E9.45804
G1 X142.606 Y132.751 E9.59438
G1 X141.204 Y135.104 E9.73103
G1 X139.866 Y137.499 E9.8679
G1 X138.608 Y139.911 E10.00362
G1 X138.388 Y140.364 E10.02874
G1 X137.851 Y141.43 E10.08829
G1 X137.588 Y141.862 E10.11352
G1 X137.261 Y142.247 E10.13873
G1 X136.877 Y142.576 E10.16395
G1 X136.447 Y142.841 E10.18915
G1 X135.979 Y143.034 E10.21441
G1 X135.488 Y143.152 E10.2396
G1 X135.092 Y143.188 E10.25944
G1 X134.67 Y143.2 E10.2805
G1 X85.661 Y143.2 E12.72557
G1 X84.962 Y143.19 E12.76045
G1 X84.459 Y143.143 E12.78565
G1 X83.969 Y143.017 E12.81089
G1 X83.505 Y142.815 E12.83614
G1 X83.079 Y142.543 E12.86136
G1 X82.701 Y142.208 E12.88656
G1 X82.381 Y141.817 E12.91176
G1 X82.135 Y141.399 E12.93596
G1 X81.98 Y141.083 E12.95352
G1 X80.754 Y138.657 E13.08913
G1 X79.433 Y136.214 E13.22769
G1 X78.062 Y133.842 E13.36438
G1 X76.633 Y131.524 E13.50023
G1 X75.127 Y129.229 E13.63718
G1 X73.563 Y126.988 E13.77352
G1 X71.939 Y124.79 E13.90986
G1 X70.258 Y122.652 E14.04555
G1 X68.477 Y120.508 E14.18461
G1 X66.7 Y118.493 E14.31864
G1 X64.822 Y116.478 E14.45606
G1 X62.886 Y114.514 E14.59365
G1 X60.909 Y112.621 E14.73021
G1 X58.91 Y110.812 E14.86471
G1 X56.795 Y109.005 E15.0035
G1 X54.691 Y107.305 E15.13845
G1 X52.493 Y105.632 E15.27626
G1 X50.268 Y104.036 E15.41287
G1 X48.435 Y102.797 E15.52325
G1 X48.176 Y102.616 E15.53901
G1 X47.786 Y102.295 E15.56421
G1 X47.451 Y101.916 E15.58945
G1 X47.18 Y101.489 E15.61468
G1 X46.98 Y101.025 E15.63989
G1 X46.855 Y100.535 E15.66512
G1 X46.81 Y100.082 E15.68783
G1 X46.8 Y99.67 E15.70839
G1 X46.8 Y80.631 E16.65825
G1 X46.809 Y79.966 E16.69143
G1 X46.856 Y79.462 E16.71668
G1 X46.982 Y78.973 E16.74188
G1 X47.183 Y78.509 E16.7671
G1 X47.454 Y78.082 E16.79233
G1 X47.789 Y77.704 E16.81753
G1 X48.18 Y77.383 E16.84277
G1 F2700 E10.34277
;MESH:Halterung.stl
G0 F7500 X49.347 Y100.653
G0 X75.246 Y100.65
G0 X98.429 Y120.58
G0 X96.974 Y120.641
G0 X98.053 Y124.274
G0 X98.809 Y125.981
G0 X99.807 Y127.558
G0 X101.03 Y128.974
G0 X102.445 Y130.195
G0 X104.022 Y131.191
G0 X105.729 Y131.948
G0 X107.186 Y132.351
G0 X110.003 Y132.85
;TYPE:WALL-INNER
G1 F2700 E16.84277
G1 F1500 X110.634 Y132.835 E16.87426
G1 X111.263 Y132.788 E16.90573
G1 X111.888 Y132.711 E16.93715
G1 X112.51 Y132.602 E16.96865
G1 X113.126 Y132.464 E17.00015
G1 X113.733 Y132.295 E17.03158
G1 X114.332 Y132.098 E17.06304
G1 X114.921 Y131.871 E17.09453
G1 X115.498 Y131.615 E17.12603
G1 X116.061 Y131.33 E17.15751
G1 X116.61 Y131.02 E17.18896
G1 X117.142 Y130.682 E17.22041
G1 X117.657 Y130.319 E17.25184
G1 X118.152 Y129.933 E17.28316
G1 X118.632 Y129.519 E17.31478
G1 X119.086 Y129.086 E17.34608
G1 X119.521 Y128.63 E17.37752
G1 X119.933 Y128.152 E17.40901
G1 X120.321 Y127.654 E17.4405
G1 X120.685 Y127.139 E17.47197
G1 X121.022 Y126.607 E17.50339
G1 X121.333 Y126.058 E17.53486
G1 X121.617 Y125.494 E17.56637
G1 X121.873 Y124.918 E17.59782
G1 X122.099 Y124.328 E17.62934
G1 X122.296 Y123.73 E17.66075
G1 X122.465 Y123.123 E17.69218
G1 X122.603 Y122.507 E17.72368
G1 X122.711 Y121.885 E17.75517
G1 X122.788 Y121.26 E17.78659
G1 X122.835 Y120.631 E17.81806
G1 X122.85 Y120 E17.84955
G1 X122.835 Y119.369 E17.88104
G1 X122.788 Y118.74 E17.91251
G1 X122.711 Y118.115 E17.94392
G1 X122.603 Y117.493 E17.97542
G1 X122.465 Y116.877 E18.00691
G1 X122.296 Y116.27 E18.03835
G1 X122.099 Y115.672 E18.06976
G1 X121.873 Y115.082 E18.10128
G1 X121.617 Y114.505 E18.13277
G1 X121.333 Y113.942 E18.16423
G1 X121.022 Y113.393 E18.19571
G1 X120.685 Y112.861 E18.22713
G1 X120.321 Y112.346 E18.25859
G1 X119.933 Y111.848 E18.29009
G1 X119.521 Y111.37 E18.32157
G1 X119.084 Y110.912 E18.35316
G1 X118.628 Y110.476 E18.38463
G1 X118.149 Y110.064 E18.41615
G1 X117.651 Y109.677 E18.44762
G1 X117.136 Y109.313 E18.47908
G1 X116.604 Y108.976 E18.5105
G1 X116.054 Y108.665 E18.54202
G1 X115.491 Y108.382 E18.57346
G1 X114.915 Y108.126 E18.60491
G1 X114.326 Y107.9 E18.63638
G1 X113.727 Y107.702 E18.66786
G1 X113.118 Y107.534 E18.69937
G1 X112.504 Y107.396 E18.73077
G1 X111.882 Y107.289 E18.76226
G1 X111.257 Y107.212 E18.79368
G1 X110.628 Y107.165 E18.82514
G1 X109.997 Y107.15 E18.85663
G1 X109.366 Y107.165 E18.88812
G1 X108.737 Y107.212 E18.91959
G1 X108.112 Y107.289 E18.95101
G1 X107.49 Y107.398 E18.98251
G1 X106.875 Y107.536 E19.01396
G1 X106.267 Y107.704 E19.04543
G1 X105.668 Y107.902 E19.0769
G1 X105.079 Y108.128 E19.10838
G1 X104.501 Y108.385 E19.13994
G1 X103.939 Y108.669 E19.17135
G1 X103.39 Y108.98 E19.20283
G1 X102.858 Y109.317 E19.23425
G1 X102.342 Y109.681 E19.26575
G1 X101.846 Y110.069 E19.29717
G1 X101.368 Y110.481 E19.32865
G1 X100.914 Y110.914 E19.35995
G1 X100.479 Y111.37 E19.39139
G1 X100.067 Y111.848 E19.42288
G1 X99.679 Y112.346 E19.45437
G1 X99.315 Y112.861 E19.48584
G1 X98.978 Y113.393 E19.51726
G1 X98.667 Y113.942 E19.54874
G1 X98.383 Y114.505 E19.58019
G1 X98.127 Y115.082 E19.61169
G1 X97.901 Y115.672 E19.64321
G1 X97.704 Y116.27 E19.67462
G1 X97.535 Y116.877 E19.70606
G1 X97.397 Y117.493 E19.73755
G1 X97.289 Y118.115 E19.76905
G1 X97.212 Y118.74 E19.80046
G1 X97.165 Y119.369 E19.83193
G1 X97.15 Y120 E19.86342
G1 X97.165 Y120.631 E19.89491
G1 X97.212 Y121.26 E19.92638
G1 X97.289 Y121.885 E19.9578
G1 X97.397 Y122.507 E19.98929
G1 X97.535 Y123.123 E20.02079
G1 X97.704 Y123.73 E20.05222
G1 X97.901 Y124.328 E20.08363
G1 X98.127 Y124.918 E20.11515
G1 X98.383 Y125.494 E20.1466
G1 X98.667 Y126.058 E20.1781
G1 X98.978 Y126.607 E20.20958
G1 X99.315 Y127.139 E20.241
G1 X99.679 Y127.654 E20.27247
G1 X100.067 Y128.152 E20.30396
G1 X100.479 Y128.63 E20.33545
G1 X100.916 Y129.088 E20.36703
G1 X101.372 Y129.524 E20.3985
G1 X101.851 Y129.936 E20.43002
G1 X102.349 Y130.323 E20.46149
G1 X102.864 Y130.686 E20.49292
G1 X103.397 Y131.024 E20.52441
G1 X103.946 Y131.333 E20.55584
G1 X104.508 Y131.618 E20.58728
G1 X105.085 Y131.873 E20.61875
G1 X105.674 Y132.1 E20.65024
G1 X106.273 Y132.297 E20.6817
G1 X106.881 Y132.466 E20.71319
G1 X107.496 Y132.604 E20.74463
G1 X108.118 Y132.711 E20.77612
G1 X108.743 Y132.788 E20.80754
G1 X109.372 Y132.835 E20.839
G1 X110.003 Y132.85 E20.87049
G0 F7500 X110.003 Y132.45
;TYPE:WALL-OUTER
G1 F1500 X110.614 Y132.435 E20.90099
G1 X111.224 Y132.39 E20.9315
G1 X111.829 Y132.315 E20.96192
G1 X112.432 Y132.21 E20.99245
G1 X113.028 Y132.076 E21.02293
G1 X113.617 Y131.912 E21.05343
G1 X114.197 Y131.721 E21.0839
G1 X114.768 Y131.501 E21.11443
G1 X115.326 Y131.254 E21.14487
G1 X115.872 Y130.977 E21.17542
G1 X116.404 Y130.677 E21.20589
G1 X116.92 Y130.349 E21.23639
G1 X117.419 Y129.998 E21.26683
G1 X117.898 Y129.624 E21.29715
G1 X118.363 Y129.223 E21.32778
G1 X118.803 Y128.803 E21.35813
G1 X119.225 Y128.361 E21.38862
G1 X119.624 Y127.898 E21.41911
G1 X120 Y127.416 E21.44961
G1 X120.352 Y126.917 E21.48007
G1 X120.679 Y126.401 E21.51055
G1 X120.98 Y125.869 E21.54105
G1 X121.255 Y125.323 E21.57155
G1 X121.503 Y124.765 E21.60201
G1 X121.722 Y124.194 E21.63252
G1 X121.913 Y123.614 E21.66299
G1 X122.077 Y123.025 E21.69349
G1 X122.211 Y122.429 E21.72397
G1 X122.315 Y121.826 E21.75449
G1 X122.39 Y121.221 E21.78491
G1 X122.435 Y120.611 E21.81542
G1 X122.45 Y120 E21.84592
G1 X122.435 Y119.389 E21.87641
G1 X122.39 Y118.779 E21.90692
G1 X122.315 Y118.174 E21.93734
G1 X122.211 Y117.571 E21.96787
G1 X122.077 Y116.975 E21.99834
G1 X121.913 Y116.386 E22.02885
G1 X121.722 Y115.806 E22.05931
G1 X121.503 Y115.235 E22.08982
G1 X121.255 Y114.676 E22.12033
G1 X120.98 Y114.131 E22.15079
G1 X120.679 Y113.599 E22.18128
G1 X120.352 Y113.083 E22.21176
G1 X120 Y112.584 E22.24223
G1 X119.624 Y112.102 E22.27272
G1 X119.225 Y111.639 E22.30322
G1 X118.801 Y111.195 E22.33385
G1 X118.359 Y110.773 E22.36434
G1 X117.895 Y110.374 E22.39487
G1 X117.413 Y109.998 E22.42536
G1 X116.914 Y109.646 E22.45583
G1 X116.398 Y109.319 E22.48631
G1 X115.866 Y109.018 E22.5168
G1 X115.32 Y108.744 E22.54728
G1 X114.762 Y108.496 E22.57775
G1 X114.191 Y108.277 E22.60826
G1 X113.611 Y108.085 E22.63874
G1 X113.021 Y107.922 E22.66927
G1 X112.426 Y107.789 E22.69969
G1 X111.823 Y107.685 E22.73022
G1 X111.218 Y107.61 E22.76063
G1 X110.608 Y107.565 E22.79115
G1 X109.997 Y107.55 E22.82164
G1 X109.386 Y107.565 E22.85213
G1 X108.776 Y107.61 E22.88265
G1 X108.171 Y107.685 E22.91306
G1 X107.568 Y107.79 E22.9436
G1 X106.972 Y107.924 E22.97408
G1 X106.383 Y108.087 E23.00457
G1 X105.803 Y108.279 E23.03505
G1 X105.232 Y108.498 E23.06556
G1 X104.673 Y108.746 E23.09607
G1 X104.128 Y109.022 E23.12655
G1 X103.596 Y109.323 E23.15704
G1 X103.08 Y109.65 E23.18752
G1 X102.581 Y110.002 E23.21799
G1 X102.1 Y110.378 E23.24844
G1 X101.637 Y110.777 E23.27894
G1 X101.197 Y111.197 E23.30928
G1 X100.775 Y111.639 E23.33977
G1 X100.376 Y112.102 E23.37027
G1 X100 Y112.584 E23.40076
G1 X99.648 Y113.083 E23.43123
G1 X99.321 Y113.599 E23.46171
G1 X99.02 Y114.131 E23.4922
G1 X98.745 Y114.676 E23.52266
G1 X98.497 Y115.235 E23.55317
G1 X98.278 Y115.806 E23.58368
G1 X98.087 Y116.386 E23.61414
G1 X97.923 Y116.975 E23.64465
G1 X97.789 Y117.571 E23.67512
G1 X97.685 Y118.174 E23.70565
G1 X97.61 Y118.779 E23.73607
G1 X97.565 Y119.389 E23.76658
G1 X97.55 Y120 E23.79707
G1 X97.565 Y120.611 E23.82757
G1 X97.61 Y121.221 E23.85808
G1 X97.685 Y121.826 E23.8885
G1 X97.789 Y122.429 E23.91902
G1 X97.923 Y123.025 E23.9495
G1 X98.087 Y123.614 E23.98
G1 X98.278 Y124.194 E24.01047
G1 X98.497 Y124.765 E24.04098
G1 X98.745 Y125.323 E24.07144
G1 X99.02 Y125.869 E24.10194
G1 X99.321 Y126.401 E24.13244
G1 X99.648 Y126.917 E24.16292
G1 X100 Y127.416 E24.19338
G1 X100.376 Y127.898 E24.22388
G1 X100.775 Y128.361 E24.25437
G1 X101.199 Y128.805 E24.285
G1 X101.641 Y129.227 E24.31549
G1 X102.105 Y129.626 E24.34602
G1 X102.587 Y130.002 E24.37652
G1 X103.086 Y130.353 E24.40696
G1 X103.602 Y130.681 E24.43746
G1 X104.134 Y130.98 E24.46791
G1 X104.679 Y131.256 E24.49839
G1 X105.238 Y131.503 E24.52888
G1 X105.809 Y131.723 E24.55941
G1 X106.389 Y131.914 E24.58987
G1 X106.978 Y132.078 E24.62037
G1 X107.574 Y132.211 E24.65084
G1 X108.177 Y132.315 E24.68137
G1 X108.782 Y132.39 E24.71178
G1 X109.392 Y132.435 E24.7423
G1 X110.003 Y132.45 E24.77279
G0 F7500 X110.203 Y132.446
G0 X110.212 Y132.886
G1 F2700 E18.27279
G0 F7500 X113.173 Y132.649
G0 X112.827 Y131.235
G0 X113.173 Y140.665
G0 X113.173 Y139.19
G0 X134.4 Y139.4
;TYPE:WALL-INNER
G1 F2700 E24.77279
G1 F1500 X85.6 Y139.4 E27.20743
G1 X85.6 Y99.4 E29.20304
G1 X50.6 Y99.4 E30.9492
G1 X50.6 Y80.6 E31.88713
G1 X169.4 Y80.6 E37.81409
G1 X169.4 Y99.4 E38.75202
G1 X134.4 Y99.4 E40.49818
G1 X134.4 Y139.4 E42.49379
G0 F7500 X134.8 Y139.8
;TYPE:WALL-OUTER
G1 F1500 X85.2 Y139.8 E44.96834
G1 X85.2 Y99.8 E46.96395
G1 X50.2 Y99.8 E48.71011
G1 X50.2 Y80.2 E49.68796
G1 X169.8 Y80.2 E55.65483
G1 X169.8 Y99.8 E56.63267
G1 X134.8 Y99.8 E58.37883
G1 X134.8 Y139.8 E60.37444
G0 F7500 X134.6 Y139.8
G0 X134.36 Y139.36
G0 X134.01 Y139.01
;TYPE:SKIN
G1 F1500 X85.99 Y139.01 E62.77017
G1 X85.99 Y99.01 E64.76577
G1 X50.99 Y99.01 E66.51193
G1 X50.99 Y80.99 E67.41095
G1 X169.01 Y80.99 E73.29899
G1 X169.01 Y99.01 E74.19802
G1 X134.01 Y99.01 E75.94417
G1 X134.01 Y139.01 E77.93978
G1 F2700 E71.43978
G0 F7500 X134.29 Y139.01
G0 X120.019 Y139.19
G0 X120.019 Y140.665
G0 X118.582 Y127.785
G0 X119.663 Y128.758
G0 X120.019 Y128.221
G1 F2700 E77.93978
G0 F7500 X120.235 Y128.4
G1 F1500 X120.635 Y127.886 E77.97227
G1 X121.009 Y127.356 E78.00464
G1 X121.357 Y126.808 E78.03702
G1 X121.677 Y126.242 E78.06946
G1 X121.97 Y125.661 E78.10193
G1 X122.234 Y125.067 E78.13436
G1 X122.466 Y124.459 E78.16682
G1 X122.669 Y123.843 E78.19918
G1 X122.843 Y123.218 E78.23155
G1 X122.985 Y122.583 E78.26401
G1 X123.097 Y121.942 E78.29647
G1 X123.176 Y121.299 E78.32879
G1 X123.225 Y120.65 E78.36127
G1 X123.24 Y120 E78.3937
G1 X123.225 Y119.35 E78.42614
G1 X123.176 Y118.701 E78.45861
G1 X123.097 Y118.058 E78.49093
G1 X122.985 Y117.417 E78.5234
G1 X122.843 Y116.782 E78.55586
G1 X122.669 Y116.157 E78.58823
G1 X122.466 Y115.541 E78.62058
G1 X122.234 Y114.934 E78.653
G1 X121.97 Y114.338 E78.68553
G1 X121.677 Y113.758 E78.71794
G1 X121.357 Y113.192 E78.75038
G1 X121.009 Y112.644 E78.78277
G1 X120.635 Y112.114 E78.81513
G1 X120.235 Y111.6 E78.84763
G1 X119.81 Y111.108 E78.88006
G1 X119.36 Y110.637 E78.91256
G1 X118.89 Y110.187 E78.94502
G1 X118.396 Y109.762 E78.97753
G1 X117.883 Y109.363 E79.00996
G1 X117.353 Y108.989 E79.04232
G1 X116.805 Y108.641 E79.07471
G1 X116.237 Y108.32 E79.10726
G1 X115.658 Y108.029 E79.13959
G1 X115.064 Y107.765 E79.17202
G1 X114.457 Y107.533 E79.20444
G1 X113.84 Y107.329 E79.23686
G1 X113.213 Y107.156 E79.26931
G1 X112.58 Y107.014 E79.30167
G1 X111.939 Y106.903 E79.33413
G1 X111.296 Y106.824 E79.36645
G1 X110.647 Y106.775 E79.39892
G1 X109.997 Y106.76 E79.43136
G1 X109.347 Y106.775 E79.4638
G1 X108.698 Y106.824 E79.49627
G1 X108.054 Y106.903 E79.52864
G1 X107.414 Y107.016 E79.56106
G1 X106.78 Y107.158 E79.59347
G1 X106.154 Y107.331 E79.62588
G1 X105.537 Y107.535 E79.6583
G1 X104.929 Y107.767 E79.69076
G1 X104.333 Y108.032 E79.7233
G1 X103.755 Y108.325 E79.75563
G1 X103.189 Y108.645 E79.78807
G1 X102.641 Y108.993 E79.82046
G1 X102.11 Y109.367 E79.85286
G1 X101.598 Y109.767 E79.88528
G1 X101.106 Y110.192 E79.91771
G1 X100.639 Y110.639 E79.94997
G1 X100.19 Y111.108 E79.98236
G1 X99.765 Y111.6 E80.01479
G1 X99.365 Y112.114 E80.04729
G1 X98.991 Y112.644 E80.07965
G1 X98.643 Y113.192 E80.11204
G1 X98.323 Y113.758 E80.14448
G1 X98.03 Y114.338 E80.17689
G1 X97.766 Y114.934 E80.20942
G1 X97.534 Y115.541 E80.24184
G1 X97.331 Y116.157 E80.27419
G1 X97.157 Y116.782 E80.30656
G1 X97.015 Y117.417 E80.33902
G1 X96.903 Y118.058 E80.37149
G1 X96.824 Y118.701 E80.40381
G1 X96.775 Y119.35 E80.43628
G1 X96.76 Y120 E80.46872
G1 X96.775 Y120.65 E80.50115
G1 X96.824 Y121.299 E80.53362
G1 X96.903 Y121.942 E80.56594
G1 X97.015 Y122.583 E80.59841
G1 X97.157 Y123.218 E80.63087
G1 X97.331 Y123.843 E80.66324
G1 X97.534 Y124.459 E80.6956
G1 X97.766 Y125.067 E80.72806
G1 X98.03 Y125.661 E80.76049
G1 X98.323 Y126.242 E80.79296
G1 X98.643 Y126.808 E80.8254
G1 X98.991 Y127.356 E80.85778
G1 X99.365 Y127.886 E80.89014
G1 X99.765 Y128.4 E80.92264
G1 X100.19 Y128.892 E80.95507
G1 X100.64 Y129.363 E80.98757
G1 X101.11 Y129.813 E81.02004
G1 X101.604 Y130.238 E81.05255
G1 X102.117 Y130.637 E81.08497
G1 X102.647 Y131.01 E81.11731
G1 X103.196 Y131.359 E81.14976
G1 X103.762 Y131.677 E81.18215
G1 X104.341 Y131.971 E81.21455
G1 X104.937 Y132.234 E81.24705
G1 X105.543 Y132.467 E81.27944
G1 X106.16 Y132.67 E81.31184
G1 X106.786 Y132.844 E81.34426
G1 X107.42 Y132.986 E81.37667
G1 X108.061 Y133.097 E81.40913
G1 X108.704 Y133.176 E81.44145
G1 X109.353 Y133.225 E81.47392
