;FLAVOR:Marlin
;TIME:8243
;Filament used: 6.13063m
;Layer height: 0.15
;MINX:85.4
;MINY:68.4
;MINZ:0.3
;MAXX:148.254
;MAXY:151.6
;MAXZ:10.05
;Generated with Cura_SteamEngine 4.13.1
M140 S60
M105
M190 S60
M104 S195
M105
M109 S195
M82 ;absolute extrusion mode
G28 ;Home
G1 Z15.0 F2000 ;Move the platform
G92 E0
G92 E0
G1 F2700 E-6.5
;LAYER_COUNT:66
;LAYER:0
M107
M204 S1000
G0 F7500 X86.462 Y87.632 Z0.3
;TYPE:SKIRT
G1 F2700 E0
G1 F1500 X87.167 Y86.994 E0.04744
G1 X87.953 Y86.299 E0.09978
G1 X89.931 Y84.453 E0.23476
G1 X91.866 Y82.539 E0.37055
G1 X93.781 Y80.537 E0.50877
G1 X95.607 Y78.516 E0.64465
G1 X97.417 Y76.394 E0.7838
G1 X99.093 Y74.315 E0.91703
G1 X100.775 Y72.1 E1.05579
G1 X102.311 Y69.958 E1.18729
G1 X102.433 Y69.782 E1.19797
G1 X102.753 Y69.391 E1.22318
G1 X103.131 Y69.056 E1.24838
G1 X103.557 Y68.784 E1.27359
G1 X104.021 Y68.582 E1.29884
G1 X104.511 Y68.457 E1.32407
G1 X104.971 Y68.41 E1.34714
G1 X105.384 Y68.4 E1.36775
G1 X144.393 Y68.4 E3.31392
G1 X145.091 Y68.41 E3.34874
G1 X145.594 Y68.457 E3.37395
G1 X146.084 Y68.583 E3.39919
G1 X146.548 Y68.785 E3.42444
G1 X146.974 Y69.057 E3.44965
G1 X147.352 Y69.392 E3.47485
G1 X147.672 Y69.783 E3.50006
G1 X147.927 Y70.22 E3.5253
G1 X148.11 Y70.691 E3.55051
G1 X148.217 Y71.185 E3.57573
G1 X148.244 Y71.52 E3.5925
G1 X148.254 Y71.93 E3.61296
G1 X148.254 Y147.704 E7.39334
G1 X148.245 Y148.431 E7.42961
G1 X148.199 Y148.934 E7.45481
G1 X148.074 Y149.424 E7.48004
G1 X147.873 Y149.888 E7.50527
G1 X147.602 Y150.315 E7.5305
G1 X147.267 Y150.694 E7.55573
G1 X146.877 Y151.015 E7.58093
G1 X146.441 Y151.271 E7.60616
G1 X145.97 Y151.454 E7.63137
G1 X145.476 Y151.562 E7.6566
G1 X145.135 Y151.59 E7.67367
G1 X144.724 Y151.6 E7.69418
G1 X105.715 Y151.6 E9.64034
G1 X105.013 Y151.59 E9.67537
G1 X104.51 Y151.543 E9.70057
G1 X104.02 Y151.417 E9.72582
G1 X103.557 Y151.215 E9.75102
G1 X103.13 Y150.944 E9.77625
G1 X102.752 Y150.608 E9.80148
G1 X102.46 Y150.257 E9.82426
G1 X101.803 Y149.341 E9.8805
G1 X101.49 Y148.891 E9.90785
G1 X99.832 Y146.65 E10.04692
G1 X98.178 Y144.54 E10.18068
G1 X96.393 Y142.393 E10.31998
G1 X94.615 Y140.374 E10.4542
G1 X92.72 Y138.337 E10.593
G1 X90.838 Y136.428 E10.72674
G1 X88.827 Y134.501 E10.8657
G1 X86.761 Y132.631 E11.00472
G1 X86.495 Y132.397 E11.0224
G1 X86.143 Y132.034 E11.04762
G1 X85.853 Y131.62 E11.07284
G1 X85.631 Y131.166 E11.09805
G1 X85.484 Y130.682 E11.12329
G1 X85.41 Y130.083 E11.1534
G1 X85.4 Y129.67 E11.17401
G1 X85.4 Y90.661 E13.12018
G1 X85.41 Y89.958 E13.15525
G1 X85.457 Y89.455 E13.18046
G1 X85.583 Y88.965 E13.2057
G1 X85.785 Y88.502 E13.2309
G1 X86.056 Y88.075 E13.25613
G1 X86.462 Y87.632 E13.28611
G1 F2700 E6.78611
;MESH:ProfileConstruct-DoubleProfileNutScrewM5.stl
G0 F7500 X94.741 Y98.64
G0 X93.693 Y97.592
G0 X94.934 Y97.186
G0 X96.099 Y96.952
G0 X97.266 Y97.186
G0 X98.254 Y97.845
G0 X98.914 Y98.834
G0 X99.148 Y100
G0 X98.998 Y100.797
;TYPE:WALL-INNER
G1 F2700 E13.28611
G1 F1500 X99.15 Y100.816 E13.29375
G1 X99.312 Y100 E13.33526
G1 X99.067 Y98.771 E13.39778
G1 X98.37 Y97.729 E13.46032
G1 X97.329 Y97.033 E13.5228
G1 X96.099 Y96.788 E13.58537
G1 X94.871 Y97.033 E13.64784
G1 X93.83 Y97.729 E13.71032
G1 X93.133 Y98.771 E13.77286
G1 X92.888 Y100 E13.83538
G1 X93.133 Y101.229 E13.8979
G1 X93.83 Y102.27 E13.96041
G1 X94.871 Y102.967 E14.02291
G1 X95.625 Y103.116 E14.06125
G1 X95.937 Y103.138 E14.07686
G1 X96.311 Y103.115 E14.09555
G1 X96.61 Y103.069 E14.11064
G1 X96.96 Y102.974 E14.12874
G1 X97.234 Y102.866 E14.14343
G1 X97.523 Y102.715 E14.1597
G1 X97.784 Y102.545 E14.17524
G1 X98.032 Y102.345 E14.19113
G1 X98.265 Y102.112 E14.20757
G1 X98.458 Y101.869 E14.22305
G1 X98.631 Y101.6 E14.23901
G1 X98.772 Y101.321 E14.25461
G1 X98.867 Y101.066 E14.26818
G1 X98.998 Y100.797 E14.28311
G0 F7500 X98.83 Y100.373
;TYPE:WALL-OUTER
G1 F1500 X98.904 Y100 E14.30208
G1 X98.69 Y98.927 E14.35667
G1 X98.082 Y98.017 E14.41127
G1 X97.173 Y97.41 E14.4658
G1 X96.099 Y97.196 E14.52044
G1 X95.027 Y97.41 E14.57497
G1 X94.118 Y98.017 E14.62951
G1 X93.51 Y98.927 E14.68411
G1 X93.296 Y100 E14.73869
G1 X93.51 Y101.073 E14.79328
G1 X94.118 Y101.982 E14.84784
G1 X95.027 Y102.59 E14.9024
G1 X95.678 Y102.719 E14.93551
G1 X95.939 Y102.737 E14.94856
G1 X96.268 Y102.717 E14.96501
G1 X96.527 Y102.677 E14.97808
G1 X96.834 Y102.594 E14.99395
G1 X97.067 Y102.502 E15.00644
G1 X97.321 Y102.369 E15.02075
G1 X97.549 Y102.221 E15.03431
G1 X97.764 Y102.047 E15.04811
G1 X97.966 Y101.845 E15.06236
G1 X98.132 Y101.636 E15.07568
G1 X98.283 Y101.401 E15.08961
G1 X98.405 Y101.16 E15.10309
G1 X98.499 Y100.908 E15.11651
G1 X98.621 Y100.66 E15.1303
G1 X98.735 Y100.411 E15.14396
G1 X98.758 Y100.364 E15.14657
G1 X98.83 Y100.373 E15.15019
G0 F7500 X98.868 Y100.177
G0 X99.299 Y100.263
G1 F2700 E8.65019
G0 F7500 X99.307 Y101.033
G0 X97.661 Y100.685
G0 X96.836 Y118.223
G0 X97.404 Y116.853
G0 X98.254 Y117.846
G0 X98.914 Y118.834
G0 X99.148 Y120
G0 X98.998 Y120.797
;TYPE:WALL-INNER
G1 F2700 E15.15019
G1 F1500 X99.15 Y120.816 E15.15783
G1 X99.312 Y120 E15.19934
G1 X99.067 Y118.771 E15.26186
G1 X98.37 Y117.73 E15.32436
G1 X97.329 Y117.033 E15.38686
G1 X96.099 Y116.788 E15.44943
G1 X94.866 Y117.035 E15.51217
G1 X93.83 Y117.73 E15.57441
G1 X93.133 Y118.771 E15.63691
G1 X92.888 Y120 E15.69943
G1 X93.133 Y121.229 E15.76195
G1 X93.83 Y122.271 E15.8245
G1 X94.871 Y122.967 E15.88697
G1 X95.625 Y123.116 E15.92532
G1 X95.937 Y123.138 E15.94092
G1 X96.311 Y123.115 E15.95962
G1 X96.61 Y123.069 E15.97471
G1 X96.96 Y122.974 E15.9928
G1 X97.234 Y122.866 E16.00749
G1 X97.521 Y122.716 E16.02365
G1 X97.785 Y122.544 E16.03937
G1 X98.033 Y122.344 E16.05527
G1 X98.265 Y122.111 E16.07167
G1 X98.456 Y121.87 E16.08701
G1 X98.63 Y121.601 E16.10299
G1 X98.772 Y121.321 E16.11866
G1 X98.867 Y121.066 E16.13223
G1 X98.998 Y120.797 E16.14716
G0 F7500 X98.83 Y120.373
;TYPE:WALL-OUTER
G1 F1500 X98.904 Y120 E16.16613
G1 X98.69 Y118.927 E16.22072
G1 X98.082 Y118.018 E16.27528
G1 X97.173 Y117.41 E16.32984
G1 X96.099 Y117.196 E16.38447
G1 X95.023 Y117.412 E16.43923
G1 X94.118 Y118.018 E16.49356
G1 X93.51 Y118.927 E16.54812
G1 X93.296 Y120 E16.60271
G1 X93.51 Y121.073 E16.6573
G1 X94.118 Y121.983 E16.7119
G1 X95.027 Y122.59 E16.76643
G1 X95.678 Y122.719 E16.79954
G1 X95.939 Y122.737 E16.81259
G1 X96.268 Y122.717 E16.82904
G1 X96.527 Y122.677 E16.84211
G1 X96.834 Y122.594 E16.85798
G1 X97.067 Y122.502 E16.87048
G1 X97.319 Y122.37 E16.88467
G1 X97.55 Y122.22 E16.89841
G1 X97.765 Y122.047 E16.91218
G1 X97.965 Y121.845 E16.92636
G1 X98.131 Y121.636 E16.93967
G1 X98.283 Y121.401 E16.95364
G1 X98.405 Y121.16 E16.96711
G1 X98.499 Y120.908 E16.98053
G1 X98.621 Y120.66 E16.99432
G1 X98.735 Y120.411 E17.00798
G1 X98.758 Y120.364 E17.01059
G1 X98.83 Y120.373 E17.01421
G0 F7500 X98.868 Y120.177
G0 X99.299 Y120.263
G1 F2700 E10.51421
G0 F7500 X99.307 Y121.033
G0 X97.884 Y120.189
G0 X104.265 Y121.033
G0 X102.79 Y121.033
G0 X103 Y129.4
;TYPE:WALL-INNER
G1 F2700 E17.01421
G1 F1500 X89.2 Y129.4 E17.7027
G1 X89.2 Y90.6 E19.63844
G1 X103 Y90.6 E20.32692
G1 X103 Y129.4 E22.26266
G0 F7500 X103.4 Y129.8
;TYPE:WALL-OUTER
G1 F1500 X88.8 Y129.8 E22.99106
G1 X88.8 Y90.2 E24.96671
G1 X103.4 Y90.2 E25.69511
G1 X103.4 Y129.8 E27.67076
G0 F7500 X103.2 Y129.8
G0 X102.96 Y129.36
G0 X102.61 Y129.01
;TYPE:SKIN
G1 F1500 X89.59 Y129.01 E28.32033
G1 X89.59 Y90.99 E30.21716
G1 X102.61 Y90.99 E30.86673
G1 X102.61 Y129.01 E32.76355
G1 F2700 E26.26355
G0 F7500 X102.89 Y129.01
G0 X102.79 Y122.633
G0 X104.265 Y122.633
G0 X97.312 Y121.278
G0 X98.408 Y122.238
G0 X97.851 Y122.633
G1 F2700 E32.76355
G0 F7500 X98.015 Y122.86
G1 F1500 X98.294 Y122.634 E32.78147
G1 X98.557 Y122.371 E32.80002
G1 X98.774 Y122.098 E32.81742
G1 X98.969 Y121.796 E32.83536
G1 X99.129 Y121.477 E32.85316
G1 X99.218 Y121.238 E32.86588
G1 X99.462 Y121.249 E32.87807
G1 X99.71 Y120 E32.9416
G1 X99.434 Y118.619 E33.01186
G1 X98.651 Y117.449 E33.0821
G1 X97.481 Y116.666 E33.15233
G1 X96.099 Y116.39 E33.22264
G1 X94.714 Y116.668 E33.29312
G1 X93.549 Y117.449 E33.36309
G1 X92.766 Y118.619 E33.43333
G1 X92.49 Y120 E33.50359
G1 X92.766 Y121.381 E33.57385
G1 X93.549 Y122.552 E33.64413
G1 X94.719 Y123.334 E33.71434
G1 X95.573 Y123.504 E33.75778
G1 X95.935 Y123.528 E33.77588
G1 X96.352 Y123.503 E33.79672
G1 X96.691 Y123.451 E33.81384
G1 X97.083 Y123.345 E33.83409
G1 X97.396 Y123.221 E33.85089
G1 X97.718 Y123.053 E33.86901
G1 X98.015 Y122.86 E33.88668
G1 F2700 E27.38668
G0 F7500 X97.851 Y122.633
G0 X99.013 Y120.627
G0 X99.148 Y120
G0 X98.914 Y118.834
G0 X98.254 Y117.846
G0 X97.454 Y117.312
G0 X96.099 Y116.594
G0 X96.102 Y118.077
G0 X95.967 Y101.87
G0 X95.936 Y103.328
G0 X96.634 Y103.176
G1 F2700 E33.88668
G0 F7500 X96.691 Y103.451
G1 F1500 X97.083 Y103.345 E33.90694
G1 X97.396 Y103.221 E33.92374
G1 X97.72 Y103.052 E33.94197
G1 X98.014 Y102.861 E33.95946
G1 X98.293 Y102.636 E33.97734
G1 X98.557 Y102.372 E33.99597
G1 X98.776 Y102.097 E34.01351
G1 X98.97 Y101.793 E34.0315
G1 X99.13 Y101.477 E34.04917
G1 X99.218 Y101.238 E34.06188
G1 X99.462 Y101.249 E34.07406
G1 X99.71 Y100 E34.13759
G1 X99.434 Y98.619 E34.20785
G1 X98.651 Y97.448 E34.27813
G1 X97.481 Y96.666 E34.34834
G1 X96.099 Y96.39 E34.41865
G1 X94.719 Y96.666 E34.48886
G1 X93.549 Y97.448 E34.55907
G1 X92.766 Y98.619 E34.62935
G1 X92.49 Y100 E34.69961
G1 X92.766 Y101.381 E34.76987
G1 X93.549 Y102.551 E34.84011
G1 X94.719 Y103.334 E34.91034
G1 X95.573 Y103.504 E34.95379
G1 X95.935 Y103.528 E34.97189
G1 X96.352 Y103.503 E34.99273
G1 X96.691 Y103.451 E35.00984
G1 F2700 E28.50984
G0 F7500 X96.634 Y103.176
G0 X97.924 Y102.225
G0 X98.491 Y101.519
G0 X99.013 Y100.627
G0 X99.148 Y100
G0 X98.959 Y99.056
G0 X98.507 Y97.592
G0 X97.459 Y98.64
G0 X104.265 Y97.592
G0 X102.79 Y97.592
G0 X102.89 Y91.701
G1 F2700 E35.00984
G0 F7500 X102.449 Y91.701
G1 F1500 X101.897 Y91.149 E35.04879
G0 F7500 X101.331 Y91.149
G1 F1500 X102.449 Y92.267 E35.12767
G0 F7500 X102.449 Y92.833
G1 F1500 X100.766 Y91.149 E35.24645
G0 F7500 X100.2 Y91.149
G1 F1500 X102.449 Y93.398 E35.40513
G0 F7500 X102.449 Y93.964
G1 F1500 X99.634 Y91.149 E35.60374
G0 F7500 X99.069 Y91.149
G1 F1500 X102.449 Y94.53 E35.84225
G0 F7500 X102.449 Y95.095
G1 F1500 X98.503 Y91.149 E36.12066
G0 F7500 X97.937 Y91.149
G1 F1500 X102.449 Y95.661 E36.43901
G0 F7500 X102.449 Y96.227
G1 F1500 X97.372 Y91.149 E36.79725
G0 F7500 X96.806 Y91.149
G1 F1500 X102.449 Y96.793 E37.19543
G0 F7500 X102.449 Y97.358
G1 F1500 X96.24 Y91.149 E37.63351
G0 F7500 X95.675 Y91.149
G1 F1500 X102.449 Y97.924 E38.11149
G0 F7500 X102.449 Y98.49
G1 F1500 X95.109 Y91.149 E38.6294
G0 F7500 X94.543 Y91.149
G1 F1500 X102.449 Y99.055 E39.18721
G0 F7500 X102.449 Y99.621
G1 F1500 X93.978 Y91.149 E39.78492
G0 F7500 X93.412 Y91.149
G1 F1500 X102.449 Y100.187 E40.42257
G0 F7500 X102.449 Y100.752
G1 F1500 X92.846 Y91.149 E41.10011
G0 F7500 X92.28 Y91.149
G1 F1500 X97.857 Y96.726 E41.4936
G0 F7500 X96.966 Y96.4
G1 F1500 X91.715 Y91.149 E41.86408
G0 F7500 X91.149 Y91.149
G1 F1500 X96.258 Y96.258 E42.22455
G0 F7500 X95.733 Y96.299
G1 F1500 X90.583 Y91.149 E42.58791
G0 F7500 X90.018 Y91.149
G1 F1500 X95.262 Y96.394 E42.95794
G0 F7500 X94.791 Y96.488
G1 F1500 X89.75 Y91.447 E43.31361
G0 F7500 X89.75 Y92.012
G1 F1500 X94.414 Y96.677 E43.64272
G0 F7500 X94.074 Y96.903
G1 F1500 X89.75 Y92.578 E43.94783
G0 F7500 X89.75 Y93.144
G1 F1500 X93.736 Y97.13 E44.22907
G0 F7500 X93.409 Y97.369
G1 F1500 X89.75 Y93.71 E44.48723
G0 F7500 X89.75 Y94.275
G1 F1500 X93.183 Y97.708 E44.72945
G0 F7500 X92.956 Y98.047
G1 F1500 X89.75 Y94.841 E44.95565
G0 F7500 X89.75 Y95.407
G1 F1500 X92.729 Y98.386 E45.16583
G0 F7500 X92.569 Y98.792
G1 F1500 X89.75 Y95.972 E45.36476
G0 F7500 X89.75 Y96.538
G1 F1500 X92.474 Y99.262 E45.55695
G0 F7500 X92.38 Y99.734
G1 F1500 X89.75 Y97.104 E45.74252
G0 F7500 X89.75 Y97.669
G1 F1500 X92.389 Y100.308 E45.92871
G0 F7500 X92.53 Y101.015
G1 F1500 X89.75 Y98.235 E46.12485
G0 F7500 X89.75 Y98.801
G1 F1500 X93.067 Y102.118 E46.35889
G0 F7500 X93.433 Y101.874
G0 X94.224 Y102.667
G0 X93.98 Y103.031
G1 F1500 X102.449 Y111.5 E46.95642
G0 F7500 X102.449 Y110.935
G1 F1500 X95.083 Y103.569 E47.47613
G0 F7500 X95.756 Y103.675
G1 F1500 X102.449 Y110.369 E47.94839
G0 F7500 X102.449 Y109.803
G1 F1500 X96.31 Y103.664 E48.38153
G0 F7500 X96.798 Y103.586
G1 F1500 X102.449 Y109.238 E48.78028
G0 F7500 X102.449 Y108.672
G1 F1500 X97.234 Y103.456 E49.14826
G0 F7500 X97.625 Y103.282
G1 F1500 X102.449 Y108.106 E49.48862
G0 F7500 X102.449 Y107.541
G1 F1500 X97.98 Y103.072 E49.80393
G0 F7500 X98.305 Y102.831
G1 F1500 X102.449 Y106.975 E50.09631
G0 F7500 X102.449 Y106.409
G1 F1500 X98.597 Y102.557 E50.36809
G0 F7500 X98.856 Y102.25
G1 F1500 X102.449 Y105.843 E50.6216
G0 F7500 X102.449 Y105.278
G1 F1500 X99.082 Y101.911 E50.85916
G0 F7500 X99.276 Y101.539
G1 F1500 X102.449 Y104.712 E51.08303
G0 F7500 X102.449 Y104.146
G1 F1500 X99.612 Y101.31 E51.28316
G0 F7500 X99.706 Y100.837
G1 F1500 X102.449 Y103.581 E51.47673
G0 F7500 X102.449 Y103.015
G1 F1500 X99.8 Y100.366 E51.66363
G0 F7500 X99.841 Y99.841
G1 F1500 X102.449 Y102.449 E51.84764
G0 F7500 X102.449 Y101.884
G1 F1500 X99.699 Y99.133 E52.0417
G0 F7500 X99.371 Y98.24
G1 F1500 X102.449 Y101.318 E52.25887
G0 F7500 X102.89 Y101.318
G0 X102.89 Y112.066
G0 X102.449 Y112.066
G1 F1500 X89.75 Y99.366 E53.15489
G0 F7500 X89.75 Y99.932
G1 F1500 X102.449 Y112.632 E54.05091
G0 F7500 X102.449 Y113.197
G1 F1500 X89.75 Y100.498 E54.94689
G0 F7500 X89.75 Y101.063
G1 F1500 X102.449 Y113.763 E55.84291
G0 F7500 X102.449 Y114.329
G1 F1500 X89.75 Y101.629 E56.73893
G0 F7500 X89.75 Y102.195
G1 F1500 X102.449 Y114.894 E57.63491
G0 F7500 X102.449 Y115.46
G1 F1500 X89.75 Y102.761 E58.53089
G0 F7500 X89.75 Y103.326
G1 F1500 X102.449 Y116.026 E59.42691
G0 F7500 X102.449 Y116.592
G1 F1500 X89.75 Y103.892 E60.32293
G0 F7500 X89.75 Y104.458
G1 F1500 X102.449 Y117.157 E61.21891
G0 F7500 X102.449 Y117.723
G1 F1500 X89.75 Y105.023 E62.11493
G0 F7500 X89.75 Y105.589
G1 F1500 X102.449 Y118.289 E63.01095
G0 F7500 X102.449 Y118.854
G1 F1500 X89.75 Y106.155 E63.90693
G0 F7500 X89.75 Y106.72
G1 F1500 X102.449 Y119.42 E64.80295
G0 F7500 X102.449 Y119.986
G1 F1500 X89.75 Y107.286 E65.69897
G0 F7500 X89.75 Y107.852
G1 F1500 X102.449 Y120.551 E66.59495
G0 F7500 X102.449 Y121.117
G1 F1500 X98.968 Y117.636 E66.84056
G0 F7500 X98.462 Y117.13
G1 F1500 X89.75 Y108.417 E67.45527
G0 F7500 X89.75 Y108.983
G1 F1500 X97.216 Y116.449 E67.98204
G0 F7500 X96.509 Y116.308
G1 F1500 X89.75 Y109.549 E68.45892
G0 F7500 X89.75 Y110.114
G1 F1500 X95.901 Y116.266 E68.89294
G0 F7500 X95.43 Y116.36
G1 F1500 X89.75 Y110.68 E69.2937
G0 F7500 X89.75 Y111.246
G1 F1500 X94.959 Y116.455 E69.66122
G0 F7500 X94.533 Y116.595
G1 F1500 X89.75 Y111.811 E69.99872
G0 F7500 X89.75 Y112.377
G1 F1500 X94.195 Y116.822 E70.31234
G0 F7500 X93.856 Y117.049
G1 F1500 X89.75 Y112.943 E70.60204
G0 F7500 X89.75 Y113.509
G1 F1500 X93.517 Y117.276 E70.86782
G0 F7500 X93.263 Y117.588
G1 F1500 X89.75 Y114.074 E71.11572
G0 F7500 X89.75 Y114.64
G1 F1500 X93.036 Y117.927 E71.3476
G0 F7500 X92.81 Y118.266
G1 F1500 X89.75 Y115.206 E71.5635
G0 F7500 X89.75 Y115.771
G1 F1500 X92.602 Y118.624 E71.76476
G0 F7500 X92.508 Y119.095
G1 F1500 X89.75 Y116.337 E71.95935
G0 F7500 X89.75 Y116.903
G1 F1500 X92.413 Y119.566 E72.14724
G0 F7500 X92.338 Y120.057
G1 F1500 X89.75 Y117.468 E72.32987
G0 F7500 X89.75 Y118.034
G1 F1500 X92.48 Y120.764 E72.52249
G0 F7500 X92.662 Y121.512
G1 F1500 X89.75 Y118.6 E72.72795
G0 F7500 X89.75 Y119.165
G1 F1500 X99.433 Y128.848 E73.41113
G0 F7500 X99.999 Y128.848
G1 F1500 X94.588 Y123.438 E73.79287
G0 F7500 X95.334 Y123.619
G1 F1500 X100.564 Y128.848 E74.16184
G0 F7500 X101.13 Y128.848
G1 F1500 X95.967 Y123.685 E74.52612
G0 F7500 X96.489 Y123.642
G1 F1500 X101.696 Y128.848 E74.89347
G0 F7500 X102.261 Y128.848
G1 F1500 X96.957 Y123.544 E75.26769
G0 F7500 X97.378 Y123.4
G1 F1500 X102.449 Y128.471 E75.62548
G0 F7500 X102.449 Y127.905
G1 F1500 X97.758 Y123.214 E75.95645
G0 F7500 X98.102 Y122.992
G1 F1500 X102.449 Y127.34 E76.26319
G0 F7500 X102.449 Y126.774
G1 F1500 X98.414 Y122.738 E76.54792
G0 F7500 X98.694 Y122.453
G1 F1500 X102.449 Y126.208 E76.81286
G0 F7500 X102.449 Y125.642
G1 F1500 X98.94 Y122.133 E77.06043
