;FLAVOR:Marlin
;TIME:14121
;Filament used: 8.73085m
;Layer height: 0.15
;MINX:79.3
;MINY:61.3
;MINZ:0.3
;MAXX:140.7
;MAXY:158.7
;MAXZ:40.05
;Generated with Cura_SteamEngine 4.13.1
M140 S60
M105
M190 S60
M104 S195
M105
M109 S195
M82 ;absolute extrusion mode
G28 ;Home
G1 Z15.0 F2000 ;Move the platform
G92 E0
G92 E0
G1 F2700 E-6.5
;LAYER_COUNT:266
;LAYER:0
M107
M204 S1000
G0 F7500 X81.18 Y64.022 Z0.3
;TYPE:SKIRT
G1 F2700 E0
G1 F1500 X81.723 Y63.449 E0.03938
G1 X82.322 Y62.934 E0.0788
G1 X82.97 Y62.483 E0.11818
G1 X83.661 Y62.099 E0.15762
G1 X84.386 Y61.787 E0.197
G1 X85.139 Y61.55 E0.23638
G1 X85.913 Y61.391 E0.27581
G1 X86.698 Y61.31 E0.31518
G1 X87.1 Y61.3 E0.33524
G1 X100.433 Y61.3 E1.00043
G1 X101.222 Y61.34 E1.03984
G1 X102.002 Y61.459 E1.0792
G1 X102.767 Y61.657 E1.11863
G1 X103.507 Y61.931 E1.158
G1 X104.216 Y62.279 E1.1974
G1 X104.887 Y62.697 E1.23684
G1 X105.511 Y63.18 E1.27621
G1 X106.084 Y63.723 E1.31559
G1 X106.599 Y64.322 E1.355
G1 X107.05 Y64.97 E1.39439
G1 X107.434 Y65.661 E1.43383
G1 X107.746 Y66.386 E1.47321
G1 X107.983 Y67.139 E1.51259
G1 X108.142 Y67.913 E1.55201
G1 X108.223 Y68.698 E1.59139
G1 X108.233 Y69.1 E1.61145
G1 X108.233 Y97.3 E3.01835
G1 X132.9 Y97.3 E4.24899
G1 X133.689 Y97.34 E4.28841
G1 X134.469 Y97.459 E4.32777
G1 X135.234 Y97.657 E4.3672
G1 X135.974 Y97.931 E4.40656
G1 X136.683 Y98.279 E4.44597
G1 X137.354 Y98.697 E4.48541
G1 X137.978 Y99.18 E4.52478
G1 X138.551 Y99.723 E4.56416
G1 X139.066 Y100.322 E4.60357
G1 X139.517 Y100.97 E4.64296
G1 X139.901 Y101.661 E4.6824
G1 X140.213 Y102.386 E4.72178
G1 X140.45 Y103.139 E4.76116
G1 X140.609 Y103.913 E4.80058
G1 X140.69 Y104.698 E4.83995
G1 X140.7 Y105.1 E4.86002
G1 X140.7 Y150.9 E7.14499
G1 X140.66 Y151.689 E7.1844
G1 X140.541 Y152.469 E7.22377
G1 X140.343 Y153.234 E7.26319
G1 X140.069 Y153.974 E7.30256
G1 X139.721 Y154.683 E7.34196
G1 X139.303 Y155.354 E7.3814
G1 X138.82 Y155.978 E7.42077
G1 X138.277 Y156.551 E7.46015
G1 X137.678 Y157.066 E7.49956
G1 X137.03 Y157.517 E7.53895
G1 X136.339 Y157.901 E7.57839
G1 X135.614 Y158.213 E7.61777
G1 X134.861 Y158.45 E7.65715
G1 X134.087 Y158.609 E7.69657
G1 X133.302 Y158.69 E7.73595
G1 X132.9 Y158.7 E7.75601
G1 X87.1 Y158.7 E10.04098
G1 X86.311 Y158.66 E10.08039
G1 X85.531 Y158.541 E10.11976
G1 X84.766 Y158.343 E10.15918
G1 X84.026 Y158.069 E10.19855
G1 X83.317 Y157.721 E10.23795
G1 X82.646 Y157.303 E10.27739
G1 X82.022 Y156.82 E10.31676
G1 X81.449 Y156.277 E10.35615
G1 X80.934 Y155.678 E10.39556
G1 X80.483 Y155.03 E10.43495
G1 X80.099 Y154.339 E10.47438
G1 X79.787 Y153.614 E10.51376
G1 X79.55 Y152.861 E10.55315
G1 X79.391 Y152.087 E10.59257
G1 X79.31 Y151.302 E10.63194
G1 X79.3 Y150.9 E10.652
G1 X79.3 Y69.1 E14.73302
G1 X79.34 Y68.311 E14.77243
G1 X79.459 Y67.531 E14.8118
G1 X79.657 Y66.766 E14.85122
G1 X79.931 Y66.026 E14.89059
G1 X80.279 Y65.317 E14.92999
G1 X80.697 Y64.646 E14.96943
G1 X81.18 Y64.022 E15.0088
G0 F7500 X81.575 Y64.177
G1 F1500 X82.116 Y63.63 E15.04719
G1 X82.711 Y63.142 E15.08558
G1 X83.353 Y62.719 E15.12393
G1 X84.036 Y62.364 E15.16234
G1 X84.751 Y62.083 E15.20066
G1 X85.493 Y61.877 E15.23908
G1 X86.251 Y61.749 E15.27744
G1 X87.1 Y61.7 E15.31986
G1 X100.433 Y61.7 E15.98505
G1 X101.201 Y61.74 E16.02342
G1 X101.961 Y61.859 E16.06179
G1 X102.704 Y62.057 E16.10016
G1 X103.423 Y62.331 E16.13854
G1 X104.109 Y62.678 E16.1769
G1 X104.756 Y63.094 E16.21527
G1 X105.356 Y63.575 E16.25364
G1 X105.903 Y64.116 E16.29202
G1 X106.391 Y64.711 E16.33041
G1 X106.814 Y65.353 E16.36877
G1 X107.169 Y66.036 E16.40717
G1 X107.45 Y66.751 E16.4455
G1 X107.656 Y67.493 E16.48392
G1 X107.784 Y68.251 E16.52227
G1 X107.833 Y69.1 E16.5647
G1 X107.833 Y97.7 E17.99156
G1 X132.9 Y97.7 E19.24216
G1 X133.668 Y97.74 E19.28052
G1 X134.428 Y97.859 E19.3189
G1 X135.171 Y98.057 E19.35726
G1 X135.89 Y98.331 E19.39565
G1 X136.576 Y98.678 E19.43401
G1 X137.223 Y99.094 E19.47238
G1 X137.823 Y99.575 E19.51075
G1 X138.37 Y100.116 E19.54913
G1 X138.858 Y100.711 E19.58752
G1 X139.281 Y101.353 E19.62588
G1 X139.636 Y102.036 E19.66428
G1 X139.917 Y102.751 E19.70261
G1 X140.123 Y103.493 E19.74103
G1 X140.251 Y104.251 E19.77938
G1 X140.3 Y105.1 E19.82181
G1 X140.3 Y150.9 E22.10678
G1 X140.26 Y151.668 E22.14515
G1 X140.141 Y152.428 E22.18352
G1 X139.943 Y153.171 E22.22189
G1 X139.669 Y153.89 E22.26027
G1 X139.322 Y154.576 E22.29863
G1 X138.906 Y155.223 E22.337
G1 X138.425 Y155.823 E22.37537
G1 X137.884 Y156.37 E22.41375
G1 X137.289 Y156.858 E22.45214
G1 X136.647 Y157.281 E22.4905
G1 X135.964 Y157.636 E22.5289
G1 X135.249 Y157.917 E22.56723
G1 X134.507 Y158.123 E22.60565
G1 X133.749 Y158.251 E22.644
G1 X132.9 Y158.3 E22.68643
G1 X87.1 Y158.3 E24.9714
G1 X86.332 Y158.26 E25.00977
G1 X85.572 Y158.141 E25.04815
G1 X84.829 Y157.943 E25.08651
G1 X84.11 Y157.669 E25.1249
G1 X83.424 Y157.322 E25.16325
G1 X82.777 Y156.906 E25.20163
G1 X82.177 Y156.425 E25.23999
G1 X81.63 Y155.884 E25.27837
G1 X81.142 Y155.289 E25.31677
G1 X80.719 Y154.647 E25.35512
G1 X80.364 Y153.964 E25.39353
G1 X80.083 Y153.249 E25.43185
G1 X79.877 Y152.507 E25.47027
G1 X79.749 Y151.749 E25.50862
G1 X79.7 Y150.9 E25.55105
G1 X79.7 Y69.1 E29.63207
G1 X79.74 Y68.332 E29.67044
G1 X79.859 Y67.572 E29.70882
G1 X80.057 Y66.829 E29.74718
G1 X80.331 Y66.11 E29.78557
G1 X80.678 Y65.424 E29.82392
G1 X81.094 Y64.777 E29.86229
G1 X81.575 Y64.177 E29.90066
G0 F7500 X81.971 Y64.337
G1 F1500 X82.508 Y63.816 E29.93799
G1 X83.098 Y63.357 E29.97528
G1 X83.734 Y62.962 E30.01263
G1 X84.408 Y62.638 E30.04994
G1 X85.113 Y62.388 E30.08726
G1 X85.841 Y62.214 E30.1246
G1 X86.583 Y62.119 E30.16193
G1 X87.1 Y62.1 E30.18774
G1 X100.433 Y62.1 E30.85292
G1 X101.18 Y62.14 E30.89024
G1 X101.918 Y62.259 E30.92754
G1 X102.64 Y62.457 E30.96489
G1 X103.336 Y62.73 E31.00219
G1 X103.999 Y63.077 E31.03952
G1 X104.622 Y63.492 E31.07687
G1 X105.196 Y63.971 E31.11417
G1 X105.717 Y64.508 E31.15149
G1 X106.176 Y65.098 E31.18879
G1 X106.571 Y65.734 E31.22614
G1 X106.895 Y66.408 E31.26345
G1 X107.145 Y67.113 E31.30077
G1 X107.319 Y67.841 E31.33811
G1 X107.414 Y68.583 E31.37543
G1 X107.433 Y69.1 E31.40124
G1 X107.433 Y98.1 E32.84806
G1 X132.9 Y98.1 E34.11861
G1 X133.647 Y98.14 E34.15593
G1 X134.385 Y98.259 E34.19323
G1 X135.107 Y98.457 E34.23058
G1 X135.803 Y98.73 E34.26788
G1 X136.466 Y99.077 E34.30521
G1 X137.089 Y99.492 E34.34256
G1 X137.663 Y99.971 E34.37986
G1 X138.184 Y100.508 E34.41718
G1 X138.643 Y101.098 E34.45448
G1 X139.038 Y101.734 E34.49183
G1 X139.362 Y102.408 E34.52914
G1 X139.612 Y103.113 E34.56646
G1 X139.786 Y103.841 E34.6038
G1 X139.881 Y104.583 E34.64112
G1 X139.9 Y105.1 E34.66693
G1 X139.9 Y150.9 E36.9519
G1 X139.86 Y151.647 E36.98922
G1 X139.741 Y152.385 E37.02652
G1 X139.543 Y153.107 E37.06387
G1 X139.27 Y153.803 E37.10117
G1 X138.923 Y154.466 E37.1385
G1 X138.508 Y155.089 E37.17585
G1 X138.029 Y155.663 E37.21315
G1 X137.492 Y156.184 E37.25048
G1 X136.902 Y156.643 E37.28777
G1 X136.266 Y157.038 E37.32512
G1 X135.592 Y157.362 E37.36243
G1 X134.887 Y157.612 E37.39975
G1 X134.159 Y157.786 E37.43709
G1 X133.417 Y157.881 E37.47441
G1 X132.9 Y157.9 E37.50022
G1 X87.1 Y157.9 E39.78519
G1 X86.353 Y157.86 E39.82252
G1 X85.615 Y157.741 E39.85981
G1 X84.893 Y157.543 E39.89716
G1 X84.197 Y157.27 E39.93446
G1 X83.534 Y156.923 E39.97179
G1 X82.911 Y156.508 E40.00914
G1 X82.337 Y156.029 E40.04644
G1 X81.816 Y155.492 E40.08377
G1 X81.357 Y154.902 E40.12106
G1 X80.962 Y154.266 E40.15841
G1 X80.638 Y153.592 E40.19572
G1 X80.388 Y152.887 E40.23304
G1 X80.214 Y152.159 E40.27038
G1 X80.119 Y151.417 E40.3077
G1 X80.1 Y150.9 E40.33351
G1 X80.1 Y69.1 E44.41453
G1 X80.14 Y68.353 E44.45185
G1 X80.259 Y67.615 E44.48915
G1 X80.457 Y66.893 E44.5265
G1 X80.73 Y66.197 E44.5638
G1 X81.077 Y65.534 E44.60113
G1 X81.492 Y64.911 E44.63848
G1 X81.971 Y64.337 E44.67578
G0 F7500 X81.889 Y65.05
G1 F1500 X82.365 Y64.502 E44.71199
G1 X82.899 Y64.009 E44.74825
G1 X83.484 Y63.579 E44.78447
G1 X84.113 Y63.215 E44.82073
G1 X84.778 Y62.922 E44.85698
G1 X85.471 Y62.704 E44.89323
G1 X86.183 Y62.564 E44.92943
G1 X87.1 Y62.5 E44.97529
G1 X100.433 Y62.5 E45.64048
G1 X101.158 Y62.54 E45.6767
G1 X101.875 Y62.659 E45.71296
G1 X102.574 Y62.857 E45.74921
G1 X103.247 Y63.13 E45.78544
G1 X103.886 Y63.475 E45.82167
G1 X104.483 Y63.889 E45.85792
G1 X105.031 Y64.365 E45.89413
G1 X105.524 Y64.899 E45.93039
G1 X105.954 Y65.484 E45.96661
G1 X106.318 Y66.113 E46.00287
G1 X106.611 Y66.778 E46.03912
G1 X106.829 Y67.471 E46.07537
G1 X106.969 Y68.183 E46.11157
G1 X107.033 Y69.1 E46.15743
G1 X107.033 Y98.5 E47.6242
G1 X132.9 Y98.5 E48.91471
G1 X133.625 Y98.54 E48.95094
G1 X134.342 Y98.659 E48.9872
G1 X135.041 Y98.857 E49.02344
G1 X135.714 Y99.13 E49.05968
G1 X136.353 Y99.475 E49.0959
G1 X136.95 Y99.889 E49.13215
G1 X137.498 Y100.365 E49.16836
G1 X137.991 Y100.899 E49.20462
G1 X138.421 Y101.484 E49.24084
G1 X138.785 Y102.113 E49.2771
G1 X139.078 Y102.778 E49.31336
G1 X139.296 Y103.471 E49.3496
G1 X139.436 Y104.183 E49.3858
G1 X139.5 Y105.1 E49.43166
G1 X139.5 Y150.9 E51.71663
G1 X139.46 Y151.625 E51.75286
G1 X139.341 Y152.342 E51.78912
G1 X139.143 Y153.041 E51.82537
G1 X138.87 Y153.714 E51.8616
G1 X138.525 Y154.353 E51.89783
G1 X138.111 Y154.95 E51.93407
G1 X137.635 Y155.498 E51.97029
G1 X137.101 Y155.991 E52.00655
G1 X136.516 Y156.421 E52.04277
G1 X135.887 Y156.785 E52.07902
G1 X135.222 Y157.078 E52.11528
G1 X134.529 Y157.296 E52.15152
G1 X133.817 Y157.436 E52.18773
G1 X132.9 Y157.5 E52.23359
G1 X87.1 Y157.5 E54.51856
G1 X86.375 Y157.46 E54.55478
G1 X85.658 Y157.341 E54.59104
G1 X84.959 Y157.143 E54.62729
G1 X84.286 Y156.87 E54.66352
G1 X83.647 Y156.525 E54.69975
G1 X83.05 Y156.111 E54.736
G1 X82.502 Y155.635 E54.77221
G1 X82.009 Y155.101 E54.80847
G1 X81.579 Y154.516 E54.84469
G1 X81.215 Y153.887 E54.88095
G1 X80.922 Y153.222 E54.9172
G1 X80.704 Y152.529 E54.95345
G1 X80.564 Y151.817 E54.98965
G1 X80.5 Y150.9 E55.03551
G1 X80.5 Y69.1 E59.11653
G1 X80.54 Y68.375 E59.15275
G1 X80.659 Y67.658 E59.18901
G1 X80.857 Y66.959 E59.22526
G1 X81.13 Y66.286 E59.26149
G1 X81.475 Y65.647 E59.29772
G1 X81.889 Y65.05 E59.33397
G0 F7500 X82.285 Y65.194
G1 F1500 X82.759 Y64.673 E59.36911
G1 X83.289 Y64.209 E59.40425
G1 X83.868 Y63.809 E59.43936
G1 X84.489 Y63.477 E59.47449
G1 X85.143 Y63.217 E59.5096
G1 X85.823 Y63.033 E59.54475
G1 X86.519 Y62.927 E59.57987
G1 X87.1 Y62.9 E59.60889
G1 X100.433 Y62.9 E60.27408
G1 X101.136 Y62.94 E60.30921
G1 X101.83 Y63.059 E60.34434
G1 X102.505 Y63.257 E60.37943
G1 X103.154 Y63.529 E60.41454
G1 X103.768 Y63.874 E60.44968
G1 X104.339 Y64.285 E60.48478
G1 X104.86 Y64.759 E60.51992
G1 X105.324 Y65.289 E60.55506
G1 X105.724 Y65.868 E60.59017
G1 X106.056 Y66.489 E60.6253
G1 X106.316 Y67.143 E60.66041
G1 X106.5 Y67.823 E60.69556
G1 X106.606 Y68.519 E60.73068
G1 X106.633 Y69.1 E60.7597
G1 X106.633 Y98.9 E62.24643
G1 X132.9 Y98.9 E63.55689
G1 X133.603 Y98.94 E63.59202
G1 X134.297 Y99.059 E63.62715
G1 X134.972 Y99.257 E63.66225
G1 X135.621 Y99.529 E63.69735
G1 X136.235 Y99.874 E63.73249
G1 X136.806 Y100.285 E63.76759
G1 X137.327 Y100.759 E63.80273
G1 X137.791 Y101.289 E63.83787
G1 X138.191 Y101.868 E63.87298
G1 X138.523 Y102.489 E63.90811
G1 X138.783 Y103.143 E63.94323
G1 X138.967 Y103.823 E63.97837
G1 X139.073 Y104.519 E64.0135
G1 X139.1 Y105.1 E64.04251
G1 X139.1 Y150.9 E66.32748
G1 X139.06 Y151.603 E66.36261
G1 X138.941 Y152.297 E66.39774
G1 X138.743 Y152.972 E66.43284
G1 X138.471 Y153.621 E66.46795
G1 X138.126 Y154.235 E66.50308
G1 X137.715 Y154.806 E66.53818
G1 X137.241 Y155.327 E66.57332
G1 X136.711 Y155.791 E66.60847
G1 X136.132 Y156.191 E66.64358
G1 X135.511 Y156.523 E66.67871
G1 X134.857 Y156.783 E66.71382
G1 X134.177 Y156.967 E66.74896
G1 X133.481 Y157.073 E66.78409
G1 X132.9 Y157.1 E66.81311
G1 X87.1 Y157.1 E69.09808
G1 X86.397 Y157.06 E69.13321
G1 X85.703 Y156.941 E69.16834
G1 X85.028 Y156.743 E69.20343
G1 X84.379 Y156.471 E69.23854
G1 X83.765 Y156.126 E69.27368
G1 X83.194 Y155.715 E69.30877
G1 X82.673 Y155.241 E69.34392
G1 X82.209 Y154.711 E69.37906
G1 X81.809 Y154.132 E69.41417
G1 X81.477 Y153.511 E69.4493
G1 X81.217 Y152.857 E69.48441
G1 X81.033 Y152.177 E69.51956
G1 X80.927 Y151.481 E69.55468
G1 X80.9 Y150.9 E69.5837
G1 X80.9 Y69.1 E73.66472
G1 X80.94 Y68.397 E73.69985
G1 X81.059 Y67.703 E73.73498
G1 X81.257 Y67.028 E73.77007
G1 X81.529 Y66.379 E73.80518
G1 X81.874 Y65.765 E73.84031
G1 X82.285 Y65.194 E73.87541
G0 F7500 X82.682 Y65.342
G1 F1500 X83.153 Y64.851 E73.90936
G1 X83.678 Y64.417 E73.94334
G1 X84.25 Y64.048 E73.9773
G1 X84.862 Y63.749 E74.01128
G1 X85.504 Y63.524 E74.04522
G1 X86.169 Y63.375 E74.07922
G1 X87.1 Y63.3 E74.12582
G1 X100.433 Y63.3 E74.79101
G1 X101.113 Y63.34 E74.82499
G1 X101.783 Y63.459 E74.85894
G1 X102.435 Y63.656 E74.89292
G1 X103.059 Y63.928 E74.92688
G1 X103.647 Y64.272 E74.96087
G1 X104.191 Y64.682 E74.99485
G1 X104.682 Y65.153 E75.0288
G1 X105.116 Y65.678 E75.06278
G1 X105.485 Y66.25 E75.09674
G1 X105.784 Y66.862 E75.13072
G1 X106.009 Y67.504 E75.16466
G1 X106.158 Y68.169 E75.19866
G1 X106.233 Y69.1 E75.24526
G1 X106.233 Y99.3 E76.75195
G1 X132.9 Y99.3 E78.08237
G1 X133.58 Y99.34 E78.11635
G1 X134.25 Y99.459 E78.1503
G1 X134.902 Y99.656 E78.18428
G1 X135.526 Y99.928 E78.21824
G1 X136.114 Y100.272 E78.25223
G1 X136.658 Y100.682 E78.28622
G1 X137.149 Y101.153 E78.32016
G1 X137.583 Y101.678 E78.35414
G1 X137.952 Y102.25 E78.3881
G1 X138.251 Y102.862 E78.42208
G1 X138.476 Y103.504 E78.45602
G1 X138.625 Y104.169 E78.49002
G1 X138.7 Y105.1 E78.53662
G1 X138.7 Y150.9 E80.82159
G1 X138.66 Y151.58 E80.85558
G1 X138.541 Y152.25 E80.88953
G1 X138.344 Y152.902 E80.92351
G1 X138.072 Y153.526 E80.95747
G1 X137.728 Y154.114 E80.99146
G1 X137.318 Y154.658 E81.02544
G1 X136.847 Y155.149 E81.05939
G1 X136.322 Y155.583 E81.09337
G1 X135.75 Y155.952 E81.12733
G1 X135.138 Y156.251 E81.16131
G1 X134.496 Y156.476 E81.19525
G1 X133.831 Y156.625 E81.22925
G1 X132.9 Y156.7 E81.27585
G1 X87.1 Y156.7 E83.56082
G1 X86.42 Y156.66 E83.5948
G1 X85.75 Y156.541 E83.62875
G1 X85.098 Y156.344 E83.66273
G1 X84.474 Y156.072 E83.69669
G1 X83.886 Y155.728 E83.73068
G1 X83.342 Y155.318 E83.76467
G1 X82.851 Y154.847 E83.79861
G1 X82.417 Y154.322 E83.83259
G1 X82.048 Y153.75 E83.86655
G1 X81.749 Y153.138 E83.90054
G1 X81.524 Y152.496 E83.93448
G1 X81.375 Y151.831 E83.96848
G1 X81.3 Y150.9 E84.01507
G1 X81.3 Y69.1 E88.09609
G1 X81.34 Y68.42 E88.13008
G1 X81.459 Y67.75 E88.16403
G1 X81.656 Y67.098 E88.19801
G1 X81.928 Y66.474 E88.23197
G1 X82.272 Y65.886 E88.26595
G1 X82.682 Y65.342 E88.29994
G0 F7500 X83.078 Y65.497
G1 F1500 X83.545 Y65.035 E88.33271
G1 X84.065 Y64.634 E88.36547
G1 X84.629 Y64.298 E88.39823
G1 X85.231 Y64.034 E88.43102
G1 X85.86 Y63.844 E88.4638
G1 X86.507 Y63.733 E88.49655
G1 X87.1 Y63.7 E88.52618
G1 X100.433 Y63.7 E89.19137
G1 X101.089 Y63.74 E89.22416
G1 X101.735 Y63.859 E89.25693
G1 X102.362 Y64.056 E89.28972
G1 X102.96 Y64.328 E89.32249
G1 X103.521 Y64.67 E89.35527
G1 X104.036 Y65.078 E89.38805
G1 X104.498 Y65.545 E89.42083
G1 X104.899 Y66.065 E89.45359
G1 X105.235 Y66.629 E89.48634
G1 X105.499 Y67.231 E89.51914
G1 X105.689 Y67.86 E89.55192
G1 X105.8 Y68.507 E89.58467
G1 X105.833 Y69.1 E89.6143
G1 X105.833 Y99.7 E91.14094
G1 X132.9 Y99.7 E92.49132
G1 X133.556 Y99.74 E92.5241
G1 X134.202 Y99.859 E92.55688
G1 X134.829 Y100.056 E92.58966
G1 X135.427 Y100.328 E92.62244
G1 X135.988 Y100.67 E92.65522
G1 X136.503 Y101.078 E92.688
G1 X136.965 Y101.545 E92.72077
G1 X137.366 Y102.065 E92.75353
G1 X137.702 Y102.629 E92.78629
G1 X137.966 Y103.231 E92.81908
G1 X138.156 Y103.86 E92.85186
G1 X138.267 Y104.507 E92.88461
G1 X138.3 Y105.1 E92.91424
G1 X138.3 Y150.9 E95.19922
G1 X138.26 Y151.556 E95.232
G1 X138.141 Y152.202 E95.26478
G1 X137.944 Y152.829 E95.29756
G1 X137.672 Y153.427 E95.33034
G1 X137.33 Y153.988 E95.36312
G1 X136.922 Y154.503 E95.3959
G1 X136.455 Y154.965 E95.42867
G1 X135.935 Y155.366 E95.46143
G1 X135.371 Y155.702 E95.49419
G1 X134.769 Y155.966 E95.52698
G1 X134.14 Y156.156 E95.55976
G1 X133.493 Y156.267 E95.59251
G1 X132.9 Y156.3 E95.62214
G1 X87.1 Y156.3 E97.90711
G1 X86.444 Y156.26 E97.9399
G1 X85.798 Y156.141 E97.97267
G1 X85.171 Y155.944 E98.00546
G1 X84.573 Y155.672 E98.03824
