;FLAVOR:Marlin
;TIME:7365
;Filament used: 5.27984m
;Layer height: 0.15
;MINX:70.3
;MINY:68.4
;MINZ:0.3
;MAXX:133.2
;MAXY:151.6
;MAXZ:7.95
;Generated with Cura_SteamEngine 4.13.1
M140 S60
M105
M190 S60
M104 S195
M105
M109 S195
M82 ;absolute extrusion mode
G28 ;Home
G1 Z15.0 F2000 ;Move the platform
G92 E0
G92 E0
G1 F2700 E-6.5
;LAYER_COUNT:52
;LAYER:0
M107
M204 S1000
G0 F7500 X87.409 Y69.743 Z0.3
;TYPE:SKIRT
G1 F2700 E0
G1 F1500 X87.735 Y69.356 E0.02524
G1 X88.118 Y69.027 E0.05043
G1 X88.549 Y68.761 E0.0757
G1 X89.015 Y68.567 E0.10089
G1 X89.507 Y68.448 E0.12614
G1 X89.919 Y68.41 E0.14678
G1 X90.33 Y68.4 E0.16729
G1 X129.339 Y68.4 E2.11346
G1 X130.037 Y68.41 E2.14829
G1 X130.54 Y68.457 E2.17349
G1 X131.03 Y68.583 E2.19873
G1 X131.494 Y68.785 E2.22398
G1 X131.92 Y69.057 E2.2492
G1 X132.298 Y69.392 E2.27439
G1 X132.618 Y69.783 E2.2996
G1 X132.873 Y70.22 E2.32484
G1 X133.056 Y70.691 E2.35005
G1 X133.163 Y71.185 E2.37527
G1 X133.19 Y71.52 E2.39204
G1 X133.2 Y71.93 E2.4125
G1 X133.2 Y147.704 E6.19288
G1 X133.191 Y148.431 E6.22915
G1 X133.145 Y148.934 E6.25435
G1 X133.02 Y149.424 E6.27958
G1 X132.819 Y149.888 E6.30481
G1 X132.548 Y150.315 E6.33004
G1 X132.213 Y150.694 E6.35528
G1 X131.823 Y151.015 E6.38048
G1 X131.387 Y151.271 E6.4057
G1 X130.916 Y151.454 E6.43091
G1 X130.422 Y151.562 E6.45614
G1 X130.081 Y151.59 E6.47321
G1 X129.67 Y151.6 E6.49372
G1 X90.661 Y151.6 E8.43989
G1 X89.959 Y151.59 E8.47491
G1 X89.456 Y151.543 E8.50012
G1 X88.966 Y151.417 E8.52536
G1 X88.503 Y151.215 E8.55056
G1 X88.076 Y150.944 E8.57579
G1 X87.698 Y150.608 E8.60102
G1 X87.406 Y150.257 E8.6238
G1 X86.771 Y149.373 E8.6781
G1 X86.564 Y149.074 E8.69625
G1 X84.948 Y146.884 E8.83203
G1 X83.266 Y144.732 E8.9683
G1 X81.513 Y142.618 E9.10531
G1 X79.693 Y140.544 E9.24298
G1 X77.848 Y138.556 E9.37829
G1 X75.934 Y136.607 E9.51457
G1 X73.966 Y134.717 E9.6507
G1 X71.733 Y132.693 E9.80106
G1 X71.396 Y132.397 E9.82344
G1 X71.044 Y132.034 E9.84866
G1 X70.753 Y131.621 E9.87387
G1 X70.531 Y131.166 E9.89913
G1 X70.384 Y130.683 E9.92432
G1 X70.31 Y130.083 E9.95448
G1 X70.3 Y129.67 E9.97509
G1 X70.3 Y90.661 E11.92125
G1 X70.31 Y89.958 E11.95633
G1 X70.357 Y89.455 E11.98153
G1 X70.483 Y88.965 E12.00678
G1 X70.685 Y88.502 E12.03198
G1 X70.956 Y88.075 E12.05721
G1 X71.359 Y87.634 E12.08701
G1 X71.915 Y87.131 E12.12442
G1 X72.876 Y86.285 E12.18829
G1 X74.903 Y84.396 E12.32653
G1 X76.839 Y82.486 E12.46221
G1 X78.722 Y80.519 E12.59806
G1 X80.565 Y78.482 E12.73511
G1 X82.361 Y76.381 E12.87301
G1 X84.07 Y74.263 E13.00878
G1 X85.734 Y72.076 E13.14588
G1 X87.409 Y69.743 E13.28917
G1 F2700 E6.78917
;MESH:ProfileConstruct-DoubleProfileNutScrewM5.stl
G0 F7500 X82.359 Y98.64
G0 X83.407 Y97.592
G0 X83.814 Y98.834
G0 X84.048 Y100
G0 X83.898 Y100.797
;TYPE:WALL-INNER
G1 F2700 E13.28917
G1 F1500 X84.05 Y100.816 E13.29681
G1 X84.212 Y100 E13.33832
G1 X83.967 Y98.771 E13.40084
G1 X83.27 Y97.729 E13.46338
G1 X82.229 Y97.033 E13.52586
G1 X80.999 Y96.788 E13.58843
G1 X79.771 Y97.033 E13.6509
G1 X78.73 Y97.729 E13.71337
G1 X78.033 Y98.771 E13.77592
G1 X77.788 Y100 E13.83844
G1 X78.033 Y101.229 E13.90096
G1 X78.73 Y102.27 E13.96346
G1 X79.771 Y102.967 E14.02597
G1 X80.528 Y103.117 E14.06447
G1 X80.867 Y103.136 E14.08141
G1 X81.213 Y103.116 E14.0987
G1 X81.518 Y103.066 E14.11412
G1 X81.826 Y102.984 E14.13002
G1 X82.13 Y102.868 E14.14625
G1 X82.421 Y102.718 E14.16258
G1 X82.69 Y102.539 E14.1787
G1 X82.932 Y102.345 E14.19418
G1 X83.163 Y102.112 E14.21055
G1 X83.357 Y101.867 E14.22614
G1 X83.529 Y101.602 E14.2419
G1 X83.672 Y101.322 E14.25759
G1 X83.766 Y101.069 E14.27105
G1 X83.898 Y100.797 E14.28613
G0 F7500 X83.73 Y100.373
;TYPE:WALL-OUTER
G1 F1500 X83.804 Y100 E14.30511
G1 X83.59 Y98.927 E14.35969
G1 X82.982 Y98.017 E14.41429
G1 X82.073 Y97.41 E14.46883
G1 X80.999 Y97.196 E14.52346
G1 X79.927 Y97.41 E14.578
G1 X79.018 Y98.017 E14.63253
G1 X78.41 Y98.927 E14.68713
G1 X78.196 Y100 E14.74172
G1 X78.41 Y101.073 E14.7963
G1 X79.018 Y101.982 E14.85086
G1 X79.927 Y102.59 E14.90542
G1 X80.578 Y102.719 E14.93853
G1 X80.867 Y102.735 E14.95297
G1 X81.169 Y102.718 E14.96806
G1 X81.434 Y102.674 E14.98147
G1 X81.703 Y102.603 E14.99535
G1 X81.967 Y102.502 E15.00945
G1 X82.218 Y102.373 E15.02353
G1 X82.453 Y102.216 E15.03763
G1 X82.664 Y102.047 E15.05112
G1 X82.864 Y101.846 E15.06526
G1 X83.032 Y101.634 E15.07876
G1 X83.182 Y101.402 E15.09254
G1 X83.305 Y101.161 E15.10604
G1 X83.399 Y100.908 E15.1195
G1 X83.521 Y100.66 E15.13329
G1 X83.635 Y100.411 E15.14696
G1 X83.658 Y100.364 E15.14957
G1 X83.73 Y100.373 E15.15319
G0 F7500 X83.768 Y100.177
G0 X84.199 Y100.263
G1 F2700 E8.65319
G0 F7500 X83.941 Y101.146
G0 X82.512 Y100.814
G0 X81.736 Y118.223
G0 X82.304 Y116.853
G0 X83.154 Y117.846
G0 X83.814 Y118.834
G0 X84.048 Y120
G0 X83.898 Y120.797
;TYPE:WALL-INNER
G1 F2700 E15.15319
G1 F1500 X84.05 Y120.816 E15.16083
G1 X84.212 Y120 E15.20233
G1 X83.967 Y118.771 E15.26486
G1 X83.27 Y117.73 E15.32736
G1 X82.229 Y117.033 E15.38986
G1 X81 Y116.788 E15.45238
G1 X79.766 Y117.035 E15.51517
G1 X78.73 Y117.73 E15.57741
G1 X78.033 Y118.771 E15.63991
G1 X77.788 Y120 E15.70243
G1 X78.033 Y121.229 E15.76495
G1 X78.73 Y122.271 E15.82749
G1 X79.771 Y122.967 E15.88997
G1 X80.528 Y123.117 E15.92847
G1 X80.868 Y123.136 E15.94546
G1 X81.179 Y123.117 E15.961
G1 X81.515 Y123.066 E15.97796
G1 X81.826 Y122.984 E15.99401
G1 X82.131 Y122.868 E16.01029
G1 X82.421 Y122.718 E16.02657
G1 X82.689 Y122.538 E16.04268
G1 X82.931 Y122.346 E16.05809
G1 X83.165 Y122.111 E16.07464
G1 X83.357 Y121.869 E16.09005
G1 X83.528 Y121.603 E16.10583
G1 X83.672 Y121.322 E16.12158
G1 X83.766 Y121.069 E16.13504
G1 X83.898 Y120.797 E16.15013
G0 F7500 X83.73 Y120.373
;TYPE:WALL-OUTER
G1 F1500 X83.804 Y120 E16.1691
G1 X83.59 Y118.927 E16.22369
G1 X82.982 Y118.018 E16.27825
G1 X82.073 Y117.41 E16.3328
G1 X81 Y117.196 E16.38739
G1 X79.923 Y117.412 E16.44219
G1 X79.018 Y118.018 E16.49653
G1 X78.41 Y118.927 E16.55109
G1 X78.196 Y120 E16.60568
G1 X78.41 Y121.073 E16.66026
G1 X79.018 Y121.983 E16.71486
G1 X79.927 Y122.59 E16.7694
G1 X80.578 Y122.719 E16.80251
G1 X80.867 Y122.735 E16.81695
G1 X81.137 Y122.719 E16.83044
G1 X81.434 Y122.674 E16.84543
G1 X81.703 Y122.603 E16.85931
G1 X81.967 Y122.502 E16.87341
G1 X82.217 Y122.373 E16.88744
G1 X82.453 Y122.215 E16.90161
G1 X82.664 Y122.047 E16.91507
G1 X82.866 Y121.845 E16.92932
G1 X83.031 Y121.636 E16.94261
G1 X83.181 Y121.403 E16.95643
G1 X83.305 Y121.161 E16.97
G1 X83.399 Y120.908 E16.98346
G1 X83.521 Y120.66 E16.99725
G1 X83.635 Y120.411 E17.01091
G1 X83.658 Y120.364 E17.01353
G1 X83.73 Y120.373 E17.01715
G0 F7500 X83.768 Y120.177
G0 X84.199 Y120.263
G1 F2700 E10.51715
G0 F7500 X84.207 Y121.033
G0 X82.784 Y120.189
G0 X89.165 Y121.033
G0 X87.69 Y121.033
G0 X87.9 Y129.4
;TYPE:WALL-INNER
G1 F2700 E17.01715
G1 F1500 X74.1 Y129.4 E17.70563
G1 X74.1 Y90.6 E19.64137
G1 X87.9 Y90.6 E20.32985
G1 X87.9 Y129.4 E22.26559
G0 F7500 X88.3 Y129.8
;TYPE:WALL-OUTER
G1 F1500 X73.7 Y129.8 E22.99399
G1 X73.7 Y90.2 E24.96964
G1 X88.3 Y90.2 E25.69804
G1 X88.3 Y129.8 E27.67369
G0 F7500 X88.1 Y129.8
G0 X87.86 Y129.36
G0 X87.51 Y129.01
;TYPE:SKIN
G1 F1500 X74.49 Y129.01 E28.32326
G1 X74.49 Y90.99 E30.22009
G1 X87.51 Y90.99 E30.86966
G1 X87.51 Y129.01 E32.76648
G1 F2700 E26.26648
G0 F7500 X87.79 Y129.01
G0 X87.69 Y122.627
G0 X89.165 Y122.627
G0 X82.213 Y121.277
G0 X83.308 Y122.238
G0 X82.755 Y122.627
G1 F2700 E32.76648
G0 F7500 X82.919 Y122.853
G1 F1500 X83.191 Y122.637 E32.78381
G1 X83.457 Y122.371 E32.80258
G1 X83.675 Y122.097 E32.82005
G1 X83.867 Y121.798 E32.83778
G1 X84.029 Y121.48 E32.85558
G1 X84.126 Y121.219 E32.86947
G1 X84.362 Y121.249 E32.88134
G1 X84.61 Y120 E32.94487
G1 X84.334 Y118.619 E33.01513
G1 X83.551 Y117.449 E33.08537
G1 X82.381 Y116.666 E33.15561
G1 X81 Y116.39 E33.22587
G1 X79.614 Y116.668 E33.29639
G1 X78.449 Y117.449 E33.36637
G1 X77.666 Y118.619 E33.4366
G1 X77.39 Y120 E33.50687
G1 X77.666 Y121.381 E33.57713
G1 X78.449 Y122.552 E33.6474
G1 X79.619 Y123.334 E33.71761
G1 X80.479 Y123.505 E33.76136
G1 X80.87 Y123.526 E33.78089
G1 X81.22 Y123.505 E33.79839
G1 X81.595 Y123.448 E33.81731
G1 X81.945 Y123.356 E33.83537
G1 X82.291 Y123.225 E33.85382
G1 X82.62 Y123.054 E33.87232
G1 X82.919 Y122.853 E33.8903
G1 F2700 E27.3903
G0 F7500 X82.755 Y122.627
G0 X83.913 Y120.627
G0 X84.048 Y120
G0 X83.814 Y118.834
G0 X83.154 Y117.846
G0 X82.354 Y117.312
G0 X81 Y116.594
G0 X81.001 Y118.077
G0 X80.866 Y101.87
G0 X80.867 Y103.326
G0 X81.542 Y103.174
G1 F2700 E33.8903
G0 F7500 X81.6 Y103.448
G1 F1500 X81.946 Y103.356 E33.90816
G1 X82.29 Y103.225 E33.92652
G1 X82.619 Y103.055 E33.945
G1 X82.92 Y102.854 E33.96306
G1 X83.193 Y102.635 E33.98052
G1 X83.455 Y102.371 E33.99907
G1 X83.675 Y102.095 E34.01668
G1 X83.867 Y101.797 E34.03437
G1 X84.029 Y101.48 E34.05213
G1 X84.126 Y101.219 E34.06602
G1 X84.362 Y101.249 E34.07789
G1 X84.61 Y100 E34.14142
G1 X84.334 Y98.619 E34.21168
G1 X83.551 Y97.448 E34.28196
G1 X82.381 Y96.666 E34.35217
G1 X80.999 Y96.39 E34.42248
G1 X79.619 Y96.666 E34.49269
G1 X78.449 Y97.448 E34.5629
G1 X77.666 Y98.619 E34.63318
G1 X77.39 Y100 E34.70344
G1 X77.666 Y101.381 E34.7737
G1 X78.449 Y102.551 E34.84394
G1 X79.619 Y103.334 E34.91417
G1 X80.479 Y103.505 E34.95792
G1 X80.867 Y103.526 E34.9773
G1 X81.256 Y103.504 E34.99674
G1 X81.6 Y103.448 E35.01413
G1 F2700 E28.51413
G0 F7500 X81.542 Y103.174
G0 X82.824 Y102.225
G0 X83.389 Y101.521
G0 X83.913 Y100.627
G0 X84.048 Y100
G0 X83.859 Y99.056
G0 X83.407 Y97.592
G0 X82.359 Y98.64
G0 X89.165 Y97.592
G0 X87.69 Y97.592
G0 X87.79 Y91.31
G1 F2700 E35.01413
G0 F7500 X87.35 Y91.31
G1 F1500 X87.189 Y91.149 E35.02549
G0 F7500 X86.624 Y91.149
G1 F1500 X87.35 Y91.875 E35.07671
G0 F7500 X87.35 Y92.441
G1 F1500 X86.058 Y91.149 E35.16787
G0 F7500 X85.492 Y91.149
G1 F1500 X87.35 Y93.007 E35.29896
G0 F7500 X87.35 Y93.572
G1 F1500 X84.927 Y91.149 E35.46992
G0 F7500 X84.361 Y91.149
G1 F1500 X87.35 Y94.138 E35.68081
G0 F7500 X87.35 Y94.704
G1 F1500 X83.795 Y91.149 E35.93163
G0 F7500 X83.23 Y91.149
G1 F1500 X87.35 Y95.269 E36.22232
G0 F7500 X87.35 Y95.835
G1 F1500 X82.664 Y91.149 E36.55294
G0 F7500 X82.098 Y91.149
G1 F1500 X87.35 Y96.401 E36.9235
G0 F7500 X87.35 Y96.966
G1 F1500 X81.532 Y91.149 E37.33396
G0 F7500 X80.967 Y91.149
G1 F1500 X87.35 Y97.532 E37.78431
G0 F7500 X87.35 Y98.098
G1 F1500 X80.401 Y91.149 E38.2746
G0 F7500 X79.835 Y91.149
G1 F1500 X87.35 Y98.664 E38.80482
G0 F7500 X87.35 Y99.229
G1 F1500 X79.27 Y91.149 E39.37491
G0 F7500 X78.704 Y91.149
G1 F1500 X87.35 Y99.795 E39.98493
G0 F7500 X87.35 Y100.361
G1 F1500 X78.138 Y91.149 E40.63489
G0 F7500 X77.573 Y91.149
G1 F1500 X87.35 Y100.926 E41.32471
G0 F7500 X87.35 Y101.492
G1 F1500 X84.501 Y98.643 E41.52572
G0 F7500 X84.642 Y99.35
G1 F1500 X87.35 Y102.058 E41.71679
G0 F7500 X87.35 Y102.623
G1 F1500 X84.765 Y100.038 E41.89917
G0 F7500 X84.671 Y100.51
G1 F1500 X87.35 Y103.189 E42.08819
G0 F7500 X87.35 Y103.755
G1 F1500 X84.577 Y100.982 E42.28384
G0 F7500 X84.449 Y101.42
G1 F1500 X87.35 Y104.32 E42.48849
G0 F7500 X87.35 Y104.886
G1 F1500 X84.118 Y101.654 E42.71652
G0 F7500 X83.914 Y102.016
G1 F1500 X87.35 Y105.452 E42.95895
G0 F7500 X87.35 Y106.017
G1 F1500 X83.678 Y102.345 E43.21803
G0 F7500 X83.409 Y102.642
G1 F1500 X87.35 Y106.583 E43.49609
G0 F7500 X87.35 Y107.149
G1 F1500 X83.108 Y102.907 E43.79538
G0 F7500 X82.777 Y103.142
G1 F1500 X87.35 Y107.714 E44.118
G0 F7500 X87.35 Y108.28
G1 F1500 X82.411 Y103.342 E44.46644
G0 F7500 X82.007 Y103.503
G1 F1500 X87.35 Y108.846 E44.84341
G0 F7500 X87.35 Y109.412
G1 F1500 X81.556 Y103.618 E45.25221
G0 F7500 X81.047 Y103.675
G1 F1500 X87.35 Y109.977 E45.69689
G0 F7500 X87.35 Y110.543
G1 F1500 X80.471 Y103.664 E46.18224
G0 F7500 X79.766 Y103.525
G1 F1500 X87.35 Y111.109 E46.71733
G0 F7500 X87.35 Y111.674
G1 F1500 X78.355 Y102.68 E47.35194
G1 X78.319 Y102.644
G1 X74.649 Y98.974 E47.61088
G0 F7500 X74.649 Y98.408
G1 F1500 X77.474 Y101.232 E47.81016
G0 F7500 X77.332 Y100.525
G1 F1500 X74.649 Y97.843 E47.99943
G0 F7500 X74.649 Y97.277
G1 F1500 X77.251 Y99.878 E48.18298
G0 F7500 X77.346 Y99.407
G1 F1500 X74.649 Y96.711 E48.37323
G0 F7500 X74.649 Y96.146
G1 F1500 X77.44 Y98.936 E48.57012
G0 F7500 X77.559 Y98.49
G1 F1500 X74.649 Y95.58 E48.77543
G0 F7500 X74.649 Y95.014
G1 F1500 X77.786 Y98.151 E48.99676
G0 F7500 X78.013 Y97.812
G1 F1500 X74.649 Y94.448 E49.23411
G0 F7500 X74.649 Y93.883
G1 F1500 X78.239 Y97.473 E49.48741
G0 F7500 X78.531 Y97.199
G1 F1500 X74.649 Y93.317 E49.7613
G0 F7500 X74.649 Y92.751
G1 F1500 X78.87 Y96.972 E50.05912
G0 F7500 X79.21 Y96.746
G1 F1500 X74.649 Y92.186 E50.38088
G0 F7500 X74.649 Y91.62
G1 F1500 X79.548 Y96.519 E50.72654
G0 F7500 X80.017 Y96.422
G1 F1500 X74.744 Y91.149 E51.09857
G0 F7500 X75.31 Y91.149
G1 F1500 X80.488 Y96.327 E51.46391
G0 F7500 X80.96 Y96.233
G1 F1500 X75.876 Y91.149 E51.82261
G0 F7500 X76.441 Y91.149
G1 F1500 X81.647 Y96.355 E52.18993
G0 F7500 X82.354 Y96.496
G1 F1500 X77.007 Y91.149 E52.56718
G0 F7500 X77.007 Y90.71
G0 X74.282 Y90.782
G0 X74.21 Y99.54
G0 X74.649 Y99.54
G1 F1500 X87.35 Y112.24 E53.46327
G0 F7500 X87.35 Y112.806
G1 F1500 X74.649 Y100.105 E54.3594
G0 F7500 X74.649 Y100.671
G1 F1500 X87.35 Y113.371 E55.25549
G0 F7500 X87.35 Y113.937
G1 F1500 X74.649 Y101.237 E56.15158
G0 F7500 X74.649 Y101.802
G1 F1500 X87.35 Y114.503 E57.0477
G0 F7500 X87.35 Y115.068
G1 F1500 X74.649 Y102.368 E57.94379
G0 F7500 X74.649 Y102.934
G1 F1500 X87.35 Y115.634 E58.83988
G0 F7500 X87.35 Y116.2
G1 F1500 X74.649 Y103.499 E59.736
G0 F7500 X74.649 Y104.065
G1 F1500 X87.35 Y116.765 E60.63209
G0 F7500 X87.35 Y117.331
G1 F1500 X74.649 Y104.631 E61.52818
G0 F7500 X74.649 Y105.196
G1 F1500 X87.35 Y117.897 E62.4243
G0 F7500 X87.35 Y118.463
G1 F1500 X74.649 Y105.762 E63.32043
G0 F7500 X74.649 Y106.328
G1 F1500 X87.35 Y119.028 E64.21652
G0 F7500 X87.35 Y119.594
G1 F1500 X74.649 Y106.894 E65.11261
G0 F7500 X74.649 Y107.459
G1 F1500 X87.35 Y120.16 E66.00873
G0 F7500 X87.35 Y120.725
G1 F1500 X74.649 Y108.025 E66.90482
G0 F7500 X74.649 Y108.591
G1 F1500 X82.836 Y116.777 E67.48242
G0 F7500 X82.591 Y117.142
G0 X81.813 Y116.837
G0 X81.899 Y116.406
G1 F1500 X74.649 Y109.156 E67.99395
G0 F7500 X74.649 Y109.722
G1 F1500 X81.192 Y116.264 E68.45556
G0 F7500 X80.656 Y116.295
G1 F1500 X74.649 Y110.288 E68.87938
G0 F7500 X74.649 Y110.853
G1 F1500 X80.185 Y116.389 E69.26998
G0 F7500 X79.714 Y116.483
G1 F1500 X74.649 Y111.419 E69.6273
G0 F7500 X74.649 Y111.985
G1 F1500 X79.329 Y116.664 E69.95747
G0 F7500 X78.99 Y116.891
G1 F1500 X74.649 Y112.55 E70.26375
G0 F7500 X74.649 Y113.116
G1 F1500 X78.652 Y117.119 E70.54618
G0 F7500 X78.321 Y117.353
G1 F1500 X74.649 Y113.682 E70.80523
G0 F7500 X74.649 Y114.247
G1 F1500 X78.094 Y117.692 E71.04829
G0 F7500 X77.867 Y118.03
G1 F1500 X74.649 Y114.813 E71.2753
G0 F7500 X74.649 Y115.379
G1 F1500 X77.64 Y118.369 E71.4863
G0 F7500 X77.473 Y118.768
G1 F1500 X74.649 Y115.945 E71.68551
G0 F7500 X74.649 Y116.51
G1 F1500 X77.379 Y119.24 E71.87813
G0 F7500 X77.284 Y119.711
G1 F1500 X74.649 Y117.076 E72.06404
G0 F7500 X74.649 Y117.642
G1 F1500 X77.281 Y120.273 E72.24971
G0 F7500 X77.423 Y120.981
G1 F1500 X74.649 Y118.207 E72.44543
G0 F7500 X74.649 Y118.773
G1 F1500 X77.912 Y122.036 E72.67565
G0 F7500 X78.278 Y121.793
G0 X79.208 Y122.724
G0 X78.964 Y123.088
G1 F1500 X84.725 Y128.848 E73.08208
G0 F7500 X85.291 Y128.848
G1 F1500 X80.017 Y123.575 E73.45416
G0 F7500 X80.683 Y123.675
G1 F1500 X85.856 Y128.848 E73.81914
G0 F7500 X86.422 Y128.848
G1 F1500 X81.236 Y123.663 E74.18501
G0 F7500 X81.719 Y123.58
G1 F1500 X86.988 Y128.848 E74.55673
G0 F7500 X87.35 Y128.645
G1 F1500 X82.153 Y123.448 E74.9234
G0 F7500 X82.544 Y123.273
G1 F1500 X87.35 Y128.079 E75.26249
G0 F7500 X87.35 Y127.513
G1 F1500 X82.896 Y123.06 E75.57671
G0 F7500 X83.22 Y122.818
G1 F1500 X87.35 Y126.948 E75.86811
G0 F7500 X87.35 Y126.382
G1 F1500 X83.51 Y122.543 E76.139
G0 F7500 X83.768 Y122.235
G1 F1500 X87.35 Y125.816 E76.3917
G0 F7500 X87.35 Y125.251
G1 F1500 X83.994 Y121.895 E76.62848
G0 F7500 X84.183 Y121.519
G1 F1500 X87.35 Y124.685 E76.8519
G0 F7500 X87.35 Y124.119
G1 F1500 X84.516 Y121.286 E77.05181
G0 F7500 X84.61 Y120.814
G1 F1500 X87.35 Y123.554 E77.24514
G0 F7500 X87.35 Y122.988
