;FLAVOR:Marlin
;TIME:7832
;Filament used: 2.99323m
;Layer height: 0.1
;MINX:82.4
;MINY:86.4
;MINZ:0.3
;MAXX:137.6
;MAXY:150.1
;MAXZ:7
;Generated with Cura_SteamEngine 4.13.1
M140 S60
M105
M190 S60
M104 S195
M105
M109 S195
M82 ;absolute extrusion mode
G28 ;Home
G1 Z15.0 F2000 ;Move the platform
G92 E0
G92 E0
G1 F2700 E-6.5
;LAYER_COUNT:68
;LAYER:0
M107
M204 S1000
G0 F7500 X83.397 Y87.531 Z0.3
;TYPE:SKIRT
G1 F2700 E0
G1 F1500 X83.794 Y87.171 E0.02674
G1 X84.241 Y86.873 E0.05354
G1 X84.726 Y86.645 E0.08028
G1 X85.24 Y86.492 E0.10703
G1 X85.908 Y86.41 E0.14061
G1 X86.33 Y86.4 E0.16167
G1 X100.741 Y86.4 E0.88064
G1 X102.202 Y86.405 E0.95353
G1 X102.898 Y86.4 E0.98825
G1 X117.241 Y86.4 E1.70383
G1 X118.702 Y86.405 E1.77672
G1 X119.398 Y86.4 E1.81144
G1 X133.345 Y86.4 E2.50726
G1 X134.043 Y86.41 E2.54209
G1 X134.577 Y86.458 E2.56883
G1 X135.098 Y86.584 E2.59558
G1 X135.595 Y86.787 E2.62236
G1 X136.056 Y87.061 E2.64912
G1 X136.471 Y87.4 E2.67585
G1 X136.831 Y87.798 E2.70262
G1 X137.128 Y88.244 E2.72936
G1 X137.356 Y88.73 E2.75614
G1 X137.508 Y89.244 E2.78288
G1 X137.59 Y89.909 E2.81631
G1 X137.6 Y90.33 E2.83732
G1 X137.6 Y129.329 E4.78299
G1 X137.589 Y130.055 E4.81921
G1 X137.541 Y130.589 E4.84596
G1 X137.432 Y131.051 E4.86964
G1 X137.351 Y131.314 E4.88337
G1 X136.648 Y133.502 E4.99803
G1 X135.884 Y136.13 E5.13457
G1 X135.199 Y138.764 E5.27035
G1 X134.581 Y141.446 E5.40766
G1 X134.048 Y144.099 E5.54266
G1 X133.587 Y146.801 E5.67942
G1 X133.543 Y147.069 E5.69297
G1 X133.418 Y147.591 E5.71974
G1 X133.217 Y148.088 E5.74649
G1 X132.944 Y148.549 E5.77322
G1 X132.605 Y148.965 E5.79999
G1 X132.208 Y149.326 E5.82676
G1 X131.763 Y149.624 E5.85348
G1 X131.278 Y149.853 E5.88024
G1 X130.764 Y150.007 E5.90701
G1 X130.091 Y150.09 E5.94084
G1 X129.67 Y150.1 E5.96185
G1 X90.65 Y150.1 E7.90857
G1 X89.951 Y150.089 E7.94344
G1 X89.417 Y150.04 E7.9702
G1 X88.896 Y149.913 E7.99695
G1 X88.4 Y149.71 E8.02369
G1 X87.939 Y149.435 E8.05047
G1 X87.525 Y149.095 E8.0772
G1 X87.165 Y148.697 E8.10397
G1 X86.868 Y148.251 E8.1307
G1 X86.642 Y147.765 E8.15744
G1 X86.46 Y147.099 E8.19189
G1 X86.276 Y146.028 E8.24611
G1 X86.162 Y145.307 E8.28252
G1 X85.663 Y142.646 E8.41759
G1 X85.087 Y139.985 E8.55343
G1 X84.438 Y137.355 E8.68857
G1 X83.699 Y134.683 E8.82689
G1 X82.909 Y132.111 E8.96112
G1 X82.583 Y131.098 E9.01421
G1 X82.457 Y130.577 E9.04095
G1 X82.412 Y130.106 E9.06456
G1 X82.4 Y129.67 E9.08632
G1 X82.4 Y90.625 E11.03428
G1 X82.409 Y89.96 E11.06746
G1 X82.457 Y89.426 E11.09421
G1 X82.583 Y88.905 E11.12095
G1 X82.785 Y88.408 E11.14772
G1 X83.058 Y87.947 E11.17445
G1 X83.397 Y87.531 E11.20122
G0 F7500 X83.789 Y87.704
G1 F1500 X84.18 Y87.383 E11.22646
G1 X84.617 Y87.128 E11.2517
G1 X85.088 Y86.944 E11.27693
G1 X85.582 Y86.838 E11.30214
G1 X85.919 Y86.81 E11.31901
G1 X86.33 Y86.8 E11.33952
G1 X100.74 Y86.8 E12.05844
G1 X102.203 Y86.805 E12.13143
G1 X102.9 Y86.8 E12.1662
G1 X117.24 Y86.8 E12.88163
G1 X118.703 Y86.805 E12.95462
G1 X119.4 Y86.8 E12.98939
G1 X133.339 Y86.8 E13.68481
G1 X134.037 Y86.81 E13.71964
G1 X134.54 Y86.857 E13.74484
G1 X135.03 Y86.983 E13.77008
G1 X135.494 Y87.185 E13.79533
G1 X135.92 Y87.457 E13.82055
G1 X136.298 Y87.792 E13.84574
G1 X136.618 Y88.183 E13.87095
G1 X136.873 Y88.62 E13.89619
G1 X137.056 Y89.091 E13.9214
G1 X137.163 Y89.585 E13.94662
G1 X137.19 Y89.92 E13.96339
G1 X137.2 Y90.33 E13.98385
G1 X137.2 Y129.322 E15.92917
G1 X137.189 Y130.048 E15.96539
G1 X137.141 Y130.552 E15.99065
G1 X137.05 Y130.934 E16.01024
G1 X136.971 Y131.192 E16.0237
G1 X136.26 Y133.406 E16.13972
G1 X135.499 Y136.024 E16.27574
G1 X134.806 Y138.687 E16.41302
G1 X134.194 Y141.343 E16.549
G1 X133.649 Y144.058 E16.68715
G1 X133.192 Y146.734 E16.82259
G1 X133.148 Y147.005 E16.83629
G1 X133.028 Y147.496 E16.86151
G1 X132.832 Y147.962 E16.88673
G1 X132.565 Y148.391 E16.91194
G1 X132.233 Y148.773 E16.93719
G1 X131.846 Y149.098 E16.9624
G1 X131.412 Y149.358 E16.98764
G1 X130.943 Y149.546 E17.01285
G1 X130.45 Y149.658 E17.03807
G1 X130.08 Y149.69 E17.0566
G1 X129.67 Y149.7 E17.07706
G1 X90.657 Y149.7 E19.02343
G1 X89.958 Y149.689 E19.0583
G1 X89.454 Y149.641 E19.08356
G1 X88.965 Y149.514 E19.10877
G1 X88.501 Y149.312 E19.13402
G1 X88.076 Y149.04 E19.15919
G1 X87.698 Y148.703 E19.18446
G1 X87.378 Y148.312 E19.20966
G1 X87.124 Y147.875 E19.23488
G1 X86.941 Y147.403 E19.26014
G1 X86.854 Y147.032 E19.27915
G1 X86.671 Y145.966 E19.33311
G1 X86.556 Y145.236 E19.36998
G1 X86.055 Y142.566 E19.50551
G1 X85.478 Y139.903 E19.64145
G1 X84.818 Y137.225 E19.77905
G1 X84.094 Y134.606 E19.91462
G1 X83.277 Y131.948 E20.05335
G1 X82.964 Y130.975 E20.10434
G1 X82.847 Y130.483 E20.12957
G1 X82.812 Y130.093 E20.14911
G1 X82.8 Y129.67 E20.17022
G1 X82.8 Y90.631 E22.11788
G1 X82.809 Y89.966 E22.15106
G1 X82.856 Y89.462 E22.17632
G1 X82.982 Y88.973 E22.20151
G1 X83.183 Y88.509 E22.22674
G1 X83.454 Y88.082 E22.25197
G1 X83.789 Y87.704 E22.27717
G1 F2700 E15.77717
;MESH:ProfileConstruct-DoubleProfileNutScrewM5.stl(1)
G0 F7500 X92.052 Y99.052
G0 X90.766 Y98.365
G0 X90.59 Y99.201
;TYPE:WALL-INNER
G1 F2700 E22.27717
G1 F1500 X90.45 Y99.184 E22.2842
G1 X90.288 Y100 E22.32571
G1 X90.533 Y101.229 E22.38823
G1 X91.23 Y102.27 E22.45073
G1 X92.271 Y102.967 E22.51323
G1 X93.5 Y103.212 E22.57575
G1 X94.734 Y102.965 E22.63854
G1 X95.77 Y102.27 E22.70078
G1 X96.467 Y101.229 E22.76328
G1 X96.712 Y100 E22.8258
G1 X96.467 Y98.771 E22.88832
G1 X95.77 Y97.729 E22.95087
G1 X94.729 Y97.033 E23.01334
G1 X93.962 Y96.881 E23.05235
G1 X93.631 Y96.864 E23.06889
G1 X93.322 Y96.883 E23.08433
G1 X92.99 Y96.932 E23.10108
G1 X92.675 Y97.016 E23.11734
G1 X92.37 Y97.132 E23.13362
G1 X92.08 Y97.281 E23.14989
G1 X91.815 Y97.455 E23.1657
G1 X91.567 Y97.656 E23.18163
G1 X91.335 Y97.889 E23.19803
G1 X91.143 Y98.131 E23.21344
G1 X90.935 Y98.455 E23.23265
G1 X90.766 Y98.843 E23.25377
G1 X90.625 Y99.126 E23.26954
G1 X90.59 Y99.201 E23.27367
G0 F7500 X90.77 Y99.627
;TYPE:WALL-OUTER
G1 F1500 X90.696 Y100 E23.29264
G1 X90.91 Y101.073 E23.34723
G1 X91.518 Y101.982 E23.40179
G1 X92.427 Y102.59 E23.45635
G1 X93.5 Y102.804 E23.51093
G1 X94.577 Y102.588 E23.56574
G1 X95.482 Y101.982 E23.62007
G1 X96.09 Y101.073 E23.67463
G1 X96.304 Y100 E23.72922
G1 X96.09 Y98.927 E23.78381
G1 X95.482 Y98.017 E23.83841
G1 X94.573 Y97.41 E23.89294
G1 X93.913 Y97.279 E23.92651
G1 X93.633 Y97.265 E23.9405
G1 X93.363 Y97.281 E23.95399
G1 X93.071 Y97.324 E23.96872
G1 X92.798 Y97.397 E23.98281
G1 X92.533 Y97.498 E23.99696
G1 X92.282 Y97.627 E24.01104
G1 X92.051 Y97.779 E24.02484
G1 X91.835 Y97.953 E24.03868
G1 X91.635 Y98.155 E24.05286
G1 X91.469 Y98.364 E24.06617
G1 X91.289 Y98.644 E24.08278
G1 X91.13 Y99.01 E24.10269
G1 X90.986 Y99.299 E24.1188
G1 X90.868 Y99.554 E24.13282
G1 X90.842 Y99.636 E24.13711
G1 X90.77 Y99.627 E24.14073
G0 F7500 X90.732 Y99.823
G0 X90.301 Y99.737
G1 F2700 E17.64073
G0 F7500 X91.093 Y102.407
G0 X92.14 Y101.36
G0 X92.478 Y118.542
G0 X91.44 Y117.514
G0 X90.602 Y119.203
;TYPE:WALL-INNER
G1 F2700 E24.14073
G1 F1500 X90.45 Y119.184 E24.14837
G1 X90.288 Y120 E24.18987
G1 X90.533 Y121.229 E24.2524
G1 X91.23 Y122.271 E24.31494
G1 X92.271 Y122.967 E24.37741
G1 X93.501 Y123.212 E24.43998
G1 X94.729 Y122.967 E24.50246
G1 X95.77 Y122.271 E24.56493
G1 X96.467 Y121.229 E24.62748
G1 X96.712 Y120 E24.69
G1 X96.467 Y118.771 E24.75252
G1 X95.77 Y117.73 E24.81502
G1 X94.729 Y117.033 E24.87752
G1 X93.962 Y116.881 E24.91653
G1 X93.632 Y116.864 E24.93302
G1 X93.288 Y116.884 E24.95021
G1 X92.987 Y116.932 E24.96542
G1 X92.675 Y117.016 E24.98154
G1 X92.37 Y117.132 E24.99782
G1 X92.08 Y117.281 E25.01408
G1 X91.815 Y117.456 E25.02993
G1 X91.568 Y117.656 E25.04578
G1 X91.337 Y117.888 E25.06212
G1 X91.143 Y118.132 E25.07767
G1 X90.97 Y118.399 E25.09354
G1 X90.828 Y118.678 E25.10916
G1 X90.734 Y118.931 E25.12262
G1 X90.602 Y119.203 E25.13771
G0 F7500 X90.77 Y119.627
;TYPE:WALL-OUTER
G1 F1500 X90.696 Y120 E25.15668
G1 X90.91 Y121.073 E25.21127
G1 X91.518 Y121.983 E25.26587
G1 X92.427 Y122.59 E25.3204
G1 X93.501 Y122.804 E25.37503
G1 X94.573 Y122.59 E25.42957
G1 X95.482 Y121.983 E25.4841
G1 X96.09 Y121.073 E25.5387
G1 X96.304 Y120 E25.59329
G1 X96.09 Y118.927 E25.64788
G1 X95.482 Y118.018 E25.70244
G1 X94.573 Y117.41 E25.757
G1 X93.913 Y117.279 E25.79057
G1 X93.633 Y117.265 E25.80455
G1 X93.331 Y117.282 E25.81964
G1 X93.071 Y117.324 E25.83278
G1 X92.798 Y117.397 E25.84688
G1 X92.533 Y117.498 E25.86103
G1 X92.282 Y117.627 E25.87511
G1 X92.051 Y117.779 E25.88891
G1 X91.836 Y117.953 E25.9027
G1 X91.636 Y118.154 E25.91685
G1 X91.468 Y118.366 E25.93035
G1 X91.317 Y118.599 E25.9442
G1 X91.195 Y118.839 E25.95763
G1 X91.101 Y119.092 E25.9711
G1 X90.979 Y119.34 E25.98488
G1 X90.865 Y119.589 E25.99855
G1 X90.842 Y119.636 E26.00116
G1 X90.77 Y119.627 E26.00478
G0 F7500 X90.732 Y119.823
G0 X90.301 Y119.737
G1 F2700 E19.50478
G0 F7500 X90.686 Y121.166
G0 X91.346 Y122.155
G0 X92.334 Y122.814
G0 X93.279 Y123.003
G0 X94.804 Y123.147
G0 X94.236 Y121.777
G0 X101.665 Y123.147
G0 X100.19 Y123.147
G0 X100.4 Y129.4
;TYPE:WALL-INNER
G1 F2700 E26.00478
G1 F1500 X86.6 Y129.4 E26.69326
G1 X86.6 Y90.6 E28.629
G1 X100.4 Y90.6 E29.31749
G1 X100.4 Y129.4 E31.25323
G0 F7500 X100.8 Y129.8
;TYPE:WALL-OUTER
G1 F1500 X86.2 Y129.8 E31.98162
G1 X86.2 Y90.2 E33.95728
G1 X100.8 Y90.2 E34.68567
G1 X100.8 Y129.8 E36.66132
G0 F7500 X100.6 Y129.8
G0 X100.36 Y129.36
G0 X100.01 Y129.01
;TYPE:SKIN
G1 F1500 X86.99 Y129.01 E37.31089
G1 X86.99 Y90.99 E39.20772
G1 X100.01 Y90.99 E39.85729
G1 X100.01 Y129.01 E41.75412
G1 F2700 E35.25412
G0 F7500 X100.29 Y129.01
G0 X100.19 Y122.349
G0 X101.665 Y122.349
G0 X95.277 Y120.736
G0 X96.647 Y121.304
G0 X95.851 Y122.349
G1 F2700 E41.75412
G0 F7500 X96.051 Y122.552
G1 F1500 X96.834 Y121.381 E41.82439
G1 X97.11 Y120 E41.89466
G1 X96.834 Y118.619 E41.96492
G1 X96.051 Y117.449 E42.03515
G1 X94.881 Y116.666 E42.10539
G1 X94.01 Y116.493 E42.14969
G1 X93.63 Y116.474 E42.16868
G1 X93.246 Y116.496 E42.18787
G1 X92.905 Y116.55 E42.20509
G1 X92.554 Y116.644 E42.22322
G1 X92.21 Y116.775 E42.24158
G1 X91.883 Y116.944 E42.25995
G1 X91.585 Y117.141 E42.27777
G1 X91.307 Y117.366 E42.29561
G1 X91.045 Y117.628 E42.3141
G1 X90.826 Y117.904 E42.33168
G1 X90.631 Y118.204 E42.34953
G1 X90.471 Y118.522 E42.36729
G1 X90.374 Y118.781 E42.38108
G1 X90.138 Y118.751 E42.39295
G1 X89.89 Y120 E42.45648
G1 X90.166 Y121.381 E42.52674
G1 X90.949 Y122.552 E42.59702
G1 X92.119 Y123.334 E42.66723
G1 X93.501 Y123.61 E42.73754
G1 X94.881 Y123.334 E42.80775
G1 X96.051 Y122.552 E42.87796
G1 F2700 E36.37796
G0 F7500 X95.851 Y122.349
G0 X96.314 Y121.166
G0 X96.548 Y120
G0 X96.314 Y118.834
G0 X95.78 Y118.034
G0 X94.804 Y116.853
G0 X94.236 Y118.223
G0 X93.499 Y101.923
G0 X93.5 Y103.406
G0 X94.779 Y103.068
G1 F2700 E42.87796
G0 F7500 X94.886 Y103.332
G1 F1500 X96.051 Y102.551 E42.94794
G1 X96.834 Y101.381 E43.01817
G1 X97.11 Y100 E43.08843
G1 X96.834 Y98.619 E43.1587
G1 X96.051 Y97.448 E43.22897
G1 X94.881 Y96.666 E43.29918
G1 X94.01 Y96.493 E43.34349
G1 X93.629 Y96.474 E43.36252
G1 X93.281 Y96.495 E43.37991
G1 X92.912 Y96.55 E43.39852
G1 X92.556 Y96.644 E43.41689
G1 X92.211 Y96.775 E43.4353
G1 X91.883 Y96.944 E43.45371
G1 X91.585 Y97.139 E43.47148
G1 X91.306 Y97.366 E43.48943
G1 X91.043 Y97.63 E43.50802
G1 X90.825 Y97.904 E43.52549
G1 X90.59 Y98.27 E43.54719
G1 X90.417 Y98.669 E43.56888
G1 X90.362 Y98.78 E43.57506
G1 X90.138 Y98.753 E43.58632
G1 X89.89 Y100 E43.64975
G1 X90.166 Y101.381 E43.72001
G1 X90.949 Y102.551 E43.79025
G1 X92.119 Y103.334 E43.86048
G1 X93.5 Y103.61 E43.93075
G1 X94.886 Y103.332 E44.00127
G1 F2700 E37.50127
G0 F7500 X94.779 Y103.068
G0 X95.654 Y102.154
G0 X96.314 Y101.166
G0 X96.548 Y100
G0 X96.359 Y99.056
G0 X95.907 Y97.592
G0 X94.859 Y98.64
G0 X101.665 Y97.592
G0 X100.19 Y97.592
G0 X100.29 Y91.364
G1 F2700 E44.00127
G0 F7500 X99.849 Y91.364
G1 F1500 X99.635 Y91.15 E44.01637
G0 F7500 X99.069 Y91.15
G1 F1500 X99.849 Y91.93 E44.0714
G0 F7500 X99.849 Y92.495
G1 F1500 X98.504 Y91.15 E44.1663
G0 F7500 X97.938 Y91.15
G1 F1500 X99.849 Y93.061 E44.30113
G0 F7500 X99.849 Y93.627
G1 F1500 X97.372 Y91.15 E44.4759
G0 F7500 X96.807 Y91.15
G1 F1500 X99.849 Y94.192 E44.69053
G0 F7500 X99.849 Y94.758
G1 F1500 X96.241 Y91.15 E44.94509
G0 F7500 X95.675 Y91.15
G1 F1500 X99.849 Y95.324 E45.23959
G0 F7500 X99.849 Y95.89
G1 F1500 X95.11 Y91.15 E45.57399
G0 F7500 X94.544 Y91.15
G1 F1500 X99.849 Y96.455 E45.94828
G0 F7500 X99.849 Y97.021
G1 F1500 X93.978 Y91.15 E46.36251
G0 F7500 X93.413 Y91.15
G1 F1500 X99.849 Y97.587 E46.81664
G0 F7500 X99.849 Y98.152
G1 F1500 X92.847 Y91.15 E47.31067
G0 F7500 X92.281 Y91.15
G1 F1500 X99.849 Y98.718 E47.84464
G0 F7500 X99.849 Y99.284
G1 F1500 X91.715 Y91.15 E48.41853
G0 F7500 X91.15 Y91.15
G1 F1500 X99.849 Y99.849 E49.03229
G0 F7500 X99.849 Y100.415
G1 F1500 X90.584 Y91.15 E49.68599
G0 F7500 X90.018 Y91.15
G1 F1500 X99.849 Y100.981 E50.37962
G0 F7500 X99.849 Y101.546
G1 F1500 X97.015 Y98.712 E50.57957
G0 F7500 X97.156 Y99.419
G1 F1500 X99.849 Y102.112 E50.76958
G0 F7500 X99.849 Y102.678
G1 F1500 X97.255 Y100.083 E50.95264
G0 F7500 X97.161 Y100.555
G1 F1500 X99.849 Y103.243 E51.14229
G0 F7500 X99.849 Y103.809
G1 F1500 X97.066 Y101.026 E51.33864
G0 F7500 X96.957 Y101.482
G1 F1500 X99.849 Y104.375 E51.54273
G0 F7500 X99.849 Y104.941
G1 F1500 X96.73 Y101.821 E51.76282
G0 F7500 X96.503 Y102.159
G1 F1500 X99.849 Y105.506 E51.99894
G0 F7500 X99.849 Y106.072
G1 F1500 X96.276 Y102.499 E52.25103
G0 F7500 X95.993 Y102.781
G1 F1500 X99.849 Y106.638 E52.52313
G0 F7500 X99.849 Y107.203
G1 F1500 X95.654 Y103.008 E52.81911
G0 F7500 X95.315 Y103.235
G1 F1500 X99.849 Y107.769 E53.13901
G0 F7500 X99.849 Y108.335
G1 F1500 X94.977 Y103.462 E53.48279
G0 F7500 X94.517 Y103.568
G1 F1500 X99.849 Y108.9 E53.85899
G0 F7500 X99.849 Y109.466
G1 F1500 X94.046 Y103.663 E54.26842
G0 F7500 X93.575 Y103.758
G1 F1500 X99.849 Y110.032 E54.71109
G0 F7500 X99.849 Y110.597
G1 F1500 X92.906 Y103.654 E55.20095
G0 F7500 X92.198 Y103.511
G1 F1500 X99.849 Y111.163 E55.74081
G0 F7500 X99.849 Y111.729
G1 F1500 X87.15 Y99.029 E56.63683
G0 F7500 X87.15 Y98.463
G1 F1500 X89.987 Y101.301 E56.83703
G0 F7500 X89.846 Y100.594
G1 F1500 X87.15 Y97.898 E57.02724
G0 F7500 X87.15 Y97.332
G1 F1500 X89.742 Y99.924 E57.21012
G0 F7500 X89.835 Y99.452
G1 F1500 X87.15 Y96.766 E57.3996
G0 F7500 X87.15 Y96.201
G1 F1500 X89.929 Y98.98 E57.59567
G0 F7500 X90.1 Y98.586
G1 F1500 X87.15 Y95.635 E57.80385
G0 F7500 X87.15 Y95.069
G1 F1500 X90.396 Y98.316 E58.03291
G0 F7500 X90.602 Y97.956
G1 F1500 X87.15 Y94.504 E58.27646
G0 F7500 X87.15 Y93.938
G1 F1500 X90.839 Y97.628 E58.53678
G0 F7500 X91.111 Y97.333
G1 F1500 X87.15 Y93.372 E58.81625
G0 F7500 X87.15 Y92.807
G1 F1500 X91.413 Y97.07 E59.11702
G0 F7500 X91.748 Y96.839
G1 F1500 X87.15 Y92.241 E59.44144
G0 F7500 X87.15 Y91.675
G1 F1500 X92.116 Y96.642 E59.79185
G0 F7500 X92.526 Y96.486
G1 F1500 X87.19 Y91.15 E60.16834
G0 F7500 X87.756 Y91.15
G1 F1500 X92.983 Y96.377 E60.53713
G0 F7500 X93.492 Y96.321
G1 F1500 X88.321 Y91.15 E60.90197
G0 F7500 X88.887 Y91.15
G1 F1500 X94.079 Y96.342 E61.26829
G0 F7500 X94.786 Y96.483
G1 F1500 X89.453 Y91.15 E61.64457
G0 F7500 X89.453 Y90.71
G0 X86.782 Y90.782
G0 X86.71 Y99.595
G0 X87.15 Y99.595
G1 F1500 X99.849 Y112.294 E62.54055
G0 F7500 X99.849 Y112.86
G1 F1500 X87.15 Y100.16 E63.43657
G0 F7500 X87.15 Y100.726
G1 F1500 X99.849 Y113.426 E64.33259
G0 F7500 X99.849 Y113.991
G1 F1500 X87.15 Y101.292 E65.22857
G0 F7500 X87.15 Y101.858
G1 F1500 X99.849 Y114.557 E66.12455
G0 F7500 X99.849 Y115.123
G1 F1500 X87.15 Y102.423 E67.02057
G0 F7500 X87.15 Y102.989
G1 F1500 X99.849 Y115.689 E67.91659
G0 F7500 X99.849 Y116.254
G1 F1500 X87.15 Y103.555 E68.81257
G0 F7500 X87.15 Y104.12
G1 F1500 X99.849 Y116.82 E69.70859
G0 F7500 X99.849 Y117.386
G1 F1500 X87.15 Y104.686 E70.60461
G0 F7500 X87.15 Y105.252
G1 F1500 X99.849 Y117.951 E71.50059
G0 F7500 X99.849 Y118.517
G1 F1500 X87.15 Y105.817 E72.39661
G0 F7500 X87.15 Y106.383
G1 F1500 X99.849 Y119.083 E73.29263
G0 F7500 X99.849 Y119.648
G1 F1500 X87.15 Y106.949 E74.18861
G0 F7500 X87.15 Y107.514
G1 F1500 X99.849 Y120.214 E75.08463
G0 F7500 X99.849 Y120.78
G1 F1500 X87.15 Y108.08 E75.98065
G0 F7500 X87.15 Y108.646
