;FLAVOR:Marlin
;TIME:2698
;Filament used: 1.59263m
;Layer height: 0.15
;MINX:82.4
;MINY:96.4
;MINZ:0.3
;MAXX:137.6
;MAXY:140.1
;MAXZ:7.05
;Generated with Cura_SteamEngine 4.13.1
M140 S60
M105
M190 S60
M104 S195
M105
M109 S195
M82 ;absolute extrusion mode
G28 ;Home
G1 Z15.0 F2000 ;Move the platform
G92 E0
G92 E0
G1 F2700 E-6.5
;LAYER_COUNT:46
;LAYER:0
M107
M204 S1000
G0 F7500 X83.794 Y97.171 Z0.3
;TYPE:SKIRT
G1 F2700 E0
G1 F1500 X84.241 Y96.873 E0.0268
G1 X84.726 Y96.645 E0.05354
G1 X85.24 Y96.492 E0.08029
G1 X85.908 Y96.41 E0.11387
G1 X86.33 Y96.4 E0.13493
G1 X100.741 Y96.4 E0.8539
G1 X102.202 Y96.405 E0.92679
G1 X102.898 Y96.4 E0.96151
G1 X117.241 Y96.4 E1.67709
G1 X118.702 Y96.405 E1.74998
G1 X119.398 Y96.4 E1.7847
G1 X133.345 Y96.4 E2.48052
G1 X134.043 Y96.41 E2.51535
G1 X134.577 Y96.458 E2.5421
G1 X135.098 Y96.584 E2.56884
G1 X135.595 Y96.787 E2.59562
G1 X136.056 Y97.061 E2.62238
G1 X136.471 Y97.4 E2.64911
G1 X136.831 Y97.798 E2.67589
G1 X137.128 Y98.244 E2.70262
G1 X137.356 Y98.73 E2.7294
G1 X137.508 Y99.244 E2.75614
G1 X137.59 Y99.909 E2.78957
G1 X137.6 Y100.33 E2.81058
G1 X137.6 Y119.324 E3.7582
G1 X137.59 Y120.046 E3.79422
G1 X137.542 Y120.58 E3.82097
G1 X137.416 Y121.101 E3.84771
G1 X137.214 Y121.598 E3.87448
G1 X136.94 Y122.059 E3.90123
G1 X136.483 Y122.593 E3.9363
G1 X136.12 Y122.941 E3.96139
G1 X134.144 Y124.891 E4.09989
G1 X132.259 Y126.86 E4.23588
G1 X130.434 Y128.875 E4.37151
G1 X128.64 Y130.976 E4.50935
G1 X126.939 Y133.083 E4.64445
G1 X125.309 Y135.227 E4.77881
G1 X123.675 Y137.503 E4.91859
G1 X122.949 Y138.547 E4.98204
G1 X122.611 Y138.963 E5.00878
G1 X122.215 Y139.324 E5.03551
G1 X121.77 Y139.623 E5.06226
G1 X121.285 Y139.852 E5.08902
G1 X120.771 Y140.006 E5.11579
G1 X120.094 Y140.09 E5.14982
G1 X119.67 Y140.1 E5.17098
G1 X100.656 Y140.1 E6.11959
G1 X99.954 Y140.09 E6.15462
G1 X99.42 Y140.042 E6.18137
G1 X98.898 Y139.916 E6.20816
G1 X98.402 Y139.713 E6.2349
G1 X97.941 Y139.439 E6.26165
G1 X97.525 Y139.1 E6.28842
G1 X97.053 Y138.55 E6.32458
G1 X95.495 Y136.317 E6.46042
G1 X93.885 Y134.143 E6.59539
G1 X92.187 Y131.98 E6.73258
G1 X90.443 Y129.883 E6.86865
G1 X88.643 Y127.839 E7.00453
G1 X86.783 Y125.844 E7.14061
G1 X84.873 Y123.909 E7.27626
G1 X84.125 Y123.193 E7.32792
G1 X83.482 Y122.559 E7.37297
G1 X83.13 Y122.156 E7.39966
G1 X82.841 Y121.704 E7.42643
G1 X82.622 Y121.214 E7.45321
G1 X82.479 Y120.697 E7.47997
G1 X82.412 Y120.106 E7.50964
G1 X82.4 Y119.67 E7.5314
G1 X82.4 Y100.625 E8.48156
G1 X82.409 Y99.96 E8.51474
G1 X82.457 Y99.426 E8.54149
G1 X82.583 Y98.905 E8.56823
G1 X82.785 Y98.408 E8.595
G1 X83.058 Y97.947 E8.62173
G1 X83.397 Y97.531 E8.6485
G1 X83.794 Y97.171 E8.67524
G0 F7500 X84.18 Y97.383
G1 F1500 X84.617 Y97.128 E8.70048
G1 X85.088 Y96.944 E8.72571
G1 X85.582 Y96.838 E8.75091
G1 X85.919 Y96.81 E8.76779
G1 X86.33 Y96.8 E8.7883
G1 X100.74 Y96.8 E9.50721
G1 X102.203 Y96.805 E9.5802
G1 X102.9 Y96.8 E9.61498
G1 X117.24 Y96.8 E10.3304
G1 X118.703 Y96.805 E10.40339
G1 X119.4 Y96.8 E10.43817
G1 X133.339 Y96.8 E11.13359
G1 X134.037 Y96.81 E11.16841
G1 X134.54 Y96.857 E11.19362
G1 X135.03 Y96.983 E11.21886
G1 X135.494 Y97.185 E11.24411
G1 X135.92 Y97.457 E11.26932
G1 X136.298 Y97.792 E11.29452
G1 X136.618 Y98.183 E11.31973
G1 X136.873 Y98.62 E11.34497
G1 X137.056 Y99.091 E11.37018
G1 X137.163 Y99.585 E11.3954
G1 X137.19 Y99.92 E11.41217
G1 X137.2 Y100.33 E11.43263
G1 X137.2 Y119.318 E12.37994
G1 X137.19 Y120.04 E12.41597
G1 X137.143 Y120.544 E12.44122
G1 X137.017 Y121.033 E12.46641
G1 X136.816 Y121.497 E12.49164
G1 X136.544 Y121.924 E12.5169
G1 X136.206 Y122.305 E12.54231
G1 X135.807 Y122.688 E12.5699
G1 X133.875 Y124.595 E12.70534
G1 X131.933 Y126.622 E12.84539
G1 X130.132 Y128.612 E12.97929
G1 X128.358 Y130.689 E13.11556
G1 X126.626 Y132.835 E13.25315
G1 X124.981 Y134.997 E13.38868
G1 X123.35 Y137.27 E13.52826
G1 X122.621 Y138.318 E13.59195
G1 X122.301 Y138.709 E13.61715
G1 X121.922 Y139.045 E13.64242
G1 X121.496 Y139.317 E13.66764
G1 X121.032 Y139.518 E13.69287
G1 X120.543 Y139.644 E13.71806
G1 X120.083 Y139.69 E13.74112
G1 X119.67 Y139.7 E13.76174
G1 X100.661 Y139.7 E14.7101
G1 X99.959 Y139.69 E14.74512
G1 X99.456 Y139.643 E14.77033
G1 X98.966 Y139.517 E14.79557
G1 X98.503 Y139.315 E14.82077
G1 X98.076 Y139.044 E14.846
G1 X97.698 Y138.708 E14.87123
G1 X97.381 Y138.321 E14.89619
G1 X95.829 Y136.096 E15.03154
G1 X94.188 Y133.881 E15.16907
G1 X92.494 Y131.722 E15.30598
G1 X90.75 Y129.626 E15.44201
G1 X88.953 Y127.586 E15.57764
G1 X87.078 Y125.574 E15.71485
G1 X85.133 Y123.605 E15.85293
G1 X84.406 Y122.909 E15.90314
G1 X83.763 Y122.275 E15.94819
G1 X83.432 Y121.892 E15.97345
G1 X83.166 Y121.463 E15.99863
G1 X82.97 Y120.996 E16.0239
G1 X82.851 Y120.505 E16.04911
G1 X82.812 Y120.094 E16.0697
G1 X82.8 Y119.67 E16.09086
G1 X82.8 Y100.631 E17.04072
G1 X82.809 Y99.966 E17.0739
G1 X82.856 Y99.462 E17.09916
G1 X82.982 Y98.973 E17.12435
G1 X83.183 Y98.509 E17.14958
G1 X83.454 Y98.082 E17.17481
G1 X83.789 Y97.704 E17.20001
G1 X84.18 Y97.383 E17.22525
G1 F2700 E10.72525
;MESH:ProfileConstruct-SingleProfileNutScrewM6.stl(1)
G0 F7500 X91.837 Y108.477
G0 X90.603 Y107.693
G0 X90.502 Y108.213
;TYPE:WALL-INNER
G1 F2700 E17.22525
G1 F1500 X89.937 Y109.213 E17.28255
G1 X90.05 Y109.213 E17.28819
G1 X90.025 Y109.279 E17.28825
G1 X89.93 Y109.293 E17.2897
G1 X89.801 Y109.936 E17.32242
G1 X89.801 Y110.067 E17.32896
G1 X90.073 Y111.424 E17.398
G1 X90.876 Y112.625 E17.47008
G1 X92.084 Y113.431 E17.54253
G1 X93.505 Y113.711 E17.61479
G1 X94.771 Y113.459 E17.67919
G1 X94.936 Y113.419 E17.68766
G1 X96.125 Y112.624 E17.75902
G1 X96.931 Y111.416 E17.83147
G1 X97.211 Y109.995 E17.90373
G1 X96.929 Y108.58 E17.97571
G1 X96.124 Y107.376 E18.04797
G1 X94.92 Y106.571 E18.12022
G1 X93.947 Y106.377 E18.16972
G1 X93.668 Y106.36 E18.18367
G1 X93.281 Y106.379 E18.203
G1 X92.958 Y106.428 E18.2193
G1 X92.556 Y106.526 E18.23994
G1 X92.19 Y106.663 E18.25944
G1 X91.856 Y106.832 E18.27811
G1 X91.553 Y107.025 E18.29603
G1 X91.255 Y107.262 E18.31503
G1 X90.991 Y107.524 E18.33359
G1 X90.756 Y107.807 E18.35194
G1 X90.508 Y108.181 E18.37433
G1 X90.502 Y108.213 E18.37595
G0 F7500 X90.622 Y108.813
;TYPE:WALL-OUTER
G1 F1500 X90.667 Y108.813 E18.3782
G1 X90.56 Y109.078 E18.39245
G1 X90.435 Y109.325 E18.40627
G1 X90.315 Y109.641 E18.42313
G1 X90.267 Y109.648 E18.42555
G1 X90.201 Y109.976 E18.44224
G1 X90.201 Y110.027 E18.44479
G1 X90.45 Y111.268 E18.50793
G1 X91.164 Y112.336 E18.57203
G1 X92.24 Y113.054 E18.63656
G1 X93.505 Y113.303 E18.70088
G1 X94.685 Y113.068 E18.76091
G1 X94.773 Y113.047 E18.76542
G1 X95.836 Y112.336 E18.82923
G1 X96.554 Y111.26 E18.89376
G1 X96.803 Y109.995 E18.95809
G1 X96.552 Y108.736 E19.02213
G1 X95.836 Y107.664 E19.08645
G1 X94.764 Y106.948 E19.15076
G1 X93.896 Y106.775 E19.19492
G1 X93.666 Y106.761 E19.20642
G1 X93.321 Y106.778 E19.22365
G1 X93.035 Y106.821 E19.23808
G1 X92.674 Y106.909 E19.25662
G1 X92.351 Y107.03 E19.27382
G1 X92.054 Y107.18 E19.29042
G1 X91.785 Y107.351 E19.30633
G1 X91.521 Y107.561 E19.32316
G1 X91.287 Y107.794 E19.33963
G1 X91.078 Y108.046 E19.35596
G1 X90.885 Y108.337 E19.37338
G1 X90.882 Y108.352 E19.37415
G1 X90.622 Y108.813 E19.40055
G0 F7500 X90.667 Y108.813
G0 X90.609 Y108.957
G1 F2700 E12.90055
G0 F7500 X90.284 Y109.113
G0 X90.072 Y109.441
G0 X89.962 Y110.05
G0 X90.226 Y111.361
G0 X90.992 Y112.508
G0 X92.147 Y113.279
G0 X93.505 Y113.547
G0 X94.277 Y113.39
G0 X96.063 Y112.917
G0 X95.213 Y111.714
G0 X101.665 Y112.917
G0 X100.19 Y112.917
G0 X100.4 Y119.4
;TYPE:WALL-INNER
G1 F2700 E19.40055
G1 F1500 X86.6 Y119.4 E20.08904
G1 X86.6 Y100.6 E21.02697
G1 X100.4 Y100.6 E21.71546
G1 X100.4 Y119.4 E22.65339
G0 F7500 X100.8 Y119.8
;TYPE:WALL-OUTER
G1 F1500 X86.2 Y119.8 E23.38179
G1 X86.2 Y100.2 E24.35964
G1 X100.8 Y100.2 E25.08804
G1 X100.8 Y119.8 E26.06588
G0 F7500 X100.6 Y119.8
G0 X100.36 Y119.36
G0 X100.01 Y119.01
;TYPE:SKIN
G1 F1500 X86.99 Y119.01 E26.71545
G1 X86.99 Y100.99 E27.61448
G1 X100.01 Y100.99 E28.26405
G1 X100.01 Y119.01 E29.16307
G1 F2700 E22.66307
G0 F7500 X100.29 Y119.01
G0 X100.19 Y112.702
G0 X101.665 Y112.702
G0 X95.74 Y110.923
G0 X97.111 Y111.491
G0 X96.205 Y112.702
G1 F2700 E29.16307
G0 F7500 X96.406 Y112.905
G1 F1500 X97.299 Y111.568 E29.24328
G1 X97.609 Y109.995 E29.32327
G1 X97.296 Y108.428 E29.40299
G1 X96.405 Y107.095 E29.48298
G1 X95.072 Y106.204 E29.56297
G1 X93.997 Y105.989 E29.61767
G1 X93.67 Y105.97 E29.63401
G1 X93.242 Y105.991 E29.65539
G1 X92.882 Y106.045 E29.67355
G1 X92.441 Y106.153 E29.6962
G1 X92.034 Y106.306 E29.71789
G1 X91.663 Y106.493 E29.73862
G1 X91.327 Y106.707 E29.7585
G1 X90.996 Y106.97 E29.77959
G1 X90.703 Y107.261 E29.80019
G1 X90.442 Y107.575 E29.82056
G1 X90.14 Y108.03 E29.84781
G1 X90.131 Y108.078 E29.85024
G1 X89.268 Y109.603 E29.93766
G1 X89.47 Y109.603 E29.94774
G1 X89.411 Y109.897 E29.9627
G1 X89.411 Y110.106 E29.97313
G1 X89.706 Y111.576 E30.04793
G1 X90.595 Y112.906 E30.12774
G1 X91.932 Y113.799 E30.20795
G1 X93.505 Y114.109 E30.28794
G1 X94.855 Y113.84 E30.35662
G1 X95.095 Y113.782 E30.36894
G1 X96.406 Y112.905 E30.44763
G1 F2700 E23.94763
G0 F7500 X96.205 Y112.702
G0 X93.505 Y113.905
G0 X93.504 Y112.422
G0 X93.505 Y120.665
G0 X93.505 Y119.19
G0 X87.736 Y119.29
G1 F2700 E30.44763
G0 F7500 X87.736 Y118.849
G1 F1500 X87.149 Y118.262 E30.48904
G0 F7500 X87.149 Y117.696
G1 F1500 X88.302 Y118.849 E30.57039
G0 F7500 X88.867 Y118.849
G1 F1500 X87.149 Y117.13 E30.69164
G0 F7500 X87.149 Y116.565
G1 F1500 X89.433 Y118.849 E30.85279
G0 F7500 X89.999 Y118.849
G1 F1500 X87.149 Y115.999 E31.05387
G0 F7500 X87.149 Y115.433
G1 F1500 X90.564 Y118.849 E31.29486
G0 F7500 X91.13 Y118.849
G1 F1500 X87.149 Y114.868 E31.57574
G0 F7500 X87.149 Y114.302
G1 F1500 X91.696 Y118.849 E31.89655
G0 F7500 X92.261 Y118.849
G1 F1500 X87.149 Y113.736 E32.25727
G0 F7500 X87.149 Y113.171
G1 F1500 X92.827 Y118.849 E32.65788
G0 F7500 X93.393 Y118.849
G1 F1500 X87.149 Y112.605 E33.09843
G0 F7500 X87.149 Y112.039
G1 F1500 X93.958 Y118.849 E33.57888
G0 F7500 X94.524 Y118.849
G1 F1500 X87.149 Y111.473 E34.09926
G0 F7500 X87.149 Y110.908
G1 F1500 X95.09 Y118.849 E34.65954
G0 F7500 X95.655 Y118.849
G1 F1500 X87.149 Y110.342 E35.25972
G0 F7500 X87.149 Y109.776
G1 F1500 X96.221 Y118.849 E35.89983
G0 F7500 X96.787 Y118.849
G1 F1500 X91.892 Y113.954 E36.2452
G0 F7500 X92.597 Y114.093
G1 F1500 X97.353 Y118.849 E36.58076
G0 F7500 X97.918 Y118.849
G1 F1500 X93.301 Y114.231 E36.90655
G0 F7500 X93.84 Y114.204
G1 F1500 X98.484 Y118.849 E37.23425
G0 F7500 X99.05 Y118.849
G1 F1500 X94.311 Y114.11 E37.56861
G0 F7500 X94.782 Y114.016
G1 F1500 X99.615 Y118.849 E37.9096
G0 F7500 X99.849 Y118.517
G1 F1500 X95.222 Y113.89 E38.23606
G0 F7500 X95.561 Y113.663
G1 F1500 X99.849 Y117.951 E38.5386
G0 F7500 X99.849 Y117.386
G1 F1500 X95.899 Y113.436 E38.8173
G0 F7500 X96.238 Y113.209
G1 F1500 X99.849 Y116.82 E39.07207
G0 F7500 X99.849 Y116.254
G1 F1500 X96.557 Y112.962 E39.30434
G0 F7500 X96.784 Y112.623
G1 F1500 X99.849 Y115.689 E39.52063
G0 F7500 X99.849 Y115.123
G1 F1500 X97.011 Y112.285 E39.72086
G0 F7500 X97.237 Y111.945
G1 F1500 X99.849 Y114.557 E39.90516
G0 F7500 X99.849 Y113.991
G1 F1500 X97.455 Y111.597 E40.07406
G0 F7500 X97.548 Y111.125
G1 F1500 X99.849 Y113.426 E40.23641
G0 F7500 X99.849 Y112.86
G1 F1500 X97.642 Y110.653 E40.39213
G0 F7500 X97.734 Y110.179
G1 F1500 X99.849 Y112.294 E40.54135
G0 F7500 X99.849 Y111.729
G1 F1500 X97.686 Y109.566 E40.69396
G0 F7500 X97.545 Y108.859
G1 F1500 X99.849 Y111.163 E40.85652
G0 F7500 X99.849 Y110.597
G1 F1500 X97.102 Y107.85 E41.05034
G0 F7500 X96.736 Y108.093
G0 X95.403 Y106.761
G0 X95.648 Y106.396
G1 F1500 X90.401 Y101.149 E41.42054
G0 F7500 X89.835 Y101.149
G1 F1500 X94.639 Y105.953 E41.75949
G0 F7500 X93.944 Y105.824
G1 F1500 X89.27 Y101.149 E42.0893
G0 F7500 X88.704 Y101.149
G1 F1500 X93.378 Y105.823 E42.41908
G0 F7500 X92.872 Y105.883
G1 F1500 X88.138 Y101.149 E42.75309
G0 F7500 X87.573 Y101.149
G1 F1500 X92.417 Y105.993 E43.09486
G0 F7500 X92.003 Y106.145
G1 F1500 X87.149 Y101.291 E43.43734
G0 F7500 X87.149 Y101.857
G1 F1500 X91.624 Y106.332 E43.75307
G0 F7500 X91.275 Y106.548
G1 F1500 X87.149 Y102.423 E44.04415
G0 F7500 X87.149 Y102.988
G1 F1500 X90.955 Y106.795 E44.31272
G0 F7500 X90.665 Y107.07
G1 F1500 X87.149 Y103.554 E44.56079
G0 F7500 X87.149 Y104.12
G1 F1500 X90.402 Y107.372 E44.79027
G0 F7500 X90.165 Y107.701
G1 F1500 X87.149 Y104.685 E45.00307
G0 F7500 X87.149 Y105.251
G1 F1500 X89.957 Y108.059 E45.20118
G0 F7500 X89.753 Y108.42
G1 F1500 X87.149 Y105.817 E45.38488
G0 F7500 X87.149 Y106.382
G1 F1500 X89.548 Y108.782 E45.55417
G0 F7500 X89.344 Y109.143
G1 F1500 X87.149 Y106.948 E45.70904
G0 F7500 X87.149 Y107.514
G1 F1500 X89.14 Y109.504 E45.84948
G0 F7500 X89.266 Y110.196
G1 F1500 X87.149 Y108.079 E45.99885
G0 F7500 X87.149 Y108.645
G1 F1500 X89.407 Y110.904 E46.1582
G0 F7500 X89.549 Y111.611
G1 F1500 X87.149 Y109.211 E46.32753
G0 F7500 X86.71 Y109.211
G0 X86.782 Y100.782
G0 X90.967 Y100.71
G0 X90.967 Y101.149
G1 F1500 X99.849 Y110.032 E46.95424
G0 F7500 X99.849 Y109.466
G1 F1500 X91.532 Y101.149 E47.54105
G0 F7500 X92.098 Y101.149
G1 F1500 X99.849 Y108.9 E48.08792
G0 F7500 X99.849 Y108.335
G1 F1500 X92.664 Y101.149 E48.5949
G0 F7500 X93.229 Y101.149
G1 F1500 X99.849 Y107.769 E49.06198
G0 F7500 X99.849 Y107.203
G1 F1500 X93.795 Y101.149 E49.48912
G0 F7500 X94.361 Y101.149
G1 F1500 X99.849 Y106.638 E49.87636
G0 F7500 X99.849 Y106.072
G1 F1500 X94.926 Y101.149 E50.22371
G0 F7500 X95.492 Y101.149
G1 F1500 X99.849 Y105.506 E50.53112
G0 F7500 X99.849 Y104.941
G1 F1500 X96.058 Y101.149 E50.79863
G0 F7500 X96.624 Y101.149
G1 F1500 X99.849 Y104.375 E51.0262
G0 F7500 X99.849 Y103.809
G1 F1500 X97.189 Y101.149 E51.21388
G0 F7500 X97.755 Y101.149
G1 F1500 X99.849 Y103.243 E51.36162
G0 F7500 X99.849 Y102.678
G1 F1500 X98.321 Y101.149 E51.46947
G0 F7500 X98.886 Y101.149
G1 F1500 X99.849 Y102.112 E51.53741
G0 F7500 X99.849 Y101.546
G1 F1500 X99.452 Y101.149 E51.56542
G0 F7500 X99.452 Y100.8
G1 F2700 E45.06542
;MESH:ProfileConstruct-SingleProfileNutScrewM6.stl
G0 F7500 X99.452 Y100.71
G0 X100.218 Y100.782
G0 X100.58 Y108.213
G0 X101.665 Y108.213
G0 X107.715 Y109.724
G0 X106.266 Y109.124
G0 X107.002 Y108.213
;TYPE:WALL-INNER
G1 F2700 E51.56542
G1 F1500 X106.437 Y109.213 E51.62273
G1 X106.55 Y109.213 E51.62836
G1 X106.525 Y109.279 E51.62843
G1 X106.43 Y109.293 E51.62988
G1 X106.301 Y109.936 E51.6626
G1 X106.301 Y110.067 E51.66913
G1 X106.573 Y111.424 E51.73818
G1 X107.376 Y112.625 E51.81026
G1 X108.584 Y113.431 E51.88271
G1 X110.005 Y113.711 E51.95497
G1 X111.271 Y113.459 E52.01937
G1 X111.436 Y113.419 E52.02784
G1 X112.625 Y112.624 E52.09919
G1 X113.431 Y111.416 E52.17164
G1 X113.711 Y109.995 E52.2439
G1 X113.429 Y108.58 E52.31588
G1 X112.624 Y107.376 E52.38814
G1 X111.42 Y106.571 E52.4604
G1 X110.447 Y106.377 E52.5099
G1 X110.168 Y106.36 E52.52384
G1 X109.781 Y106.379 E52.54317
G1 X109.458 Y106.428 E52.55947
G1 X109.056 Y106.526 E52.58012
G1 X108.69 Y106.663 E52.59961
G1 X108.356 Y106.832 E52.61829
G1 X108.053 Y107.025 E52.63621
G1 X107.755 Y107.262 E52.65521
G1 X107.491 Y107.524 E52.67376
G1 X107.256 Y107.807 E52.69211
G1 X107.008 Y108.181 E52.7145
G1 X107.002 Y108.213 E52.71613
G0 F7500 X107.122 Y108.813
;TYPE:WALL-OUTER
G1 F1500 X107.167 Y108.813 E52.71837
G1 X107.06 Y109.078 E52.73263
G1 X106.935 Y109.325 E52.74644
G1 X106.815 Y109.641 E52.7633
G1 X106.767 Y109.648 E52.76573
G1 X106.701 Y109.976 E52.78242
G1 X106.701 Y110.027 E52.78496
G1 X106.95 Y111.268 E52.84811
G1 X107.664 Y112.336 E52.9122
G1 X108.74 Y113.054 E52.97674
G1 X110.005 Y113.303 E53.04106
G1 X111.185 Y113.068 E53.10109
G1 X111.273 Y113.047 E53.1056
G1 X112.336 Y112.336 E53.1694
G1 X113.054 Y111.26 E53.23394
G1 X113.303 Y109.995 E53.29826
G1 X113.052 Y108.736 E53.36231
G1 X112.336 Y107.664 E53.42662
G1 X111.264 Y106.948 E53.49094
G1 X110.396 Y106.775 E53.5351
G1 X110.166 Y106.761 E53.54659
G1 X109.821 Y106.778 E53.56382
G1 X109.535 Y106.821 E53.57825
G1 X109.174 Y106.909 E53.59679
G1 X108.851 Y107.03 E53.614
G1 X108.554 Y107.18 E53.6306
G1 X108.285 Y107.351 E53.6465
G1 X108.021 Y107.561 E53.66333
G1 X107.787 Y107.794 E53.67981
G1 X107.578 Y108.046 E53.69614
