;FLAVOR:Marlin
;TIME:6183
;Filament used: 4.51091m
;Layer height: 0.15
;MINX:86.8
;MINY:68.4
;MINZ:0.3
;MAXX:133.2
;MAXY:151.6
;MAXZ:7.95
;Generated with Cura_SteamEngine 4.13.1
M140 S60
M105
M190 S60
M104 S195
M105
M109 S195
M82 ;absolute extrusion mode
G28 ;Home
G1 Z15.0 F2000 ;Move the platform
G92 E0
G92 E0
G1 F2700 E-6.5
;LAYER_COUNT:52
;LAYER:0
M107
M204 S1000
G0 F7500 X87.454 Y69.682 Z0.3
;TYPE:SKIRT
G1 F2700 E0
G1 F1500 X87.789 Y69.304 E0.0252
G1 X88.18 Y68.983 E0.05044
G1 X88.617 Y68.728 E0.07568
G1 X89.088 Y68.544 E0.10091
G1 X89.582 Y68.438 E0.12611
G1 X89.919 Y68.41 E0.14299
G1 X90.33 Y68.4 E0.1635
G1 X129.339 Y68.4 E2.10966
G1 X130.037 Y68.41 E2.14449
G1 X130.54 Y68.457 E2.16969
G1 X131.03 Y68.583 E2.19494
G1 X131.494 Y68.785 E2.22018
G1 X131.92 Y69.057 E2.2454
G1 X132.298 Y69.392 E2.2706
G1 X132.618 Y69.783 E2.29581
G1 X132.873 Y70.22 E2.32105
G1 X133.056 Y70.691 E2.34626
G1 X133.163 Y71.185 E2.37147
G1 X133.19 Y71.52 E2.38824
G1 X133.2 Y71.93 E2.4087
G1 X133.2 Y147.704 E6.18908
G1 X133.191 Y148.431 E6.22536
G1 X133.145 Y148.934 E6.25056
G1 X133.02 Y149.424 E6.27578
G1 X132.819 Y149.888 E6.30101
G1 X132.548 Y150.315 E6.32624
G1 X132.213 Y150.694 E6.35148
G1 X131.823 Y151.015 E6.37668
G1 X131.387 Y151.271 E6.4019
G1 X130.916 Y151.454 E6.42711
G1 X130.422 Y151.562 E6.45234
G1 X130.081 Y151.59 E6.46941
G1 X129.67 Y151.6 E6.48992
G1 X90.666 Y151.6 E8.43584
G1 X89.968 Y151.591 E8.47067
G1 X89.464 Y151.544 E8.49592
G1 X88.974 Y151.419 E8.52115
G1 X88.51 Y151.218 E8.54638
G1 X88.084 Y150.947 E8.57157
G1 X87.705 Y150.612 E8.5968
G1 X87.384 Y150.221 E8.62204
G1 X87.129 Y149.785 E8.64724
G1 X86.945 Y149.314 E8.67247
G1 X86.838 Y148.82 E8.69769
G1 X86.81 Y148.477 E8.71485
G1 X86.8 Y148.058 E8.73576
G1 X86.8 Y72.231 E12.51879
G1 X86.809 Y71.566 E12.55197
G1 X86.856 Y71.062 E12.57722
G1 X86.982 Y70.573 E12.60242
G1 X87.183 Y70.109 E12.62764
G1 X87.454 Y69.682 E12.65288
G1 F2700 E6.15288
;MESH:ProfileValveHolder_40x40.stl
G0 F7500 X99.857 Y87.957
G0 X98.81 Y86.91
G0 X98.316 Y88.281
G0 X98.052 Y89.6
G0 X98.316 Y90.919
G0 X99.063 Y92.037
G0 X100.069 Y92.709
G0 X101.5 Y93.212
;TYPE:WALL-INNER
G1 F2700 E12.65288
G1 F1500 X102.882 Y92.937 E12.72318
G1 X104.053 Y92.153 E12.79348
G1 X104.837 Y90.982 E12.86379
G1 X105.112 Y89.6 E12.93409
G1 X104.837 Y88.218 E13.00439
G1 X104.053 Y87.047 E13.07469
G1 X102.882 Y86.263 E13.145
G1 X101.5 Y85.988 E13.2153
G1 X100.118 Y86.263 E13.2856
G1 X98.947 Y87.047 E13.35591
G1 X98.163 Y88.218 E13.42621
G1 X97.888 Y89.6 E13.49651
G1 X98.163 Y90.982 E13.56681
G1 X98.947 Y92.153 E13.63712
G1 X100.118 Y92.937 E13.70742
G1 X101.5 Y93.212 E13.77773
G0 F7500 X101.5 Y92.804
;TYPE:WALL-OUTER
G1 F1500 X102.726 Y92.56 E13.84009
G1 X103.765 Y91.865 E13.90245
G1 X104.46 Y90.826 E13.96482
G1 X104.704 Y89.6 E14.02718
G1 X104.46 Y88.374 E14.08955
G1 X103.765 Y87.335 E14.15191
G1 X102.726 Y86.64 E14.21427
G1 X101.5 Y86.396 E14.27664
G1 X100.274 Y86.64 E14.339
G1 X99.235 Y87.335 E14.40137
G1 X98.54 Y88.374 E14.46373
G1 X98.296 Y89.6 E14.5261
G1 X98.54 Y90.826 E14.58846
G1 X99.235 Y91.865 E14.65083
G1 X100.274 Y92.56 E14.71319
G1 X101.5 Y92.804 E14.77555
G0 F7500 X101.696 Y92.765
G0 X101.78 Y93.196
G1 F2700 E8.27555
G0 F7500 X102.819 Y92.784
G0 X103.937 Y92.037
G0 X104.684 Y90.919
G0 X104.948 Y89.6
G0 X104.684 Y88.281
G0 X103.937 Y87.163
G0 X103.032 Y86.559
G0 X101.5 Y85.794
G0 X101.5 Y87.277
G0 X101.5 Y79.923
G0 X101.5 Y81.406
G0 X101.5 Y81.212
;TYPE:WALL-INNER
G1 F2700 E14.77555
G1 F1500 X102.882 Y80.937 E14.84585
G1 X104.053 Y80.153 E14.91616
G1 X104.837 Y78.982 E14.98647
G1 X105.112 Y77.6 E15.05677
G1 X104.837 Y76.218 E15.12707
G1 X104.053 Y75.047 E15.19737
G1 X102.882 Y74.263 E15.26768
G1 X101.5 Y73.988 E15.33798
G1 X100.118 Y74.263 E15.40828
G1 X98.947 Y75.047 E15.47859
G1 X98.163 Y76.218 E15.54889
G1 X97.888 Y77.6 E15.61919
G1 X98.163 Y78.982 E15.68949
G1 X98.947 Y80.153 E15.7598
G1 X100.118 Y80.937 E15.8301
G1 X101.5 Y81.212 E15.9004
G0 F7500 X101.5 Y80.804
;TYPE:WALL-OUTER
G1 F1500 X102.726 Y80.56 E15.96277
G1 X103.765 Y79.865 E16.02513
G1 X104.46 Y78.826 E16.0875
G1 X104.704 Y77.6 E16.14986
G1 X104.46 Y76.374 E16.21223
G1 X103.765 Y75.335 E16.27459
G1 X102.726 Y74.64 E16.33695
G1 X101.5 Y74.396 E16.39932
G1 X100.274 Y74.64 E16.46168
G1 X99.235 Y75.335 E16.52405
G1 X98.54 Y76.374 E16.58641
G1 X98.296 Y77.6 E16.64878
G1 X98.54 Y78.826 E16.71114
G1 X99.235 Y79.865 E16.7735
G1 X100.274 Y80.56 E16.83587
G1 X101.5 Y80.804 E16.89823
G0 F7500 X101.696 Y80.765
G0 X101.78 Y81.196
G1 F2700 E10.39823
G0 F7500 X104.19 Y80.29
G0 X103.143 Y79.243
G0 X121.857 Y79.243
G0 X120.81 Y80.29
G0 X123.5 Y81.212
;TYPE:WALL-INNER
G1 F2700 E16.89823
G1 F1500 X124.882 Y80.937 E16.96853
G1 X126.053 Y80.153 E17.03884
G1 X126.837 Y78.982 E17.10915
G1 X127.112 Y77.6 E17.17945
G1 X126.837 Y76.218 E17.24975
G1 X126.053 Y75.047 E17.32005
G1 X124.882 Y74.263 E17.39036
G1 X123.5 Y73.988 E17.46066
G1 X122.118 Y74.263 E17.53096
G1 X120.947 Y75.047 E17.60126
G1 X120.163 Y76.218 E17.67157
G1 X119.888 Y77.6 E17.74187
G1 X120.163 Y78.982 E17.81217
G1 X120.947 Y80.153 E17.88248
G1 X122.118 Y80.937 E17.95278
G1 X123.5 Y81.212 E18.02308
G0 F7500 X123.5 Y80.804
;TYPE:WALL-OUTER
G1 F1500 X124.726 Y80.56 E18.08545
G1 X125.765 Y79.865 E18.14781
G1 X126.46 Y78.826 E18.21018
G1 X126.704 Y77.6 E18.27254
G1 X126.46 Y76.374 E18.33491
G1 X125.765 Y75.335 E18.39727
G1 X124.726 Y74.64 E18.45963
G1 X123.5 Y74.396 E18.522
G1 X122.274 Y74.64 E18.58436
G1 X121.235 Y75.335 E18.64673
G1 X120.54 Y76.374 E18.70909
G1 X120.296 Y77.6 E18.77146
G1 X120.54 Y78.826 E18.83382
G1 X121.235 Y79.865 E18.89618
G1 X122.274 Y80.56 E18.95855
G1 X123.5 Y80.804 E19.02091
G0 F7500 X123.696 Y80.765
G0 X123.78 Y81.196
G1 F2700 E12.52091
G0 F7500 X122.043 Y81.117
G0 X122.611 Y79.747
G0 X119.389 Y87.453
G0 X119.957 Y86.083
G0 X120.937 Y87.163
G0 X121.684 Y88.281
G0 X121.948 Y89.6
G0 X121.684 Y90.919
G0 X120.937 Y92.037
G0 X119.931 Y92.709
G0 X118.5 Y93.212
;TYPE:WALL-INNER
G1 F2700 E19.02091
G1 F1500 X119.882 Y92.937 E19.09121
G1 X121.053 Y92.153 E19.16152
G1 X121.837 Y90.982 E19.23183
G1 X122.112 Y89.6 E19.30213
G1 X121.837 Y88.218 E19.37243
G1 X121.053 Y87.047 E19.44273
G1 X119.882 Y86.263 E19.51304
G1 X118.5 Y85.988 E19.58334
G1 X117.118 Y86.263 E19.65364
G1 X115.947 Y87.047 E19.72394
G1 X115.163 Y88.218 E19.79425
G1 X114.888 Y89.6 E19.86455
G1 X115.163 Y90.982 E19.93485
G1 X115.947 Y92.153 E20.00516
G1 X117.118 Y92.937 E20.07546
G1 X118.5 Y93.212 E20.14576
G0 F7500 X118.5 Y92.804
;TYPE:WALL-OUTER
G1 F1500 X119.726 Y92.56 E20.20813
G1 X120.765 Y91.865 E20.27049
G1 X121.46 Y90.826 E20.33285
G1 X121.704 Y89.6 E20.39522
G1 X121.46 Y88.374 E20.45758
G1 X120.765 Y87.335 E20.51995
G1 X119.726 Y86.64 E20.58231
G1 X118.5 Y86.396 E20.64468
G1 X117.274 Y86.64 E20.70704
G1 X116.235 Y87.335 E20.76941
G1 X115.54 Y88.374 E20.83177
G1 X115.296 Y89.6 E20.89413
G1 X115.54 Y90.826 E20.9565
G1 X116.235 Y91.865 E21.01886
G1 X117.274 Y92.56 E21.08123
G1 X118.5 Y92.804 E21.14359
G0 F7500 X118.696 Y92.765
G0 X118.78 Y93.196
G1 F2700 E14.64359
G0 F7500 X118.5 Y93.406
G0 X118.5 Y91.923
G0 X118.5 Y99.277
G0 X118.5 Y97.794
G0 X119.819 Y98.416
G0 X120.937 Y99.163
G0 X121.684 Y100.281
G0 X121.948 Y101.6
G0 X121.684 Y102.919
G0 X120.937 Y104.037
G0 X119.931 Y104.709
G0 X118.5 Y105.212
;TYPE:WALL-INNER
G1 F2700 E21.14359
G1 F1500 X119.882 Y104.937 E21.21389
G1 X121.053 Y104.153 E21.2842
G1 X121.837 Y102.982 E21.3545
G1 X122.112 Y101.6 E21.4248
G1 X121.837 Y100.218 E21.4951
G1 X121.053 Y99.047 E21.56541
G1 X119.882 Y98.263 E21.63572
G1 X118.5 Y97.988 E21.70602
G1 X117.118 Y98.263 E21.77632
G1 X115.947 Y99.047 E21.84662
G1 X115.163 Y100.218 E21.91693
G1 X114.888 Y101.6 E21.98723
G1 X115.163 Y102.982 E22.05753
G1 X115.947 Y104.153 E22.12784
G1 X117.118 Y104.937 E22.19814
G1 X118.5 Y105.212 E22.26844
G0 F7500 X118.5 Y104.804
;TYPE:WALL-OUTER
G1 F1500 X119.726 Y104.56 E22.33081
G1 X120.765 Y103.865 E22.39317
G1 X121.46 Y102.826 E22.45553
G1 X121.704 Y101.6 E22.5179
G1 X121.46 Y100.374 E22.58026
G1 X120.765 Y99.335 E22.64263
G1 X119.726 Y98.64 E22.70499
G1 X118.5 Y98.396 E22.76736
G1 X117.274 Y98.64 E22.82972
G1 X116.235 Y99.335 E22.89209
G1 X115.54 Y100.374 E22.95445
G1 X115.296 Y101.6 E23.01681
G1 X115.54 Y102.826 E23.07918
G1 X116.235 Y103.865 E23.14154
G1 X117.274 Y104.56 E23.20391
G1 X118.5 Y104.804 E23.26627
G0 F7500 X118.696 Y104.765
G0 X118.78 Y105.196
G1 F2700 E16.76627
G0 F7500 X118.5 Y105.406
G0 X118.5 Y103.923
G0 X120 Y125.577
G0 X120 Y124.094
G0 X121.357 Y124.724
G0 X122.508 Y125.492
G0 X123.276 Y126.643
G0 X123.548 Y128
G0 X123.276 Y129.357
G0 X122.508 Y130.508
G0 X121.473 Y131.199
G0 X120 Y131.712
;TYPE:WALL-INNER
G1 F2700 E23.26627
G1 F1500 X121.42 Y131.429 E23.33851
G1 X122.624 Y130.624 E23.41077
G1 X123.429 Y129.42 E23.48302
G1 X123.712 Y128 E23.55526
G1 X123.429 Y126.58 E23.6275
G1 X122.624 Y125.376 E23.69975
G1 X121.42 Y124.571 E23.77201
G1 X120 Y124.288 E23.84425
G1 X118.58 Y124.571 E23.91649
G1 X117.376 Y125.376 E23.98874
G1 X116.571 Y126.58 E24.061
G1 X116.288 Y128 E24.13324
G1 X116.571 Y129.42 E24.20548
G1 X117.376 Y130.624 E24.27773
G1 X118.58 Y131.429 E24.34999
G1 X120 Y131.712 E24.42223
G0 F7500 X120 Y131.304
;TYPE:WALL-OUTER
G1 F1500 X121.264 Y131.052 E24.48653
G1 X122.336 Y130.336 E24.55084
G1 X123.052 Y129.264 E24.61516
G1 X123.304 Y128 E24.67946
G1 X123.052 Y126.736 E24.74376
G1 X122.336 Y125.664 E24.80808
G1 X121.264 Y124.948 E24.87239
G1 X120 Y124.696 E24.93669
G1 X118.736 Y124.948 E25.001
G1 X117.664 Y125.664 E25.06531
G1 X116.948 Y126.736 E25.12963
G1 X116.696 Y128 E25.19393
G1 X116.948 Y129.264 E25.25823
G1 X117.664 Y130.336 E25.32255
G1 X118.736 Y131.052 E25.38686
G1 X120 Y131.304 E25.45116
G0 F7500 X120.196 Y131.265
G0 X120.281 Y131.696
G1 F2700 E18.95116
G0 F7500 X118.955 Y131.356
G0 X117.239 Y130.761
G0 X118.287 Y129.713
G0 X101.713 Y129.713
G0 X102.761 Y130.761
G0 X100 Y131.712
;TYPE:WALL-INNER
G1 F2700 E25.45116
G1 F1500 X101.42 Y131.429 E25.5234
G1 X102.624 Y130.624 E25.59566
G1 X103.429 Y129.42 E25.66791
G1 X103.712 Y128 E25.74015
G1 X103.429 Y126.58 E25.81239
G1 X102.624 Y125.376 E25.88465
G1 X101.42 Y124.571 E25.9569
G1 X100 Y124.288 E26.02914
G1 X98.58 Y124.571 E26.10138
G1 X97.376 Y125.376 E26.17363
G1 X96.571 Y126.58 E26.24589
G1 X96.288 Y128 E26.31813
G1 X96.571 Y129.42 E26.39037
G1 X97.376 Y130.624 E26.46262
G1 X98.58 Y131.429 E26.53488
G1 X100 Y131.712 E26.60712
G0 F7500 X100 Y131.304
;TYPE:WALL-OUTER
G1 F1500 X101.264 Y131.052 E26.67142
G1 X102.336 Y130.336 E26.73573
G1 X103.052 Y129.264 E26.80005
G1 X103.304 Y128 E26.86435
G1 X103.052 Y126.736 E26.92865
G1 X102.336 Y125.664 E26.99297
G1 X101.264 Y124.948 E27.05728
G1 X100 Y124.696 E27.12159
G1 X98.736 Y124.948 E27.18589
G1 X97.664 Y125.664 E27.2502
G1 X96.948 Y126.736 E27.31452
G1 X96.696 Y128 E27.37882
G1 X96.948 Y129.264 E27.44312
G1 X97.664 Y130.336 E27.50744
G1 X98.736 Y131.052 E27.57175
G1 X100 Y131.304 E27.63605
G0 F7500 X100.196 Y131.265
G0 X100.281 Y131.696
G1 F2700 E21.13605
G0 F7500 X102.761 Y130.761
G0 X101.713 Y129.713
G0 X102.761 Y149.065
G0 X102.761 Y147.59
G0 X129.4 Y147.8
;TYPE:WALL-INNER
G1 F2700 E27.63605
G1 F1500 X90.6 Y147.8 E29.57179
G1 X90.6 Y72.2 E33.34349
G1 X129.4 Y72.2 E35.27923
G1 X129.4 Y147.8 E39.05093
G0 F7500 X129.8 Y148.2
;TYPE:WALL-OUTER
G1 F1500 X90.2 Y148.2 E41.02658
G1 X90.2 Y71.8 E44.83819
G1 X129.8 Y71.8 E46.81385
G1 X129.8 Y148.2 E50.62546
G0 F7500 X129.6 Y148.2
G0 X129.36 Y147.76
G0 X129.01 Y147.41
;TYPE:SKIN
G1 F1500 X90.99 Y147.41 E52.52228
G1 X90.99 Y72.59 E56.25507
G1 X129.01 Y72.59 E58.15189
G1 X129.01 Y147.41 E61.88468
G1 F2700 E55.38468
G0 F7500 X129.29 Y147.41
G0 X129.19 Y131.532
G0 X130.665 Y131.532
G0 X121.713 Y129.713
G0 X122.761 Y130.761
G0 X121.465 Y131.532
G1 F2700 E61.88468
G0 F7500 X121.572 Y131.796
G1 F1500 X122.905 Y130.905 E61.96467
G1 X123.796 Y129.572 E62.04466
G1 X124.11 Y128 E62.12464
G1 X123.796 Y126.428 E62.20462
G1 X122.905 Y125.095 E62.28461
G1 X121.572 Y124.204 E62.3646
G1 X120 Y123.89 E62.44458
G1 X118.428 Y124.204 E62.52455
G1 X117.095 Y125.095 E62.60455
G1 X116.204 Y126.428 E62.68454
G1 X115.89 Y128 E62.76451
G1 X116.204 Y129.572 E62.84449
G1 X117.095 Y130.905 E62.92448
G1 X118.428 Y131.796 E63.00448
G1 X120 Y132.11 E63.08445
G1 X121.572 Y131.796 E63.16443
G1 F2700 E56.66443
G0 F7500 X121.465 Y131.532
G0 X120 Y131.548
G0 X118.902 Y131.329
G0 X117.239 Y130.761
G0 X118.287 Y129.713
G0 X102.239 Y128.927
G0 X103.609 Y129.495
G0 X102.705 Y130.702
G1 F2700 E63.16443
G0 F7500 X102.905 Y130.905
G1 F1500 X103.796 Y129.572 E63.24442
G1 X104.11 Y128 E63.3244
G1 X103.796 Y126.428 E63.40437
G1 X102.905 Y125.095 E63.48437
G1 X101.572 Y124.204 E63.56436
G1 X100 Y123.89 E63.64434
G1 X98.428 Y124.204 E63.72431
G1 X97.095 Y125.095 E63.8043
G1 X96.204 Y126.428 E63.8843
G1 X95.89 Y128 E63.96427
G1 X96.204 Y129.572 E64.04425
G1 X97.095 Y130.905 E64.12424
G1 X98.428 Y131.796 E64.20423
G1 X100 Y132.11 E64.28421
G1 X101.572 Y131.796 E64.36419
G1 X102.905 Y130.905 E64.44418
G1 F2700 E57.94418
G0 F7500 X102.705 Y130.702
G0 X103.276 Y129.357
G0 X103.495 Y128.259
G0 X103.609 Y126.505
G0 X102.239 Y127.073
G0 X118.5 Y103.923
G0 X118.5 Y105.406
G0 X119.927 Y105.04
G1 F2700 E64.44418
G0 F7500 X120.034 Y105.304
G1 F1500 X121.334 Y104.434 E64.52222
G1 X122.204 Y103.134 E64.60026
G1 X122.51 Y101.6 E64.6783
G1 X122.204 Y100.066 E64.75634
G1 X121.334 Y98.766 E64.83438
G1 X120.034 Y97.896 E64.91242
G1 X118.5 Y97.59 E64.99046
G1 X116.966 Y97.896 E65.0685
G1 X115.666 Y98.766 E65.14654
G1 X114.796 Y100.066 E65.22458
G1 X114.49 Y101.6 E65.30262
G1 X114.796 Y103.134 E65.38066
G1 X115.666 Y104.434 E65.4587
G1 X116.966 Y105.304 E65.53674
G1 X118.5 Y105.61 E65.61478
G1 X120.034 Y105.304 E65.69282
G1 F2700 E59.19282
G0 F7500 X119.927 Y105.04
G0 X120.937 Y104.037
G0 X121.684 Y102.919
G0 X121.948 Y101.6
G0 X121.684 Y100.281
G0 X120.937 Y99.163
G0 X120.032 Y98.559
G0 X118.5 Y97.794
G0 X118.5 Y99.277
G0 X118.5 Y91.923
G0 X118.5 Y93.406
G1 F2700 E65.69282
G0 F7500 X118.5 Y93.61
G1 F1500 X120.034 Y93.304 E65.77086
G1 X121.334 Y92.434 E65.8489
G1 X122.204 Y91.134 E65.92694
G1 X122.51 Y89.6 E66.00498
G1 X122.204 Y88.066 E66.08302
G1 X121.334 Y86.766 E66.16106
G1 X120.034 Y85.896 E66.2391
G1 X118.5 Y85.59 E66.31714
G1 X116.966 Y85.896 E66.39518
G1 X115.666 Y86.766 E66.47322
G1 X114.796 Y88.066 E66.55127
G1 X114.49 Y89.6 E66.62931
G1 X114.796 Y91.134 E66.70734
G1 X115.666 Y92.434 E66.78539
G1 X116.966 Y93.304 E66.86343
G1 X118.5 Y93.61 E66.94147
G1 F2700 E60.44147
G0 F7500 X118.501 Y93.324
G0 X119.819 Y92.784
G0 X120.937 Y92.037
G0 X121.684 Y90.919
G0 X121.948 Y89.6
G0 X121.684 Y88.281
G0 X121.262 Y87.648
G0 X120.2 Y86.247
G0 X119.389 Y87.453
G0 X122.611 Y79.747
G0 X122.043 Y81.117
G0 X123.501 Y81.324
G1 F2700 E66.94147
G0 F7500 X123.5 Y81.61
G1 F1500 X125.034 Y81.304 E67.01951
G1 X126.334 Y80.434 E67.09755
G1 X127.204 Y79.134 E67.17559
G1 X127.51 Y77.6 E67.25363
G1 X127.204 Y76.066 E67.33167
G1 X126.334 Y74.766 E67.40971
G1 X125.034 Y73.896 E67.48775
G1 X123.5 Y73.59 E67.56579
G1 X121.966 Y73.896 E67.64383
G1 X120.666 Y74.766 E67.72187
G1 X119.796 Y76.066 E67.79991
G1 X119.49 Y77.6 E67.87795
G1 X119.796 Y79.134 E67.95599
G1 X120.666 Y80.434 E68.03403
G1 X121.966 Y81.304 E68.11207
G1 X123.5 Y81.61 E68.19011
G1 F2700 E61.69011
G0 F7500 X123.501 Y81.324
G0 X120.81 Y80.29
G0 X121.857 Y79.243
G0 X103.143 Y79.243
G0 X104.19 Y80.29
G0 X102.927 Y81.04
G1 F2700 E68.19011
G0 F7500 X103.034 Y81.304
G1 F1500 X104.334 Y80.434 E68.26815
G1 X105.204 Y79.134 E68.34619
G1 X105.51 Y77.6 E68.42423
G1 X105.204 Y76.066 E68.50227
G1 X104.334 Y74.766 E68.58031
G1 X103.034 Y73.896 E68.65835
G1 X101.5 Y73.59 E68.73639
G1 X99.966 Y73.896 E68.81443
G1 X98.666 Y74.766 E68.89247
G1 X97.796 Y76.066 E68.97051
G1 X97.49 Y77.6 E69.04855
G1 X97.796 Y79.134 E69.12659
G1 X98.666 Y80.434 E69.20463
G1 X99.966 Y81.304 E69.28268
G1 X101.5 Y81.61 E69.36071
G1 X103.034 Y81.304 E69.43875
G1 F2700 E62.93875
G0 F7500 X102.927 Y81.04
G0 X101.5 Y81.406
G0 X101.5 Y79.923
G0 X101.5 Y87.277
G0 X101.5 Y85.794
G0 X102.819 Y86.416
G0 X103.937 Y87.163
G0 X104.684 Y88.281
G0 X104.948 Y89.6
G0 X104.684 Y90.919
G0 X104.012 Y91.925
