;FLAVOR:Marlin
;TIME:14862
;Filament used: 9.23527m
;Layer height: 0.15
;MINX:62.515
;MINY:65.9
;MINZ:0.3
;MAXX:137.973
;MAXY:154.1
;MAXZ:40.05
;Generated with Cura_SteamEngine 4.13.1
M140 S60
M105
M190 S60
M104 S195
M105
M109 S195
M82 ;absolute extrusion mode
G28 ;Home
G1 Z15.0 F2000 ;Move the platform
G92 E0
G92 E0
G1 F2700 E-6.5
;LAYER_COUNT:266
;LAYER:0
M107
M204 S1000
G0 F7500 X63.93 Y87.357 Z0.3
;TYPE:SKIRT
G1 F2700 E0
G1 F1500 X64.665 Y86.859 E0.04429
G1 X65.561 Y86.272 E0.09773
G1 X67.828 Y84.69 E0.23565
G1 X70.02 Y83.067 E0.37172
G1 X72.162 Y81.386 E0.50757
G1 X74.292 Y79.613 E0.64583
G1 X76.315 Y77.831 E0.78033
G1 X78.327 Y75.956 E0.91754
G1 X80.28 Y74.027 E1.05449
G1 X82.18 Y72.044 E1.19151
G1 X84.01 Y70.021 E1.3276
G1 X85.823 Y67.901 E1.46677
G1 X86.517 Y67.065 E1.52098
G1 X86.87 Y66.703 E1.5462
G1 X87.275 Y66.4 E1.57144
G1 X87.723 Y66.166 E1.59665
G1 X88.202 Y66.005 E1.62187
G1 X88.89 Y65.91 E1.65652
G1 X89.303 Y65.9 E1.67713
G1 X101.645 Y65.9 E2.29287
G1 X102.347 Y65.91 E2.3279
G1 X102.85 Y65.957 E2.3531
G1 X103.34 Y66.083 E2.37834
G1 X103.803 Y66.285 E2.40355
G1 X104.23 Y66.556 E2.42878
G1 X104.608 Y66.892 E2.45401
G1 X104.928 Y67.283 E2.47922
G1 X105.096 Y67.551 E2.495
G1 X105.439 Y68.167 E2.53017
G1 X106.074 Y69.341 E2.59676
G1 X107.428 Y71.687 E2.7319
G1 X108.868 Y74.024 E2.86885
G1 X110.383 Y76.337 E3.0068
G1 X111.943 Y78.575 E3.1429
G1 X113.553 Y80.752 E3.27798
G1 X115.266 Y82.939 E3.41658
G1 X117.004 Y85.03 E3.55223
G1 X118.818 Y87.091 E3.68921
G1 X120.658 Y89.067 E3.82391
G1 X122.611 Y91.05 E3.96277
G1 X124.569 Y92.927 E4.09809
G1 X126.604 Y94.77 E4.23507
G1 X128.691 Y96.556 E4.37211
G1 X130.81 Y98.268 E4.50802
G1 X132.994 Y99.933 E4.64503
G1 X135.206 Y101.521 E4.78088
G1 X135.562 Y101.763 E4.80236
G1 X136.59 Y102.478 E4.86483
G1 X136.981 Y102.799 E4.89007
G1 X137.317 Y103.177 E4.9153
G1 X137.589 Y103.603 E4.94052
G1 X137.79 Y104.067 E4.96574
G1 X137.916 Y104.556 E4.99094
G1 X137.961 Y105.007 E5.01355
G1 X137.973 Y105.43 E5.03466
G1 X137.973 Y150.204 E7.26845
G1 X137.964 Y150.931 E7.30472
G1 X137.918 Y151.434 E7.32992
G1 X137.793 Y151.924 E7.35515
G1 X137.592 Y152.388 E7.38037
G1 X137.321 Y152.815 E7.40561
G1 X136.986 Y153.194 E7.43084
G1 X136.596 Y153.515 E7.45604
G1 X136.16 Y153.771 E7.48127
G1 X135.689 Y153.954 E7.50648
G1 X135.195 Y154.062 E7.5317
G1 X134.854 Y154.09 E7.54877
G1 X134.443 Y154.1 E7.56929
G1 X89.634 Y154.1 E9.80482
G1 X88.932 Y154.09 E9.83984
G1 X88.429 Y154.043 E9.86505
G1 X87.939 Y153.917 E9.89029
G1 X87.476 Y153.715 E9.91549
G1 X87.049 Y153.444 E9.94072
G1 X86.546 Y152.969 E9.97524
G1 X86.365 Y152.758 E9.98911
G1 X84.855 Y150.943 E10.1069
G1 X83.072 Y148.919 E10.24147
G1 X81.197 Y146.907 E10.37868
G1 X79.268 Y144.954 E10.51563
G1 X77.285 Y143.054 E10.65264
G1 X75.266 Y141.227 E10.78849
G1 X73.164 Y139.431 E10.92642
G1 X71.04 Y137.717 E11.06259
G1 X68.889 Y136.08 E11.19745
G1 X66.642 Y134.467 E11.33544
G1 X64.374 Y132.935 E11.47199
G1 X63.964 Y132.665 E11.49648
G1 X63.565 Y132.354 E11.52172
G1 X63.22 Y131.985 E11.54692
G1 X62.937 Y131.565 E11.57219
G1 X62.724 Y131.107 E11.59739
G1 X62.586 Y130.62 E11.62264
G1 X62.525 Y130.081 E11.64971
G1 X62.515 Y129.67 E11.67022
G1 X62.515 Y90.661 E13.61638
G1 X62.525 Y89.96 E13.65136
G1 X62.572 Y89.457 E13.67656
G1 X62.698 Y88.967 E13.70181
G1 X62.9 Y88.504 E13.72701
G1 X63.172 Y88.077 E13.75227
G1 X63.507 Y87.699 E13.77746
G1 X63.93 Y87.357 E13.8046
G1 F2700 E7.3046
;MESH:ProfileConstruct-DoubleProfileNutScrewM5.stl
G0 F7500 X71.831 Y98.95
G0 X70.485 Y98.363
G0 X70.32 Y99.199
;TYPE:WALL-INNER
G1 F2700 E13.8046
G1 F1500 X70.163 Y99.178 E13.81251
G1 X70.004 Y100.008 E13.85467
G1 X70.248 Y101.229 E13.91679
G1 X70.945 Y102.27 E13.97929
G1 X71.986 Y102.967 E14.04179
G1 X73.215 Y103.212 E14.10431
G1 X74.448 Y102.965 E14.16705
G1 X75.486 Y102.27 E14.22937
G1 X76.183 Y101.229 E14.29187
G1 X76.427 Y100 E14.35439
G1 X76.183 Y98.771 E14.4169
G1 X75.486 Y97.728 E14.47948
G1 X74.444 Y97.033 E14.54197
G1 X73.687 Y96.883 E14.58047
G1 X73.347 Y96.864 E14.59746
G1 X73.037 Y96.883 E14.61296
G1 X72.707 Y96.93 E14.62959
G1 X72.387 Y97.016 E14.64612
G1 X72.084 Y97.134 E14.66234
G1 X71.798 Y97.281 E14.67838
G1 X71.53 Y97.455 E14.69432
G1 X71.284 Y97.655 E14.71014
G1 X71.051 Y97.888 E14.72658
G1 X70.856 Y98.133 E14.7422
G1 X70.653 Y98.454 E14.76115
G1 X70.493 Y98.806 E14.78044
G1 X70.39 Y99.062 E14.79421
G1 X70.32 Y99.199 E14.80189
G0 F7500 X70.485 Y99.625
;TYPE:WALL-OUTER
G1 F1500 X70.412 Y100.006 E14.82124
G1 X70.625 Y101.073 E14.87552
G1 X71.233 Y101.982 E14.93008
G1 X72.142 Y102.59 E14.98464
G1 X73.215 Y102.804 E15.03923
G1 X74.292 Y102.588 E15.09403
G1 X75.198 Y101.982 E15.14841
G1 X75.806 Y101.073 E15.20297
G1 X76.019 Y100 E15.25755
G1 X75.806 Y98.927 E15.31212
G1 X75.198 Y98.017 E15.36672
G1 X74.288 Y97.41 E15.4213
G1 X73.637 Y97.281 E15.45441
G1 X73.348 Y97.265 E15.46885
G1 X73.078 Y97.281 E15.48234
G1 X72.788 Y97.323 E15.49696
G1 X72.511 Y97.397 E15.51126
G1 X72.248 Y97.499 E15.52534
G1 X71.999 Y97.627 E15.53931
G1 X71.766 Y97.779 E15.55318
G1 X71.552 Y97.952 E15.56691
G1 X71.35 Y98.155 E15.5812
G1 X71.182 Y98.365 E15.59462
G1 X71.006 Y98.644 E15.61108
G1 X70.861 Y98.964 E15.6286
G1 X70.758 Y99.219 E15.64232
G1 X70.635 Y99.464 E15.656
G1 X70.559 Y99.635 E15.66534
G1 X70.485 Y99.625 E15.66906
G0 F7500 X70.448 Y99.821
G0 X70.015 Y99.738
G1 F2700 E9.16906
G0 F7500 X70.401 Y101.166
G0 X70.935 Y101.966
G0 X71.911 Y103.147
G0 X72.479 Y101.777
G0 X73.13 Y118.143
G0 X72.984 Y116.694
G0 X74.381 Y117.186
G0 X75.37 Y117.846
G0 X76.03 Y118.834
G0 X76.263 Y120
G0 X76.031 Y121.161
G0 X75.437 Y122.055
G0 X74.444 Y122.967
;TYPE:WALL-INNER
G1 F2700 E15.66906
G1 F1500 X75.487 Y122.271 E15.73162
G1 X76.184 Y121.224 E15.79437
G1 X76.427 Y120 E15.85663
G1 X76.183 Y118.771 E15.91914
G1 X75.486 Y117.73 E15.98164
G1 X74.444 Y117.033 E16.04419
G1 X73.687 Y116.883 E16.08269
G1 X73.348 Y116.864 E16.09963
G1 X73.004 Y116.884 E16.11682
G1 X72.705 Y116.931 E16.13192
G1 X72.387 Y117.016 E16.14834
G1 X72.084 Y117.134 E16.16456
G1 X71.796 Y117.281 E16.18069
G1 X71.531 Y117.455 E16.19651
G1 X71.282 Y117.656 E16.21247
G1 X71.052 Y117.886 E16.2287
G1 X70.858 Y118.131 E16.24429
G1 X70.684 Y118.399 E16.26024
G1 X70.545 Y118.677 E16.27574
G1 X70.451 Y118.928 E16.28911
G1 X70.318 Y119.199 E16.30417
G1 X70.163 Y119.178 E16.31198
G1 X70.004 Y120.008 E16.35414
G1 X70.248 Y121.229 E16.41626
G1 X70.945 Y122.271 E16.4788
G1 X71.986 Y122.967 E16.54128
G1 X73.215 Y123.212 E16.6038
G1 X74.444 Y122.967 E16.66632
G0 F7500 X74.288 Y122.59
;TYPE:WALL-OUTER
G1 F1500 X75.198 Y121.983 E16.72089
G1 X75.807 Y121.068 E16.77573
G1 X76.019 Y120 E16.83005
G1 X75.806 Y118.927 E16.88463
G1 X75.198 Y118.018 E16.93919
G1 X74.288 Y117.41 E16.99379
G1 X73.637 Y117.281 E17.0269
G1 X73.348 Y117.265 E17.04134
G1 X73.047 Y117.282 E17.05638
G1 X72.788 Y117.323 E17.06946
G1 X72.511 Y117.397 E17.08377
G1 X72.248 Y117.499 E17.09784
G1 X71.998 Y117.627 E17.11185
G1 X71.767 Y117.779 E17.12565
G1 X71.55 Y117.954 E17.13956
G1 X71.351 Y118.153 E17.1536
G1 X71.183 Y118.365 E17.16709
G1 X71.032 Y118.598 E17.18095
G1 X70.912 Y118.838 E17.19433
G1 X70.816 Y119.092 E17.20788
G1 X70.694 Y119.34 E17.22167
G1 X70.58 Y119.591 E17.23542
G1 X70.559 Y119.635 E17.23785
G1 X70.485 Y119.625 E17.24158
G1 X70.412 Y120.006 E17.26093
G1 X70.625 Y121.073 E17.31522
G1 X71.233 Y121.983 E17.36982
G1 X72.142 Y122.59 E17.42435
G1 X73.215 Y122.804 E17.47894
G1 X74.288 Y122.59 E17.53352
G0 F7500 X74.454 Y122.479
G0 X74.698 Y122.846
G1 F2700 E11.03352
G0 F7500 X75.513 Y122.506
G0 X74.576 Y121.36
G0 X81.38 Y122.506
G0 X79.905 Y122.506
G0 X80.115 Y129.4
;TYPE:WALL-INNER
G1 F2700 E17.53352
G1 F1500 X66.315 Y129.4 E18.22201
G1 X66.315 Y90.6 E20.15775
G1 X80.115 Y90.6 E20.84623
G1 X80.115 Y129.4 E22.78197
G0 F7500 X80.515 Y129.8
;TYPE:WALL-OUTER
G1 F1500 X65.915 Y129.8 E23.51037
G1 X65.915 Y90.2 E25.48602
G1 X80.515 Y90.2 E26.21442
G1 X80.515 Y129.8 E28.19007
G0 F7500 X80.315 Y129.8
G0 X80.075 Y129.36
G0 X79.725 Y129.01
;TYPE:SKIN
G1 F1500 X66.705 Y129.01 E28.83964
G1 X66.705 Y90.99 E30.73647
G1 X79.725 Y90.99 E31.38604
G1 X79.725 Y129.01 E33.28286
G1 F2700 E26.78286
G0 F7500 X80.005 Y129.01
G0 X79.905 Y122.349
G0 X81.38 Y122.349
G0 X74.994 Y120.733
G0 X76.364 Y121.299
G0 X75.568 Y122.349
G1 F2700 E33.28286
G0 F7500 X75.768 Y122.552
G1 F1500 X76.551 Y121.376 E33.35335
G1 X76.825 Y120 E33.42334
G1 X76.55 Y118.619 E33.4936
G1 X75.767 Y117.449 E33.56383
G1 X74.596 Y116.666 E33.63411
G1 X73.736 Y116.495 E33.67786
G1 X73.348 Y116.474 E33.69724
G1 X72.963 Y116.496 E33.71648
G1 X72.625 Y116.549 E33.73355
G1 X72.266 Y116.645 E33.75209
G1 X71.924 Y116.777 E33.77038
G1 X71.599 Y116.944 E33.78861
G1 X71.301 Y117.139 E33.80638
G1 X71.021 Y117.366 E33.82436
G1 X70.76 Y117.626 E33.84274
G1 X70.54 Y117.903 E33.86039
G1 X70.345 Y118.206 E33.87836
G1 X70.186 Y118.521 E33.89597
G1 X70.1 Y118.756 E33.90845
G1 X69.849 Y118.742 E33.92099
G1 X69.606 Y120.01 E33.98541
G1 X69.881 Y121.381 E34.05517
G1 X70.664 Y122.552 E34.12545
G1 X71.834 Y123.334 E34.19566
G1 X73.215 Y123.61 E34.26592
G1 X74.596 Y123.334 E34.33618
G1 X75.768 Y122.552 E34.40647
G1 F2700 E27.90647
G0 F7500 X75.568 Y122.349
G0 X76.031 Y121.161
G0 X76.263 Y120
G0 X76.03 Y118.834
G0 X75.496 Y118.034
G0 X74.519 Y116.853
G0 X73.951 Y118.223
G0 X73.214 Y101.923
G0 X73.215 Y103.406
G0 X74.493 Y103.068
G1 F2700 E34.40647
G0 F7500 X74.6 Y103.332
G1 F1500 X75.767 Y102.551 E34.47653
G1 X76.55 Y101.381 E34.54676
G1 X76.825 Y100 E34.61701
G1 X76.55 Y98.619 E34.68727
G1 X75.767 Y97.447 E34.75759
G1 X74.596 Y96.666 E34.82781
G1 X73.736 Y96.495 E34.87155
G1 X73.345 Y96.474 E34.89109
G1 X72.998 Y96.495 E34.90843
G1 X72.629 Y96.548 E34.92703
G1 X72.266 Y96.645 E34.94578
G1 X71.924 Y96.777 E34.96407
G1 X71.603 Y96.943 E34.9821
G1 X71.3 Y97.139 E35.0001
G1 X71.022 Y97.365 E35.01797
G1 X70.76 Y97.628 E35.03649
G1 X70.538 Y97.907 E35.05428
G1 X70.309 Y98.268 E35.07561
G1 X70.134 Y98.652 E35.09666
G1 X70.085 Y98.774 E35.10322
G1 X69.849 Y98.743 E35.1151
G1 X69.606 Y100.01 E35.17946
G1 X69.881 Y101.381 E35.24922
G1 X70.664 Y102.551 E35.31946
G1 X71.834 Y103.334 E35.3897
G1 X73.215 Y103.61 E35.45996
G1 X74.6 Y103.332 E35.53044
G1 F2700 E29.03044
G0 F7500 X74.493 Y103.068
G0 X75.37 Y102.154
G0 X76.03 Y101.166
G0 X76.263 Y100
G0 X76.075 Y99.056
G0 X75.623 Y97.591
G0 X74.575 Y98.64
G0 X81.38 Y97.591
G0 X79.905 Y97.591
G0 X80.005 Y91.444
G1 F2700 E35.53044
G0 F7500 X79.565 Y91.444
G1 F1500 X79.27 Y91.149 E35.55125
G0 F7500 X78.704 Y91.149
G1 F1500 X79.565 Y92.01 E35.612
G0 F7500 X79.565 Y92.575
G1 F1500 X78.138 Y91.149 E35.71264
G0 F7500 X77.573 Y91.149
G1 F1500 X79.565 Y93.141 E35.85319
G0 F7500 X79.565 Y93.707
G1 F1500 X77.007 Y91.149 E36.03367
G0 F7500 X76.441 Y91.149
G1 F1500 X79.565 Y94.272 E36.25405
G0 F7500 X79.565 Y94.838
G1 F1500 X75.876 Y91.149 E36.51433
G0 F7500 X75.31 Y91.149
G1 F1500 X79.565 Y95.404 E36.81454
G0 F7500 X79.565 Y95.969
G1 F1500 X74.744 Y91.149 E37.15466
G0 F7500 X74.179 Y91.149
G1 F1500 X79.565 Y96.535 E37.53467
G0 F7500 X79.565 Y97.101
G1 F1500 X73.613 Y91.149 E37.95461
G0 F7500 X73.047 Y91.149
G1 F1500 X79.565 Y97.667 E38.41449
G0 F7500 X79.565 Y98.232
G1 F1500 X72.481 Y91.149 E38.91427
G0 F7500 X71.916 Y91.149
G1 F1500 X79.565 Y98.798 E39.45395
G0 F7500 X79.565 Y99.364
G1 F1500 X71.35 Y91.149 E40.03356
G0 F7500 X70.784 Y91.149
G1 F1500 X79.565 Y99.929 E40.65307
G0 F7500 X79.565 Y100.495
G1 F1500 X70.219 Y91.149 E41.31249
G0 F7500 X69.653 Y91.149
G1 F1500 X75.741 Y97.237 E41.74203
G0 F7500 X75.975 Y97.471
G1 F1500 X79.565 Y101.061 E41.99532
G0 F7500 X79.565 Y101.626
G1 F1500 X76.75 Y98.812 E42.1939
G0 F7500 X76.892 Y99.519
G1 F1500 X79.565 Y102.192 E42.38249
G0 F7500 X79.565 Y102.758
G1 F1500 X76.957 Y100.151 E42.56647
G0 F7500 X76.863 Y100.622
G1 F1500 X79.565 Y103.323 E42.75707
G0 F7500 X79.565 Y103.889
G1 F1500 X76.769 Y101.093 E42.95435
G0 F7500 X76.64 Y101.53
G1 F1500 X79.565 Y104.455 E43.16072
G0 F7500 X79.565 Y105.02
G1 F1500 X76.413 Y101.869 E43.38307
G0 F7500 X76.187 Y102.208
G1 F1500 X79.565 Y105.586 E43.62141
G0 F7500 X79.565 Y106.152
G1 F1500 X75.96 Y102.547 E43.87576
G0 F7500 X75.661 Y102.814
G1 F1500 X79.565 Y106.717 E44.15118
G0 F7500 X79.565 Y107.283
G1 F1500 X75.322 Y103.041 E44.45051
G0 F7500 X74.983 Y103.267
G1 F1500 X79.565 Y107.849 E44.77379
G0 F7500 X79.565 Y108.415
G1 F1500 X74.637 Y103.487 E45.12149
G0 F7500 X74.166 Y103.581
G1 F1500 X79.565 Y108.98 E45.50242
G0 F7500 X79.565 Y109.546
G1 F1500 X73.694 Y103.675 E45.91665
G0 F7500 X73.223 Y103.77
G1 F1500 X79.565 Y110.112 E46.36411
G0 F7500 X79.565 Y110.677
G1 F1500 X72.52 Y103.633 E46.86114
G0 F7500 X71.813 Y103.492
G1 F1500 X79.565 Y111.243 E47.40805
G0 F7500 X79.565 Y111.809
G1 F1500 X66.864 Y99.108 E48.30417
G0 F7500 X66.864 Y98.543
G1 F1500 X69.722 Y101.401 E48.50582
G0 F7500 X69.58 Y100.693
G1 F1500 X66.864 Y97.977 E48.69745
G0 F7500 X66.864 Y97.411
G1 F1500 X69.447 Y99.994 E48.87969
G0 F7500 X69.537 Y99.518
G1 F1500 X66.864 Y96.846 E49.06825
G0 F7500 X66.864 Y96.28
G1 F1500 X69.628 Y99.044 E49.26327
G0 F7500 X69.719 Y98.569
G1 F1500 X66.864 Y95.714 E49.4647
G0 F7500 X66.864 Y95.148
G1 F1500 X70.087 Y98.371 E49.6921
G0 F7500 X70.286 Y98.004
G1 F1500 X66.864 Y94.583 E49.93351
G0 F7500 X66.864 Y94.017
G1 F1500 X70.519 Y97.672 E50.19139
G0 F7500 X70.786 Y97.373
G1 F1500 X66.864 Y93.451 E50.46811
G0 F7500 X66.864 Y92.886
G1 F1500 X71.084 Y97.106 E50.76585
G0 F7500 X71.416 Y96.872
G1 F1500 X66.864 Y92.32 E51.08702
G0 F7500 X66.864 Y91.754
G1 F1500 X71.78 Y96.67 E51.43387
G0 F7500 X72.18 Y96.505
G1 F1500 X66.864 Y91.189 E51.80894
G0 F7500 X67.39 Y91.149
G1 F1500 X72.627 Y96.386 E52.17844
G0 F7500 X73.133 Y96.326
G1 F1500 X67.956 Y91.149 E52.54371
G0 F7500 X68.522 Y91.149
G1 F1500 X73.705 Y96.332 E52.90939
G0 F7500 X74.402 Y96.464
G1 F1500 X69.087 Y91.149 E53.2844
G0 F7500 X69.087 Y90.71
G0 X66.497 Y90.782
G0 X66.425 Y99.674
G0 X66.864 Y99.674
G1 F1500 X79.565 Y112.374 E54.18049
G0 F7500 X79.565 Y112.94
G1 F1500 X66.864 Y100.24 E55.07657
G0 F7500 X66.864 Y100.805
G1 F1500 X79.565 Y113.506 E55.9727
G0 F7500 X79.565 Y114.071
G1 F1500 X66.864 Y101.371 E56.86879
G0 F7500 X66.864 Y101.937
G1 F1500 X79.565 Y114.637 E57.76488
G0 F7500 X79.565 Y115.203
G1 F1500 X66.864 Y102.502 E58.661
G0 F7500 X66.864 Y103.068
G1 F1500 X79.565 Y115.768 E59.55709
G0 F7500 X79.565 Y116.334
G1 F1500 X66.864 Y103.634 E60.45318
G0 F7500 X66.864 Y104.199
G1 F1500 X79.565 Y116.9 E61.3493
G0 F7500 X79.565 Y117.465
G1 F1500 X66.864 Y104.765 E62.24539
G0 F7500 X66.864 Y105.331
G1 F1500 X79.565 Y118.031 E63.14148
G0 F7500 X79.565 Y118.597
G1 F1500 X66.864 Y105.897 E64.03757
G0 F7500 X66.864 Y106.462
G1 F1500 X79.565 Y119.163 E64.93369
G0 F7500 X79.565 Y119.728
G1 F1500 X66.864 Y107.028 E65.82978
G0 F7500 X66.864 Y107.594
G1 F1500 X79.565 Y120.294 E66.72587
G0 F7500 X79.565 Y120.86
G1 F1500 X66.864 Y108.159 E67.62199
G0 F7500 X66.864 Y108.725
G1 F1500 X74.653 Y116.514 E68.17155
G0 F7500 X73.946 Y116.372
G1 F1500 X66.864 Y109.291 E68.67119
G0 F7500 X66.864 Y109.856
G1 F1500 X73.322 Y116.314 E69.12684
G0 F7500 X72.8 Y116.358
G1 F1500 X66.864 Y110.422 E69.54565
G0 F7500 X66.864 Y110.988
G1 F1500 X72.336 Y116.459 E69.9317
G0 F7500 X71.917 Y116.606
G1 F1500 X66.864 Y111.553 E70.28821
G0 F7500 X66.864 Y112.119
G1 F1500 X71.539 Y116.794 E70.61806
G0 F7500 X71.195 Y117.016
G1 F1500 X66.864 Y112.685 E70.92363
G0 F7500 X66.864 Y113.25
G1 F1500 X70.886 Y117.272 E71.20741
G0 F7500 X70.608 Y117.56
G1 F1500 X66.864 Y113.816 E71.47157
G0 F7500 X66.864 Y114.382
G1 F1500 X70.363 Y117.881 E71.71844
G0 F7500 X70.152 Y118.235
G1 F1500 X66.864 Y114.947 E71.95043
G0 F7500 X66.864 Y115.513
G1 F1500 X69.937 Y118.586 E72.16724
G0 F7500 X69.66 Y118.875
G1 F1500 X66.864 Y116.079 E72.36452
G0 F7500 X66.864 Y116.645
G1 F1500 X69.57 Y119.35 E72.55541
G0 F7500 X69.479 Y119.825
G1 F1500 X66.864 Y117.21 E72.73991
G0 F7500 X66.864 Y117.776
G1 F1500 X69.53 Y120.442 E72.92801
G0 F7500 X69.672 Y121.15
G1 F1500 X66.864 Y118.342 E73.12613
G0 F7500 X66.864 Y118.907
G1 F1500 X70.4 Y122.444 E73.37565
G0 F7500 X70.772 Y122.815
G1 F1500 X76.805 Y128.848 E73.80131
G0 F7500 X76.24 Y128.848
